; Generated G-code from Designer tool
; Tool diameter: 3.175mm
; Cut depth: -0.200mm
; Feed rate: 100 mm/min
; Spindle speed: 3000 RPM
; Total path length: 20386.134mm

G90         ; Absolute positioning
G21         ; Millimeter units
G17         ; XY plane
M3 S3000      ; Spindle on at 3000 RPM


; Shape ID=66, Type=Rectangle
; Name: Rectangle
; Operation: Profile
; Position: (10.240, 10.874) to (135.240, 135.874)
; Corner radius: 7.000mm
; Cut depth: 3.000mm, Step down: 0.200mm
G00 X17.240 Y10.874 Z10.000
G01 Z-0.200 F100
G01 X128.240 Y10.874 F100
G01 Z-0.200 F100
G03 X135.240 Y17.874 I0.000 J7.000 F100
G01 Z-0.200 F100
G01 X135.240 Y128.874 F100
G01 Z-0.200 F100
G03 X128.240 Y135.874 I-7.000 J0.000 F100
G01 Z-0.200 F100
G01 X17.240 Y135.874 F100
G01 Z-0.200 F100
G03 X10.240 Y128.874 I0.000 J-7.000 F100
G01 Z-0.200 F100
G01 X10.240 Y17.874 F100
G01 Z-0.200 F100
G03 X17.240 Y10.874 I7.000 J0.000 F100
G00 X0.000 Y0.000 Z10.000
G00 X17.240 Y10.874 Z10.000
G01 Z-0.400 F100
G01 X128.240 Y10.874 F100
G01 Z-0.400 F100
G03 X135.240 Y17.874 I0.000 J7.000 F100
G01 Z-0.400 F100
G01 X135.240 Y128.874 F100
G01 Z-0.400 F100
G03 X128.240 Y135.874 I-7.000 J0.000 F100
G01 Z-0.400 F100
G01 X17.240 Y135.874 F100
G01 Z-0.400 F100
G03 X10.240 Y128.874 I0.000 J-7.000 F100
G01 Z-0.400 F100
G01 X10.240 Y17.874 F100
G01 Z-0.400 F100
G03 X17.240 Y10.874 I7.000 J0.000 F100
G00 X0.000 Y0.000 Z10.000
G00 X17.240 Y10.874 Z10.000
G01 Z-0.600 F100
G01 X128.240 Y10.874 F100
G01 Z-0.600 F100
G03 X135.240 Y17.874 I0.000 J7.000 F100
G01 Z-0.600 F100
G01 X135.240 Y128.874 F100
G01 Z-0.600 F100
G03 X128.240 Y135.874 I-7.000 J0.000 F100
G01 Z-0.600 F100
G01 X17.240 Y135.874 F100
G01 Z-0.600 F100
G03 X10.240 Y128.874 I0.000 J-7.000 F100
G01 Z-0.600 F100
G01 X10.240 Y17.874 F100
G01 Z-0.600 F100
G03 X17.240 Y10.874 I7.000 J0.000 F100
G00 X0.000 Y0.000 Z10.000
G00 X17.240 Y10.874 Z10.000
G01 Z-0.800 F100
G01 X128.240 Y10.874 F100
G01 Z-0.800 F100
G03 X135.240 Y17.874 I0.000 J7.000 F100
G01 Z-0.800 F100
G01 X135.240 Y128.874 F100
G01 Z-0.800 F100
G03 X128.240 Y135.874 I-7.000 J0.000 F100
G01 Z-0.800 F100
G01 X17.240 Y135.874 F100
G01 Z-0.800 F100
G03 X10.240 Y128.874 I0.000 J-7.000 F100
G01 Z-0.800 F100
G01 X10.240 Y17.874 F100
G01 Z-0.800 F100
G03 X17.240 Y10.874 I7.000 J0.000 F100
G00 X0.000 Y0.000 Z10.000
G00 X17.240 Y10.874 Z10.000
G01 Z-1.000 F100
G01 X128.240 Y10.874 F100
G01 Z-1.000 F100
G03 X135.240 Y17.874 I0.000 J7.000 F100
G01 Z-1.000 F100
G01 X135.240 Y128.874 F100
G01 Z-1.000 F100
G03 X128.240 Y135.874 I-7.000 J0.000 F100
G01 Z-1.000 F100
G01 X17.240 Y135.874 F100
G01 Z-1.000 F100
G03 X10.240 Y128.874 I0.000 J-7.000 F100
G01 Z-1.000 F100
G01 X10.240 Y17.874 F100
G01 Z-1.000 F100
G03 X17.240 Y10.874 I7.000 J0.000 F100
G00 X0.000 Y0.000 Z10.000
G00 X17.240 Y10.874 Z10.000
G01 Z-1.200 F100
G01 X128.240 Y10.874 F100
G01 Z-1.200 F100
G03 X135.240 Y17.874 I0.000 J7.000 F100
G01 Z-1.200 F100
G01 X135.240 Y128.874 F100
G01 Z-1.200 F100
G03 X128.240 Y135.874 I-7.000 J0.000 F100
G01 Z-1.200 F100
G01 X17.240 Y135.874 F100
G01 Z-1.200 F100
G03 X10.240 Y128.874 I0.000 J-7.000 F100
G01 Z-1.200 F100
G01 X10.240 Y17.874 F100
G01 Z-1.200 F100
G03 X17.240 Y10.874 I7.000 J0.000 F100
G00 X0.000 Y0.000 Z10.000
G00 X17.240 Y10.874 Z10.000
G01 Z-1.400 F100
G01 X128.240 Y10.874 F100
G01 Z-1.400 F100
G03 X135.240 Y17.874 I0.000 J7.000 F100
G01 Z-1.400 F100
G01 X135.240 Y128.874 F100
G01 Z-1.400 F100
G03 X128.240 Y135.874 I-7.000 J0.000 F100
G01 Z-1.400 F100
G01 X17.240 Y135.874 F100
G01 Z-1.400 F100
G03 X10.240 Y128.874 I0.000 J-7.000 F100
G01 Z-1.400 F100
G01 X10.240 Y17.874 F100
G01 Z-1.400 F100
G03 X17.240 Y10.874 I7.000 J0.000 F100
G00 X0.000 Y0.000 Z10.000
G00 X17.240 Y10.874 Z10.000
G01 Z-1.600 F100
G01 X128.240 Y10.874 F100
G01 Z-1.600 F100
G03 X135.240 Y17.874 I0.000 J7.000 F100
G01 Z-1.600 F100
G01 X135.240 Y128.874 F100
G01 Z-1.600 F100
G03 X128.240 Y135.874 I-7.000 J0.000 F100
G01 Z-1.600 F100
G01 X17.240 Y135.874 F100
G01 Z-1.600 F100
G03 X10.240 Y128.874 I0.000 J-7.000 F100
G01 Z-1.600 F100
G01 X10.240 Y17.874 F100
G01 Z-1.600 F100
G03 X17.240 Y10.874 I7.000 J0.000 F100
G00 X0.000 Y0.000 Z10.000
G00 X17.240 Y10.874 Z10.000
G01 Z-1.800 F100
G01 X128.240 Y10.874 F100
G01 Z-1.800 F100
G03 X135.240 Y17.874 I0.000 J7.000 F100
G01 Z-1.800 F100
G01 X135.240 Y128.874 F100
G01 Z-1.800 F100
G03 X128.240 Y135.874 I-7.000 J0.000 F100
G01 Z-1.800 F100
G01 X17.240 Y135.874 F100
G01 Z-1.800 F100
G03 X10.240 Y128.874 I0.000 J-7.000 F100
G01 Z-1.800 F100
G01 X10.240 Y17.874 F100
G01 Z-1.800 F100
G03 X17.240 Y10.874 I7.000 J0.000 F100
G00 X0.000 Y0.000 Z10.000
G00 X17.240 Y10.874 Z10.000
G01 Z-2.000 F100
G01 X128.240 Y10.874 F100
G01 Z-2.000 F100
G03 X135.240 Y17.874 I0.000 J7.000 F100
G01 Z-2.000 F100
G01 X135.240 Y128.874 F100
G01 Z-2.000 F100
G03 X128.240 Y135.874 I-7.000 J0.000 F100
G01 Z-2.000 F100
G01 X17.240 Y135.874 F100
G01 Z-2.000 F100
G03 X10.240 Y128.874 I0.000 J-7.000 F100
G01 Z-2.000 F100
G01 X10.240 Y17.874 F100
G01 Z-2.000 F100
G03 X17.240 Y10.874 I7.000 J0.000 F100
G00 X0.000 Y0.000 Z10.000
G00 X17.240 Y10.874 Z10.000
G01 Z-2.200 F100
G01 X128.240 Y10.874 F100
G01 Z-2.200 F100
G03 X135.240 Y17.874 I0.000 J7.000 F100
G01 Z-2.200 F100
G01 X135.240 Y128.874 F100
G01 Z-2.200 F100
G03 X128.240 Y135.874 I-7.000 J0.000 F100
G01 Z-2.200 F100
G01 X17.240 Y135.874 F100
G01 Z-2.200 F100
G03 X10.240 Y128.874 I0.000 J-7.000 F100
G01 Z-2.200 F100
G01 X10.240 Y17.874 F100
G01 Z-2.200 F100
G03 X17.240 Y10.874 I7.000 J0.000 F100
G00 X0.000 Y0.000 Z10.000
G00 X17.240 Y10.874 Z10.000
G01 Z-2.400 F100
G01 X128.240 Y10.874 F100
G01 Z-2.400 F100
G03 X135.240 Y17.874 I0.000 J7.000 F100
G01 Z-2.400 F100
G01 X135.240 Y128.874 F100
G01 Z-2.400 F100
G03 X128.240 Y135.874 I-7.000 J0.000 F100
G01 Z-2.400 F100
G01 X17.240 Y135.874 F100
G01 Z-2.400 F100
G03 X10.240 Y128.874 I0.000 J-7.000 F100
G01 Z-2.400 F100
G01 X10.240 Y17.874 F100
G01 Z-2.400 F100
G03 X17.240 Y10.874 I7.000 J0.000 F100
G00 X0.000 Y0.000 Z10.000
G00 X17.240 Y10.874 Z10.000
G01 Z-2.600 F100
G01 X128.240 Y10.874 F100
G01 Z-2.600 F100
G03 X135.240 Y17.874 I0.000 J7.000 F100
G01 Z-2.600 F100
G01 X135.240 Y128.874 F100
G01 Z-2.600 F100
G03 X128.240 Y135.874 I-7.000 J0.000 F100
G01 Z-2.600 F100
G01 X17.240 Y135.874 F100
G01 Z-2.600 F100
G03 X10.240 Y128.874 I0.000 J-7.000 F100
G01 Z-2.600 F100
G01 X10.240 Y17.874 F100
G01 Z-2.600 F100
G03 X17.240 Y10.874 I7.000 J0.000 F100
G00 X0.000 Y0.000 Z10.000
G00 X17.240 Y10.874 Z10.000
G01 Z-2.800 F100
G01 X128.240 Y10.874 F100
G01 Z-2.800 F100
G03 X135.240 Y17.874 I0.000 J7.000 F100
G01 Z-2.800 F100
G01 X135.240 Y128.874 F100
G01 Z-2.800 F100
G03 X128.240 Y135.874 I-7.000 J0.000 F100
G01 Z-2.800 F100
G01 X17.240 Y135.874 F100
G01 Z-2.800 F100
G03 X10.240 Y128.874 I0.000 J-7.000 F100
G01 Z-2.800 F100
G01 X10.240 Y17.874 F100
G01 Z-2.800 F100
G03 X17.240 Y10.874 I7.000 J0.000 F100
G00 X0.000 Y0.000 Z10.000
G00 X17.240 Y10.874 Z10.000
G01 Z-3.000 F100
G01 X128.240 Y10.874 F100
G01 Z-3.000 F100
G03 X135.240 Y17.874 I0.000 J7.000 F100
G01 Z-3.000 F100
G01 X135.240 Y128.874 F100
G01 Z-3.000 F100
G03 X128.240 Y135.874 I-7.000 J0.000 F100
G01 Z-3.000 F100
G01 X17.240 Y135.874 F100
G01 Z-3.000 F100
G03 X10.240 Y128.874 I0.000 J-7.000 F100
G01 Z-3.000 F100
G01 X10.240 Y17.874 F100
G01 Z-3.000 F100
G03 X17.240 Y10.874 I7.000 J0.000 F100
G00 X0.000 Y0.000 Z10.000

; Shape ID=1, Type=Path
; Name: Path
; Operation: Profile
; Path bounds: (69.090, 19.724) to (76.390, 27.024)
; Cut depth: 0.000mm, Step down: 0.000mm
G00 X69.090 Y23.374 Z10.000
G01 Z0.000 F100
G01 X69.221 Y24.339 F100
G01 Z0.000 F100
G01 X69.591 Y25.210 F100
G01 Z0.000 F100
G01 X70.164 Y25.949 F100
G01 Z0.000 F100
G01 X70.904 Y26.522 F100
G01 Z0.000 F100
G01 X71.774 Y26.892 F100
G01 Z0.000 F100
G01 X72.740 Y27.024 F100
G01 Z0.000 F100
G01 X73.706 Y26.892 F100
G01 Z0.000 F100
G01 X74.576 Y26.522 F100
G01 Z0.000 F100
G01 X75.316 Y25.949 F100
G01 Z0.000 F100
G01 X75.889 Y25.210 F100
G01 Z0.000 F100
G01 X76.259 Y24.339 F100
G01 Z0.000 F100
G01 X76.390 Y23.374 F100
G01 Z0.000 F100
G01 X76.259 Y22.408 F100
G01 Z0.000 F100
G01 X75.889 Y21.537 F100
G01 Z0.000 F100
G01 X75.316 Y20.798 F100
G01 Z0.000 F100
G01 X74.576 Y20.225 F100
G01 Z0.000 F100
G01 X73.706 Y19.855 F100
G01 Z0.000 F100
G01 X72.740 Y19.724 F100
G01 Z0.000 F100
G01 X71.774 Y19.855 F100
G01 Z0.000 F100
G01 X70.904 Y20.225 F100
G01 Z0.000 F100
G01 X70.164 Y20.798 F100
G01 Z0.000 F100
G01 X69.591 Y21.537 F100
G01 Z0.000 F100
G01 X69.221 Y22.408 F100
G01 Z0.000 F100
G01 X69.090 Y23.374 F100
G01 Z0.000 F100
G01 X69.090 Y23.374 F100
G00 X0.000 Y0.000 Z10.000

; Shape ID=2, Type=Path
; Name: Path
; Operation: Profile
; Path bounds: (66.590, 17.224) to (78.890, 29.524)
; Cut depth: 0.000mm, Step down: 0.000mm
G00 X66.590 Y23.374 Z10.000
G01 Z0.000 F100
G01 X66.754 Y24.777 F100
G01 Z0.000 F100
G01 X67.219 Y26.068 F100
G01 Z0.000 F100
G01 X67.948 Y27.211 F100
G01 Z0.000 F100
G01 X68.903 Y28.165 F100
G01 Z0.000 F100
G01 X70.045 Y28.895 F100
G01 Z0.000 F100
G01 X71.337 Y29.360 F100
G01 Z0.000 F100
G01 X72.740 Y29.524 F100
G01 Z0.000 F100
G01 X74.143 Y29.360 F100
G01 Z0.000 F100
G01 X75.435 Y28.895 F100
G01 Z0.000 F100
G01 X76.577 Y28.165 F100
G01 Z0.000 F100
G01 X77.532 Y27.211 F100
G01 Z0.000 F100
G01 X78.261 Y26.068 F100
G01 Z0.000 F100
G01 X78.726 Y24.777 F100
G01 Z0.000 F100
G01 X78.890 Y23.374 F100
G01 Z0.000 F100
G01 X78.726 Y21.971 F100
G01 Z0.000 F100
G01 X78.261 Y20.679 F100
G01 Z0.000 F100
G01 X77.532 Y19.537 F100
G01 Z0.000 F100
G01 X76.577 Y18.582 F100
G01 Z0.000 F100
G01 X75.435 Y17.853 F100
G01 Z0.000 F100
G01 X74.143 Y17.387 F100
G01 Z0.000 F100
G01 X72.740 Y17.224 F100
G01 Z0.000 F100
G01 X71.337 Y17.387 F100
G01 Z0.000 F100
G01 X70.045 Y17.853 F100
G01 Z0.000 F100
G01 X68.903 Y18.582 F100
G01 Z0.000 F100
G01 X67.948 Y19.537 F100
G01 Z0.000 F100
G01 X67.219 Y20.679 F100
G01 Z0.000 F100
G01 X66.754 Y21.971 F100
G01 Z0.000 F100
G01 X66.590 Y23.374 F100
G01 Z0.000 F100
G01 X66.590 Y23.374 F100
G00 X0.000 Y0.000 Z10.000

; Shape ID=3, Type=Path
; Name: Path
; Operation: Profile
; Path bounds: (119.590, 19.724) to (126.890, 27.024)
; Cut depth: 0.000mm, Step down: 0.000mm
G00 X119.590 Y23.374 Z10.000
G01 Z0.000 F100
G01 X119.721 Y24.339 F100
G01 Z0.000 F100
G01 X120.091 Y25.210 F100
G01 Z0.000 F100
G01 X120.664 Y25.949 F100
G01 Z0.000 F100
G01 X121.404 Y26.522 F100
G01 Z0.000 F100
G01 X122.274 Y26.892 F100
G01 Z0.000 F100
G01 X123.240 Y27.024 F100
G01 Z0.000 F100
G01 X124.206 Y26.892 F100
G01 Z0.000 F100
G01 X125.076 Y26.522 F100
G01 Z0.000 F100
G01 X125.816 Y25.949 F100
G01 Z0.000 F100
G01 X126.389 Y25.210 F100
G01 Z0.000 F100
G01 X126.759 Y24.339 F100
G01 Z0.000 F100
G01 X126.890 Y23.374 F100
G01 Z0.000 F100
G01 X126.759 Y22.408 F100
G01 Z0.000 F100
G01 X126.389 Y21.537 F100
G01 Z0.000 F100
G01 X125.816 Y20.798 F100
G01 Z0.000 F100
G01 X125.076 Y20.225 F100
G01 Z0.000 F100
G01 X124.206 Y19.855 F100
G01 Z0.000 F100
G01 X123.240 Y19.724 F100
G01 Z0.000 F100
G01 X122.274 Y19.855 F100
G01 Z0.000 F100
G01 X121.404 Y20.225 F100
G01 Z0.000 F100
G01 X120.664 Y20.798 F100
G01 Z0.000 F100
G01 X120.091 Y21.537 F100
G01 Z0.000 F100
G01 X119.721 Y22.408 F100
G01 Z0.000 F100
G01 X119.590 Y23.374 F100
G01 Z0.000 F100
G01 X119.590 Y23.374 F100
G00 X0.000 Y0.000 Z10.000

; Shape ID=4, Type=Path
; Name: Path
; Operation: Profile
; Path bounds: (117.090, 17.224) to (129.390, 29.524)
; Cut depth: 0.000mm, Step down: 0.000mm
G00 X117.090 Y23.374 Z10.000
G01 Z0.000 F100
G01 X117.254 Y24.777 F100
G01 Z0.000 F100
G01 X117.719 Y26.068 F100
G01 Z0.000 F100
G01 X118.448 Y27.211 F100
G01 Z0.000 F100
G01 X119.403 Y28.165 F100
G01 Z0.000 F100
G01 X120.545 Y28.895 F100
G01 Z0.000 F100
G01 X121.837 Y29.360 F100
G01 Z0.000 F100
G01 X123.240 Y29.524 F100
G01 Z0.000 F100
G01 X124.643 Y29.360 F100
G01 Z0.000 F100
G01 X125.935 Y28.895 F100
G01 Z0.000 F100
G01 X127.077 Y28.165 F100
G01 Z0.000 F100
G01 X128.032 Y27.211 F100
G01 Z0.000 F100
G01 X128.761 Y26.068 F100
G01 Z0.000 F100
G01 X129.226 Y24.777 F100
G01 Z0.000 F100
G01 X129.390 Y23.374 F100
G01 Z0.000 F100
G01 X129.226 Y21.971 F100
G01 Z0.000 F100
G01 X128.761 Y20.679 F100
G01 Z0.000 F100
G01 X128.032 Y19.537 F100
G01 Z0.000 F100
G01 X127.077 Y18.582 F100
G01 Z0.000 F100
G01 X125.935 Y17.853 F100
G01 Z0.000 F100
G01 X124.643 Y17.387 F100
G01 Z0.000 F100
G01 X123.240 Y17.224 F100
G01 Z0.000 F100
G01 X121.837 Y17.387 F100
G01 Z0.000 F100
G01 X120.545 Y17.853 F100
G01 Z0.000 F100
G01 X119.403 Y18.582 F100
G01 Z0.000 F100
G01 X118.448 Y19.537 F100
G01 Z0.000 F100
G01 X117.719 Y20.679 F100
G01 Z0.000 F100
G01 X117.254 Y21.971 F100
G01 Z0.000 F100
G01 X117.090 Y23.374 F100
G01 Z0.000 F100
G01 X117.090 Y23.374 F100
G00 X0.000 Y0.000 Z10.000

; Shape ID=5, Type=Path
; Name: Path
; Operation: Profile
; Path bounds: (18.590, 19.724) to (25.890, 27.024)
; Cut depth: 0.000mm, Step down: 0.000mm
G00 X18.590 Y23.374 Z10.000
G01 Z0.000 F100
G01 X18.721 Y24.339 F100
G01 Z0.000 F100
G01 X19.091 Y25.210 F100
G01 Z0.000 F100
G01 X19.664 Y25.949 F100
G01 Z0.000 F100
G01 X20.404 Y26.522 F100
G01 Z0.000 F100
G01 X21.274 Y26.892 F100
G01 Z0.000 F100
G01 X22.240 Y27.024 F100
G01 Z0.000 F100
G01 X23.206 Y26.892 F100
G01 Z0.000 F100
G01 X24.076 Y26.522 F100
G01 Z0.000 F100
G01 X24.816 Y25.949 F100
G01 Z0.000 F100
G01 X25.389 Y25.210 F100
G01 Z0.000 F100
G01 X25.759 Y24.339 F100
G01 Z0.000 F100
G01 X25.890 Y23.374 F100
G01 Z0.000 F100
G01 X25.759 Y22.408 F100
G01 Z0.000 F100
G01 X25.389 Y21.537 F100
G01 Z0.000 F100
G01 X24.816 Y20.798 F100
G01 Z0.000 F100
G01 X24.076 Y20.225 F100
G01 Z0.000 F100
G01 X23.206 Y19.855 F100
G01 Z0.000 F100
G01 X22.240 Y19.724 F100
G01 Z0.000 F100
G01 X21.274 Y19.855 F100
G01 Z0.000 F100
G01 X20.404 Y20.225 F100
G01 Z0.000 F100
G01 X19.664 Y20.798 F100
G01 Z0.000 F100
G01 X19.091 Y21.537 F100
G01 Z0.000 F100
G01 X18.721 Y22.408 F100
G01 Z0.000 F100
G01 X18.590 Y23.374 F100
G01 Z0.000 F100
G01 X18.590 Y23.374 F100
G00 X0.000 Y0.000 Z10.000

; Shape ID=6, Type=Path
; Name: Path
; Operation: Profile
; Path bounds: (16.090, 17.224) to (28.390, 29.524)
; Cut depth: 0.000mm, Step down: 0.000mm
G00 X16.090 Y23.374 Z10.000
G01 Z0.000 F100
G01 X16.254 Y24.777 F100
G01 Z0.000 F100
G01 X16.719 Y26.068 F100
G01 Z0.000 F100
G01 X17.448 Y27.211 F100
G01 Z0.000 F100
G01 X18.403 Y28.165 F100
G01 Z0.000 F100
G01 X19.545 Y28.895 F100
G01 Z0.000 F100
G01 X20.837 Y29.360 F100
G01 Z0.000 F100
G01 X22.240 Y29.524 F100
G01 Z0.000 F100
G01 X23.643 Y29.360 F100
G01 Z0.000 F100
G01 X24.935 Y28.895 F100
G01 Z0.000 F100
G01 X26.077 Y28.165 F100
G01 Z0.000 F100
G01 X27.032 Y27.211 F100
G01 Z0.000 F100
G01 X27.761 Y26.068 F100
G01 Z0.000 F100
G01 X28.226 Y24.777 F100
G01 Z0.000 F100
G01 X28.390 Y23.374 F100
G01 Z0.000 F100
G01 X28.226 Y21.971 F100
G01 Z0.000 F100
G01 X27.761 Y20.679 F100
G01 Z0.000 F100
G01 X27.032 Y19.537 F100
G01 Z0.000 F100
G01 X26.077 Y18.582 F100
G01 Z0.000 F100
G01 X24.935 Y17.853 F100
G01 Z0.000 F100
G01 X23.643 Y17.387 F100
G01 Z0.000 F100
G01 X22.240 Y17.224 F100
G01 Z0.000 F100
G01 X20.837 Y17.387 F100
G01 Z0.000 F100
G01 X19.545 Y17.853 F100
G01 Z0.000 F100
G01 X18.403 Y18.582 F100
G01 Z0.000 F100
G01 X17.448 Y19.537 F100
G01 Z0.000 F100
G01 X16.719 Y20.679 F100
G01 Z0.000 F100
G01 X16.254 Y21.971 F100
G01 Z0.000 F100
G01 X16.090 Y23.374 F100
G01 Z0.000 F100
G01 X16.090 Y23.374 F100
G00 X0.000 Y0.000 Z10.000

; Shape ID=7, Type=Path
; Name: Path
; Operation: Profile
; Path bounds: (19.640, 120.774) to (24.840, 125.974)
; Cut depth: 0.000mm, Step down: 0.000mm
G00 X19.640 Y123.374 Z10.000
G01 Z0.000 F100
G01 X19.774 Y124.192 F100
G01 Z0.000 F100
G01 X20.144 Y124.905 F100
G01 Z0.000 F100
G01 X20.709 Y125.469 F100
G01 Z0.000 F100
G01 X21.422 Y125.840 F100
G01 Z0.000 F100
G01 X22.240 Y125.974 F100
G01 Z0.000 F100
G01 X23.058 Y125.840 F100
G01 Z0.000 F100
G01 X23.771 Y125.469 F100
G01 Z0.000 F100
G01 X24.336 Y124.905 F100
G01 Z0.000 F100
G01 X24.707 Y124.192 F100
G01 Z0.000 F100
G01 X24.840 Y123.374 F100
G01 Z0.000 F100
G01 X24.707 Y122.555 F100
G01 Z0.000 F100
G01 X24.336 Y121.842 F100
G01 Z0.000 F100
G01 X23.771 Y121.278 F100
G01 Z0.000 F100
G01 X23.058 Y120.907 F100
G01 Z0.000 F100
G01 X22.240 Y120.774 F100
G01 Z0.000 F100
G01 X21.422 Y120.907 F100
G01 Z0.000 F100
G01 X20.709 Y121.278 F100
G01 Z0.000 F100
G01 X20.144 Y121.842 F100
G01 Z0.000 F100
G01 X19.774 Y122.555 F100
G01 Z0.000 F100
G01 X19.640 Y123.374 F100
G01 Z0.000 F100
G01 X19.640 Y123.374 F100
G00 X0.000 Y0.000 Z10.000

; Shape ID=8, Type=Path
; Name: Path
; Operation: Profile
; Path bounds: (17.640, 118.774) to (26.840, 127.974)
; Cut depth: 0.000mm, Step down: 0.000mm
G00 X17.640 Y123.374 Z10.000
G01 Z0.000 F100
G01 X17.806 Y124.591 F100
G01 Z0.000 F100
G01 X18.272 Y125.688 F100
G01 Z0.000 F100
G01 X18.994 Y126.620 F100
G01 Z0.000 F100
G01 X19.926 Y127.342 F100
G01 Z0.000 F100
G01 X21.023 Y127.808 F100
G01 Z0.000 F100
G01 X22.240 Y127.974 F100
G01 Z0.000 F100
G01 X23.457 Y127.808 F100
G01 Z0.000 F100
G01 X24.554 Y127.342 F100
G01 Z0.000 F100
G01 X25.486 Y126.620 F100
G01 Z0.000 F100
G01 X26.208 Y125.688 F100
G01 Z0.000 F100
G01 X26.675 Y124.591 F100
G01 Z0.000 F100
G01 X26.840 Y123.374 F100
G01 Z0.000 F100
G01 X26.675 Y122.157 F100
G01 Z0.000 F100
G01 X26.208 Y121.059 F100
G01 Z0.000 F100
G01 X25.486 Y120.127 F100
G01 Z0.000 F100
G01 X24.554 Y119.405 F100
G01 Z0.000 F100
G01 X23.457 Y118.939 F100
G01 Z0.000 F100
G01 X22.240 Y118.774 F100
G01 Z0.000 F100
G01 X21.023 Y118.939 F100
G01 Z0.000 F100
G01 X19.926 Y119.405 F100
G01 Z0.000 F100
G01 X18.994 Y120.127 F100
G01 Z0.000 F100
G01 X18.272 Y121.059 F100
G01 Z0.000 F100
G01 X17.806 Y122.157 F100
G01 Z0.000 F100
G01 X17.640 Y123.374 F100
G01 Z0.000 F100
G01 X17.640 Y123.374 F100
G00 X0.000 Y0.000 Z10.000

; Shape ID=9, Type=Path
; Name: Path
; Operation: Profile
; Path bounds: (70.140, 120.774) to (75.340, 125.974)
; Cut depth: 0.000mm, Step down: 0.000mm
G00 X70.140 Y123.374 Z10.000
G01 Z0.000 F100
G01 X70.273 Y124.192 F100
G01 Z0.000 F100
G01 X70.644 Y124.905 F100
G01 Z0.000 F100
G01 X71.209 Y125.469 F100
G01 Z0.000 F100
G01 X71.922 Y125.840 F100
G01 Z0.000 F100
G01 X72.740 Y125.974 F100
G01 Z0.000 F100
G01 X73.558 Y125.840 F100
G01 Z0.000 F100
G01 X74.271 Y125.469 F100
G01 Z0.000 F100
G01 X74.836 Y124.905 F100
G01 Z0.000 F100
G01 X75.207 Y124.192 F100
G01 Z0.000 F100
G01 X75.340 Y123.374 F100
G01 Z0.000 F100
G01 X75.207 Y122.555 F100
G01 Z0.000 F100
G01 X74.836 Y121.842 F100
G01 Z0.000 F100
G01 X74.271 Y121.278 F100
G01 Z0.000 F100
G01 X73.558 Y120.907 F100
G01 Z0.000 F100
G01 X72.740 Y120.774 F100
G01 Z0.000 F100
G01 X71.922 Y120.907 F100
G01 Z0.000 F100
G01 X71.209 Y121.278 F100
G01 Z0.000 F100
G01 X70.644 Y121.842 F100
G01 Z0.000 F100
G01 X70.273 Y122.555 F100
G01 Z0.000 F100
G01 X70.140 Y123.374 F100
G01 Z0.000 F100
G01 X70.140 Y123.374 F100
G00 X0.000 Y0.000 Z10.000

; Shape ID=10, Type=Path
; Name: Path
; Operation: Profile
; Path bounds: (68.140, 118.774) to (77.340, 127.974)
; Cut depth: 0.000mm, Step down: 0.000mm
G00 X68.140 Y123.374 Z10.000
G01 Z0.000 F100
G01 X68.305 Y124.591 F100
G01 Z0.000 F100
G01 X68.772 Y125.688 F100
G01 Z0.000 F100
G01 X69.494 Y126.620 F100
G01 Z0.000 F100
G01 X70.426 Y127.342 F100
G01 Z0.000 F100
G01 X71.523 Y127.808 F100
G01 Z0.000 F100
G01 X72.740 Y127.974 F100
G01 Z0.000 F100
G01 X73.957 Y127.808 F100
G01 Z0.000 F100
G01 X75.054 Y127.342 F100
G01 Z0.000 F100
G01 X75.986 Y126.620 F100
G01 Z0.000 F100
G01 X76.708 Y125.688 F100
G01 Z0.000 F100
G01 X77.175 Y124.591 F100
G01 Z0.000 F100
G01 X77.340 Y123.374 F100
G01 Z0.000 F100
G01 X77.175 Y122.157 F100
G01 Z0.000 F100
G01 X76.708 Y121.059 F100
G01 Z0.000 F100
G01 X75.986 Y120.127 F100
G01 Z0.000 F100
G01 X75.054 Y119.405 F100
G01 Z0.000 F100
G01 X73.957 Y118.939 F100
G01 Z0.000 F100
G01 X72.740 Y118.774 F100
G01 Z0.000 F100
G01 X71.523 Y118.939 F100
G01 Z0.000 F100
G01 X70.426 Y119.405 F100
G01 Z0.000 F100
G01 X69.494 Y120.127 F100
G01 Z0.000 F100
G01 X68.772 Y121.059 F100
G01 Z0.000 F100
G01 X68.306 Y122.157 F100
G01 Z0.000 F100
G01 X68.140 Y123.374 F100
G01 Z0.000 F100
G01 X68.140 Y123.374 F100
G00 X0.000 Y0.000 Z10.000

; Shape ID=11, Type=Path
; Name: Path
; Operation: Profile
; Path bounds: (120.640, 120.774) to (125.840, 125.974)
; Cut depth: 0.000mm, Step down: 0.000mm
G00 X120.640 Y123.374 Z10.000
G01 Z0.000 F100
G01 X120.774 Y124.192 F100
G01 Z0.000 F100
G01 X121.144 Y124.905 F100
G01 Z0.000 F100
G01 X121.709 Y125.469 F100
G01 Z0.000 F100
G01 X122.422 Y125.840 F100
G01 Z0.000 F100
G01 X123.240 Y125.974 F100
G01 Z0.000 F100
G01 X124.058 Y125.840 F100
G01 Z0.000 F100
G01 X124.771 Y125.469 F100
G01 Z0.000 F100
G01 X125.336 Y124.905 F100
G01 Z0.000 F100
G01 X125.707 Y124.192 F100
G01 Z0.000 F100
G01 X125.840 Y123.374 F100
G01 Z0.000 F100
G01 X125.707 Y122.555 F100
G01 Z0.000 F100
G01 X125.336 Y121.842 F100
G01 Z0.000 F100
G01 X124.771 Y121.278 F100
G01 Z0.000 F100
G01 X124.058 Y120.907 F100
G01 Z0.000 F100
G01 X123.240 Y120.774 F100
G01 Z0.000 F100
G01 X122.422 Y120.907 F100
G01 Z0.000 F100
G01 X121.709 Y121.278 F100
G01 Z0.000 F100
G01 X121.144 Y121.842 F100
G01 Z0.000 F100
G01 X120.774 Y122.555 F100
G01 Z0.000 F100
G01 X120.640 Y123.374 F100
G01 Z0.000 F100
G01 X120.640 Y123.374 F100
G00 X0.000 Y0.000 Z10.000

; Shape ID=12, Type=Path
; Name: Path
; Operation: Profile
; Path bounds: (118.640, 118.774) to (127.840, 127.974)
; Cut depth: 0.000mm, Step down: 0.000mm
G00 X118.640 Y123.374 Z10.000
G01 Z0.000 F100
G01 X118.806 Y124.591 F100
G01 Z0.000 F100
G01 X119.272 Y125.688 F100
G01 Z0.000 F100
G01 X119.994 Y126.620 F100
G01 Z0.000 F100
G01 X120.926 Y127.342 F100
G01 Z0.000 F100
G01 X122.023 Y127.808 F100
G01 Z0.000 F100
G01 X123.240 Y127.974 F100
G01 Z0.000 F100
G01 X124.457 Y127.808 F100
G01 Z0.000 F100
G01 X125.554 Y127.342 F100
G01 Z0.000 F100
G01 X126.486 Y126.620 F100
G01 Z0.000 F100
G01 X127.208 Y125.688 F100
G01 Z0.000 F100
G01 X127.675 Y124.591 F100
G01 Z0.000 F100
G01 X127.840 Y123.374 F100
G01 Z0.000 F100
G01 X127.675 Y122.157 F100
G01 Z0.000 F100
G01 X127.208 Y121.059 F100
G01 Z0.000 F100
G01 X126.486 Y120.127 F100
G01 Z0.000 F100
G01 X125.554 Y119.405 F100
G01 Z0.000 F100
G01 X124.457 Y118.939 F100
G01 Z0.000 F100
G01 X123.240 Y118.774 F100
G01 Z0.000 F100
G01 X122.023 Y118.939 F100
G01 Z0.000 F100
G01 X120.926 Y119.405 F100
G01 Z0.000 F100
G01 X119.994 Y120.127 F100
G01 Z0.000 F100
G01 X119.272 Y121.059 F100
G01 Z0.000 F100
G01 X118.806 Y122.157 F100
G01 Z0.000 F100
G01 X118.640 Y123.374 F100
G01 Z0.000 F100
G01 X118.640 Y123.374 F100
G00 X0.000 Y0.000 Z10.000

; Shape ID=21, Type=Path
; Name: Path
; Operation: Profile
; Path bounds: (80.140, 110.774) to (85.340, 115.974)
; Cut depth: 0.000mm, Step down: 0.000mm
G00 X80.140 Y113.374 Z10.000
G01 Z0.000 F100
G01 X80.273 Y114.192 F100
G01 Z0.000 F100
G01 X80.644 Y114.905 F100
G01 Z0.000 F100
G01 X81.209 Y115.469 F100
G01 Z0.000 F100
G01 X81.922 Y115.840 F100
G01 Z0.000 F100
G01 X82.740 Y115.974 F100
G01 Z0.000 F100
G01 X83.558 Y115.840 F100
G01 Z0.000 F100
G01 X84.271 Y115.469 F100
G01 Z0.000 F100
G01 X84.836 Y114.905 F100
G01 Z0.000 F100
G01 X85.207 Y114.192 F100
G01 Z0.000 F100
G01 X85.340 Y113.374 F100
G01 Z0.000 F100
G01 X85.207 Y112.556 F100
G01 Z0.000 F100
G01 X84.836 Y111.842 F100
G01 Z0.000 F100
G01 X84.271 Y111.278 F100
G01 Z0.000 F100
G01 X83.558 Y110.907 F100
G01 Z0.000 F100
G01 X82.740 Y110.774 F100
G01 Z0.000 F100
G01 X81.922 Y110.907 F100
G01 Z0.000 F100
G01 X81.209 Y111.278 F100
G01 Z0.000 F100
G01 X80.644 Y111.842 F100
G01 Z0.000 F100
G01 X80.273 Y112.556 F100
G01 Z0.000 F100
G01 X80.140 Y113.374 F100
G01 Z0.000 F100
G01 X80.140 Y113.374 F100
G00 X0.000 Y0.000 Z10.000

; Shape ID=22, Type=Path
; Name: Path
; Operation: Profile
; Path bounds: (70.140, 100.774) to (75.340, 105.974)
; Cut depth: 0.000mm, Step down: 0.000mm
G00 X70.140 Y103.374 Z10.000
G01 Z0.000 F100
G01 X70.273 Y104.192 F100
G01 Z0.000 F100
G01 X70.644 Y104.905 F100
G01 Z0.000 F100
G01 X71.209 Y105.469 F100
G01 Z0.000 F100
G01 X71.922 Y105.840 F100
G01 Z0.000 F100
G01 X72.740 Y105.974 F100
G01 Z0.000 F100
G01 X73.558 Y105.840 F100
G01 Z0.000 F100
G01 X74.271 Y105.469 F100
G01 Z0.000 F100
G01 X74.836 Y104.905 F100
G01 Z0.000 F100
G01 X75.207 Y104.192 F100
G01 Z0.000 F100
G01 X75.340 Y103.374 F100
G01 Z0.000 F100
G01 X75.207 Y102.555 F100
G01 Z0.000 F100
G01 X74.836 Y101.842 F100
G01 Z0.000 F100
G01 X74.271 Y101.278 F100
G01 Z0.000 F100
G01 X73.558 Y100.907 F100
G01 Z0.000 F100
G01 X72.740 Y100.774 F100
G01 Z0.000 F100
G01 X71.922 Y100.907 F100
G01 Z0.000 F100
G01 X71.209 Y101.278 F100
G01 Z0.000 F100
G01 X70.644 Y101.842 F100
G01 Z0.000 F100
G01 X70.273 Y102.555 F100
G01 Z0.000 F100
G01 X70.140 Y103.374 F100
G01 Z0.000 F100
G01 X70.140 Y103.374 F100
G00 X0.000 Y0.000 Z10.000

; Shape ID=23, Type=Path
; Name: Path
; Operation: Profile
; Path bounds: (60.140, 110.774) to (65.340, 115.974)
; Cut depth: 0.000mm, Step down: 0.000mm
G00 X60.140 Y113.374 Z10.000
G01 Z0.000 F100
G01 X60.273 Y114.192 F100
G01 Z0.000 F100
G01 X60.644 Y114.905 F100
G01 Z0.000 F100
G01 X61.209 Y115.469 F100
G01 Z0.000 F100
G01 X61.922 Y115.840 F100
G01 Z0.000 F100
G01 X62.740 Y115.974 F100
G01 Z0.000 F100
G01 X63.558 Y115.840 F100
G01 Z0.000 F100
G01 X64.271 Y115.469 F100
G01 Z0.000 F100
G01 X64.836 Y114.905 F100
G01 Z0.000 F100
G01 X65.207 Y114.192 F100
G01 Z0.000 F100
G01 X65.340 Y113.374 F100
G01 Z0.000 F100
G01 X65.207 Y112.556 F100
G01 Z0.000 F100
G01 X64.836 Y111.842 F100
G01 Z0.000 F100
G01 X64.271 Y111.278 F100
G01 Z0.000 F100
G01 X63.558 Y110.907 F100
G01 Z0.000 F100
G01 X62.740 Y110.774 F100
G01 Z0.000 F100
G01 X61.922 Y110.907 F100
G01 Z0.000 F100
G01 X61.209 Y111.278 F100
G01 Z0.000 F100
G01 X60.644 Y111.842 F100
G01 Z0.000 F100
G01 X60.273 Y112.556 F100
G01 Z0.000 F100
G01 X60.140 Y113.374 F100
G01 Z0.000 F100
G01 X60.140 Y113.374 F100
G00 X0.000 Y0.000 Z10.000

; Shape ID=24, Type=Path
; Name: Path
; Operation: Profile
; Path bounds: (37.640, 110.774) to (42.840, 115.974)
; Cut depth: 0.000mm, Step down: 0.000mm
G00 X37.640 Y113.374 Z10.000
G01 Z0.000 F100
G01 X37.774 Y114.192 F100
G01 Z0.000 F100
G01 X38.145 Y114.905 F100
G01 Z0.000 F100
G01 X38.709 Y115.469 F100
G01 Z0.000 F100
G01 X39.422 Y115.840 F100
G01 Z0.000 F100
G01 X40.240 Y115.974 F100
G01 Z0.000 F100
G01 X41.058 Y115.840 F100
G01 Z0.000 F100
G01 X41.771 Y115.469 F100
G01 Z0.000 F100
G01 X42.336 Y114.905 F100
G01 Z0.000 F100
G01 X42.707 Y114.192 F100
G01 Z0.000 F100
G01 X42.840 Y113.374 F100
G01 Z0.000 F100
G01 X42.707 Y112.556 F100
G01 Z0.000 F100
G01 X42.336 Y111.842 F100
G01 Z0.000 F100
G01 X41.771 Y111.278 F100
G01 Z0.000 F100
G01 X41.058 Y110.907 F100
G01 Z0.000 F100
G01 X40.240 Y110.774 F100
G01 Z0.000 F100
G01 X39.422 Y110.907 F100
G01 Z0.000 F100
G01 X38.709 Y111.278 F100
G01 Z0.000 F100
G01 X38.145 Y111.842 F100
G01 Z0.000 F100
G01 X37.774 Y112.556 F100
G01 Z0.000 F100
G01 X37.640 Y113.374 F100
G01 Z0.000 F100
G01 X37.640 Y113.374 F100
G00 X0.000 Y0.000 Z10.000

; Shape ID=25, Type=Path
; Name: Path
; Operation: Profile
; Path bounds: (40.140, 120.774) to (45.340, 125.974)
; Cut depth: 0.000mm, Step down: 0.000mm
G00 X40.140 Y123.374 Z10.000
G01 Z0.000 F100
G01 X40.274 Y124.192 F100
G01 Z0.000 F100
G01 X40.644 Y124.905 F100
G01 Z0.000 F100
G01 X41.209 Y125.469 F100
G01 Z0.000 F100
G01 X41.922 Y125.840 F100
G01 Z0.000 F100
G01 X42.740 Y125.974 F100
G01 Z0.000 F100
G01 X43.558 Y125.840 F100
G01 Z0.000 F100
G01 X44.271 Y125.469 F100
G01 Z0.000 F100
G01 X44.836 Y124.905 F100
G01 Z0.000 F100
G01 X45.207 Y124.192 F100
G01 Z0.000 F100
G01 X45.340 Y123.374 F100
G01 Z0.000 F100
G01 X45.207 Y122.555 F100
G01 Z0.000 F100
G01 X44.836 Y121.842 F100
G01 Z0.000 F100
G01 X44.271 Y121.278 F100
G01 Z0.000 F100
G01 X43.558 Y120.907 F100
G01 Z0.000 F100
G01 X42.740 Y120.774 F100
G01 Z0.000 F100
G01 X41.922 Y120.907 F100
G01 Z0.000 F100
G01 X41.209 Y121.278 F100
G01 Z0.000 F100
G01 X40.644 Y121.842 F100
G01 Z0.000 F100
G01 X40.274 Y122.555 F100
G01 Z0.000 F100
G01 X40.140 Y123.374 F100
G01 Z0.000 F100
G01 X40.140 Y123.374 F100
G00 X0.000 Y0.000 Z10.000

; Shape ID=26, Type=Path
; Name: Path
; Operation: Profile
; Path bounds: (40.140, 100.774) to (45.340, 105.974)
; Cut depth: 0.000mm, Step down: 0.000mm
G00 X40.140 Y103.374 Z10.000
G01 Z0.000 F100
G01 X40.274 Y104.192 F100
G01 Z0.000 F100
G01 X40.644 Y104.905 F100
G01 Z0.000 F100
G01 X41.209 Y105.469 F100
G01 Z0.000 F100
G01 X41.922 Y105.840 F100
G01 Z0.000 F100
G01 X42.740 Y105.974 F100
G01 Z0.000 F100
G01 X43.558 Y105.840 F100
G01 Z0.000 F100
G01 X44.271 Y105.469 F100
G01 Z0.000 F100
G01 X44.836 Y104.905 F100
G01 Z0.000 F100
G01 X45.207 Y104.192 F100
G01 Z0.000 F100
G01 X45.340 Y103.374 F100
G01 Z0.000 F100
G01 X45.207 Y102.555 F100
G01 Z0.000 F100
G01 X44.836 Y101.842 F100
G01 Z0.000 F100
G01 X44.271 Y101.278 F100
G01 Z0.000 F100
G01 X43.558 Y100.907 F100
G01 Z0.000 F100
G01 X42.740 Y100.774 F100
G01 Z0.000 F100
G01 X41.922 Y100.907 F100
G01 Z0.000 F100
G01 X41.209 Y101.278 F100
G01 Z0.000 F100
G01 X40.644 Y101.842 F100
G01 Z0.000 F100
G01 X40.274 Y102.555 F100
G01 Z0.000 F100
G01 X40.140 Y103.374 F100
G01 Z0.000 F100
G01 X40.140 Y103.374 F100
G00 X0.000 Y0.000 Z10.000

; Shape ID=27, Type=Path
; Name: Path
; Operation: Profile
; Path bounds: (40.140, 80.774) to (45.340, 85.974)
; Cut depth: 0.000mm, Step down: 0.000mm
G00 X40.140 Y83.374 Z10.000
G01 Z0.000 F100
G01 X40.274 Y84.192 F100
G01 Z0.000 F100
G01 X40.644 Y84.905 F100
G01 Z0.000 F100
G01 X41.209 Y85.469 F100
G01 Z0.000 F100
G01 X41.922 Y85.840 F100
G01 Z0.000 F100
G01 X42.740 Y85.974 F100
G01 Z0.000 F100
G01 X43.558 Y85.840 F100
G01 Z0.000 F100
G01 X44.271 Y85.469 F100
G01 Z0.000 F100
G01 X44.836 Y84.905 F100
G01 Z0.000 F100
G01 X45.207 Y84.192 F100
G01 Z0.000 F100
G01 X45.340 Y83.374 F100
G01 Z0.000 F100
G01 X45.207 Y82.556 F100
G01 Z0.000 F100
G01 X44.836 Y81.842 F100
G01 Z0.000 F100
G01 X44.271 Y81.278 F100
G01 Z0.000 F100
G01 X43.558 Y80.907 F100
G01 Z0.000 F100
G01 X42.740 Y80.774 F100
G01 Z0.000 F100
G01 X41.922 Y80.907 F100
G01 Z0.000 F100
G01 X41.209 Y81.278 F100
G01 Z0.000 F100
G01 X40.644 Y81.842 F100
G01 Z0.000 F100
G01 X40.274 Y82.555 F100
G01 Z0.000 F100
G01 X40.140 Y83.374 F100
G01 Z0.000 F100
G01 X40.140 Y83.374 F100
G00 X0.000 Y0.000 Z10.000

; Shape ID=28, Type=Path
; Name: Path
; Operation: Profile
; Path bounds: (40.140, 70.774) to (45.340, 75.974)
; Cut depth: 0.000mm, Step down: 0.000mm
G00 X40.140 Y73.374 Z10.000
G01 Z0.000 F100
G01 X40.274 Y74.192 F100
G01 Z0.000 F100
G01 X40.644 Y74.905 F100
G01 Z0.000 F100
G01 X41.209 Y75.469 F100
G01 Z0.000 F100
G01 X41.922 Y75.840 F100
G01 Z0.000 F100
G01 X42.740 Y75.974 F100
G01 Z0.000 F100
G01 X43.558 Y75.840 F100
G01 Z0.000 F100
G01 X44.271 Y75.469 F100
G01 Z0.000 F100
G01 X44.836 Y74.905 F100
G01 Z0.000 F100
G01 X45.207 Y74.192 F100
G01 Z0.000 F100
G01 X45.340 Y73.374 F100
G01 Z0.000 F100
G01 X45.207 Y72.555 F100
G01 Z0.000 F100
G01 X44.836 Y71.842 F100
G01 Z0.000 F100
G01 X44.271 Y71.278 F100
G01 Z0.000 F100
G01 X43.558 Y70.907 F100
G01 Z0.000 F100
G01 X42.740 Y70.774 F100
G01 Z0.000 F100
G01 X41.922 Y70.907 F100
G01 Z0.000 F100
G01 X41.209 Y71.278 F100
G01 Z0.000 F100
G01 X40.644 Y71.842 F100
G01 Z0.000 F100
G01 X40.274 Y72.555 F100
G01 Z0.000 F100
G01 X40.140 Y73.374 F100
G01 Z0.000 F100
G01 X40.140 Y73.374 F100
G00 X0.000 Y0.000 Z10.000

; Shape ID=29, Type=Path
; Name: Path
; Operation: Profile
; Path bounds: (40.140, 60.774) to (45.340, 65.974)
; Cut depth: 0.000mm, Step down: 0.000mm
G00 X40.140 Y63.374 Z10.000
G01 Z0.000 F100
G01 X40.274 Y64.192 F100
G01 Z0.000 F100
G01 X40.644 Y64.905 F100
G01 Z0.000 F100
G01 X41.209 Y65.469 F100
G01 Z0.000 F100
G01 X41.922 Y65.840 F100
G01 Z0.000 F100
G01 X42.740 Y65.974 F100
G01 Z0.000 F100
G01 X43.558 Y65.840 F100
G01 Z0.000 F100
G01 X44.271 Y65.469 F100
G01 Z0.000 F100
G01 X44.836 Y64.905 F100
G01 Z0.000 F100
G01 X45.207 Y64.192 F100
G01 Z0.000 F100
G01 X45.340 Y63.374 F100
G01 Z0.000 F100
G01 X45.207 Y62.556 F100
G01 Z0.000 F100
G01 X44.836 Y61.842 F100
G01 Z0.000 F100
G01 X44.271 Y61.278 F100
G01 Z0.000 F100
G01 X43.558 Y60.907 F100
G01 Z0.000 F100
G01 X42.740 Y60.774 F100
G01 Z0.000 F100
G01 X41.922 Y60.907 F100
G01 Z0.000 F100
G01 X41.209 Y61.278 F100
G01 Z0.000 F100
G01 X40.644 Y61.842 F100
G01 Z0.000 F100
G01 X40.274 Y62.556 F100
G01 Z0.000 F100
G01 X40.140 Y63.374 F100
G01 Z0.000 F100
G01 X40.140 Y63.374 F100
G00 X0.000 Y0.000 Z10.000

; Shape ID=30, Type=Path
; Name: Path
; Operation: Profile
; Path bounds: (37.640, 30.774) to (42.840, 35.974)
; Cut depth: 0.000mm, Step down: 0.000mm
G00 X37.640 Y33.374 Z10.000
G01 Z0.000 F100
G01 X37.774 Y34.192 F100
G01 Z0.000 F100
G01 X38.145 Y34.905 F100
G01 Z0.000 F100
G01 X38.709 Y35.469 F100
G01 Z0.000 F100
G01 X39.422 Y35.840 F100
G01 Z0.000 F100
G01 X40.240 Y35.974 F100
G01 Z0.000 F100
G01 X41.058 Y35.840 F100
G01 Z0.000 F100
G01 X41.771 Y35.469 F100
G01 Z0.000 F100
G01 X42.336 Y34.905 F100
G01 Z0.000 F100
G01 X42.707 Y34.192 F100
G01 Z0.000 F100
G01 X42.840 Y33.374 F100
G01 Z0.000 F100
G01 X42.707 Y32.555 F100
G01 Z0.000 F100
G01 X42.336 Y31.842 F100
G01 Z0.000 F100
G01 X41.771 Y31.278 F100
G01 Z0.000 F100
G01 X41.058 Y30.907 F100
G01 Z0.000 F100
G01 X40.240 Y30.774 F100
G01 Z0.000 F100
G01 X39.422 Y30.907 F100
G01 Z0.000 F100
G01 X38.709 Y31.278 F100
G01 Z0.000 F100
G01 X38.145 Y31.842 F100
G01 Z0.000 F100
G01 X37.774 Y32.555 F100
G01 Z0.000 F100
G01 X37.640 Y33.374 F100
G01 Z0.000 F100
G01 X37.640 Y33.374 F100
G00 X0.000 Y0.000 Z10.000

; Shape ID=31, Type=Path
; Name: Path
; Operation: Profile
; Path bounds: (40.140, 40.774) to (45.340, 45.974)
; Cut depth: 0.000mm, Step down: 0.000mm
G00 X40.140 Y43.374 Z10.000
G01 Z0.000 F100
G01 X40.274 Y44.192 F100
G01 Z0.000 F100
G01 X40.644 Y44.905 F100
G01 Z0.000 F100
G01 X41.209 Y45.469 F100
G01 Z0.000 F100
G01 X41.922 Y45.840 F100
G01 Z0.000 F100
G01 X42.740 Y45.974 F100
G01 Z0.000 F100
G01 X43.558 Y45.840 F100
G01 Z0.000 F100
G01 X44.271 Y45.469 F100
G01 Z0.000 F100
G01 X44.836 Y44.905 F100
G01 Z0.000 F100
G01 X45.207 Y44.192 F100
G01 Z0.000 F100
G01 X45.340 Y43.374 F100
G01 Z0.000 F100
G01 X45.207 Y42.556 F100
G01 Z0.000 F100
G01 X44.836 Y41.842 F100
G01 Z0.000 F100
G01 X44.271 Y41.278 F100
G01 Z0.000 F100
G01 X43.558 Y40.907 F100
G01 Z0.000 F100
G01 X42.740 Y40.774 F100
G01 Z0.000 F100
G01 X41.922 Y40.907 F100
G01 Z0.000 F100
G01 X41.209 Y41.278 F100
G01 Z0.000 F100
G01 X40.644 Y41.842 F100
G01 Z0.000 F100
G01 X40.274 Y42.556 F100
G01 Z0.000 F100
G01 X40.140 Y43.374 F100
G01 Z0.000 F100
G01 X40.140 Y43.374 F100
G00 X0.000 Y0.000 Z10.000

; Shape ID=32, Type=Path
; Name: Path
; Operation: Profile
; Path bounds: (40.140, 20.774) to (45.340, 25.974)
; Cut depth: 0.000mm, Step down: 0.000mm
G00 X40.140 Y23.374 Z10.000
G01 Z0.000 F100
G01 X40.274 Y24.192 F100
G01 Z0.000 F100
G01 X40.644 Y24.905 F100
G01 Z0.000 F100
G01 X41.209 Y25.469 F100
G01 Z0.000 F100
G01 X41.922 Y25.840 F100
G01 Z0.000 F100
G01 X42.740 Y25.974 F100
G01 Z0.000 F100
G01 X43.558 Y25.840 F100
G01 Z0.000 F100
G01 X44.271 Y25.469 F100
G01 Z0.000 F100
G01 X44.836 Y24.905 F100
G01 Z0.000 F100
G01 X45.207 Y24.192 F100
G01 Z0.000 F100
G01 X45.340 Y23.374 F100
G01 Z0.000 F100
G01 X45.207 Y22.555 F100
G01 Z0.000 F100
G01 X44.836 Y21.842 F100
G01 Z0.000 F100
G01 X44.271 Y21.278 F100
G01 Z0.000 F100
G01 X43.558 Y20.907 F100
G01 Z0.000 F100
G01 X42.740 Y20.774 F100
G01 Z0.000 F100
G01 X41.922 Y20.907 F100
G01 Z0.000 F100
G01 X41.209 Y21.278 F100
G01 Z0.000 F100
G01 X40.644 Y21.842 F100
G01 Z0.000 F100
G01 X40.274 Y22.555 F100
G01 Z0.000 F100
G01 X40.140 Y23.374 F100
G01 Z0.000 F100
G01 X40.140 Y23.374 F100
G00 X0.000 Y0.000 Z10.000

; Shape ID=33, Type=Path
; Name: Path
; Operation: Profile
; Path bounds: (60.140, 30.774) to (65.340, 35.974)
; Cut depth: 0.000mm, Step down: 0.000mm
G00 X60.140 Y33.374 Z10.000
G01 Z0.000 F100
G01 X60.273 Y34.192 F100
G01 Z0.000 F100
G01 X60.644 Y34.905 F100
G01 Z0.000 F100
G01 X61.209 Y35.469 F100
G01 Z0.000 F100
G01 X61.922 Y35.840 F100
G01 Z0.000 F100
G01 X62.740 Y35.974 F100
G01 Z0.000 F100
G01 X63.558 Y35.840 F100
G01 Z0.000 F100
G01 X64.271 Y35.469 F100
G01 Z0.000 F100
G01 X64.836 Y34.905 F100
G01 Z0.000 F100
G01 X65.207 Y34.192 F100
G01 Z0.000 F100
G01 X65.340 Y33.374 F100
G01 Z0.000 F100
G01 X65.207 Y32.555 F100
G01 Z0.000 F100
G01 X64.836 Y31.842 F100
G01 Z0.000 F100
G01 X64.271 Y31.278 F100
G01 Z0.000 F100
G01 X63.558 Y30.907 F100
G01 Z0.000 F100
G01 X62.740 Y30.774 F100
G01 Z0.000 F100
G01 X61.922 Y30.907 F100
G01 Z0.000 F100
G01 X61.209 Y31.278 F100
G01 Z0.000 F100
G01 X60.644 Y31.842 F100
G01 Z0.000 F100
G01 X60.273 Y32.555 F100
G01 Z0.000 F100
G01 X60.140 Y33.374 F100
G01 Z0.000 F100
G01 X60.140 Y33.374 F100
G00 X0.000 Y0.000 Z10.000

; Shape ID=34, Type=Path
; Name: Path
; Operation: Profile
; Path bounds: (70.140, 40.774) to (75.340, 45.974)
; Cut depth: 0.000mm, Step down: 0.000mm
G00 X70.140 Y43.374 Z10.000
G01 Z0.000 F100
G01 X70.273 Y44.192 F100
G01 Z0.000 F100
G01 X70.644 Y44.905 F100
G01 Z0.000 F100
G01 X71.209 Y45.469 F100
G01 Z0.000 F100
G01 X71.922 Y45.840 F100
G01 Z0.000 F100
G01 X72.740 Y45.974 F100
G01 Z0.000 F100
G01 X73.558 Y45.840 F100
G01 Z0.000 F100
G01 X74.271 Y45.469 F100
G01 Z0.000 F100
G01 X74.836 Y44.905 F100
G01 Z0.000 F100
G01 X75.207 Y44.192 F100
G01 Z0.000 F100
G01 X75.340 Y43.374 F100
G01 Z0.000 F100
G01 X75.207 Y42.556 F100
G01 Z0.000 F100
G01 X74.836 Y41.842 F100
G01 Z0.000 F100
G01 X74.271 Y41.278 F100
G01 Z0.000 F100
G01 X73.558 Y40.907 F100
G01 Z0.000 F100
G01 X72.740 Y40.774 F100
G01 Z0.000 F100
G01 X71.922 Y40.907 F100
G01 Z0.000 F100
G01 X71.209 Y41.278 F100
G01 Z0.000 F100
G01 X70.644 Y41.842 F100
G01 Z0.000 F100
G01 X70.273 Y42.556 F100
G01 Z0.000 F100
G01 X70.140 Y43.374 F100
G01 Z0.000 F100
G01 X70.140 Y43.374 F100
G00 X0.000 Y0.000 Z10.000

; Shape ID=35, Type=Path
; Name: Path
; Operation: Profile
; Path bounds: (80.140, 30.774) to (85.340, 35.974)
; Cut depth: 0.000mm, Step down: 0.000mm
G00 X80.140 Y33.374 Z10.000
G01 Z0.000 F100
G01 X80.273 Y34.192 F100
G01 Z0.000 F100
G01 X80.644 Y34.905 F100
G01 Z0.000 F100
G01 X81.209 Y35.469 F100
G01 Z0.000 F100
G01 X81.922 Y35.840 F100
G01 Z0.000 F100
G01 X82.740 Y35.974 F100
G01 Z0.000 F100
G01 X83.558 Y35.840 F100
G01 Z0.000 F100
G01 X84.271 Y35.469 F100
G01 Z0.000 F100
G01 X84.836 Y34.905 F100
G01 Z0.000 F100
G01 X85.207 Y34.192 F100
G01 Z0.000 F100
G01 X85.340 Y33.374 F100
G01 Z0.000 F100
G01 X85.207 Y32.555 F100
G01 Z0.000 F100
G01 X84.836 Y31.842 F100
G01 Z0.000 F100
G01 X84.271 Y31.278 F100
G01 Z0.000 F100
G01 X83.558 Y30.907 F100
G01 Z0.000 F100
G01 X82.740 Y30.774 F100
G01 Z0.000 F100
G01 X81.922 Y30.907 F100
G01 Z0.000 F100
G01 X81.209 Y31.278 F100
G01 Z0.000 F100
G01 X80.644 Y31.842 F100
G01 Z0.000 F100
G01 X80.273 Y32.555 F100
G01 Z0.000 F100
G01 X80.140 Y33.374 F100
G01 Z0.000 F100
G01 X80.140 Y33.374 F100
G00 X0.000 Y0.000 Z10.000

; Shape ID=36, Type=Path
; Name: Path
; Operation: Profile
; Path bounds: (100.140, 20.774) to (105.340, 25.974)
; Cut depth: 0.000mm, Step down: 0.000mm
G00 X100.140 Y23.374 Z10.000
G01 Z0.000 F100
G01 X100.273 Y24.192 F100
G01 Z0.000 F100
G01 X100.644 Y24.905 F100
G01 Z0.000 F100
G01 X101.209 Y25.469 F100
G01 Z0.000 F100
G01 X101.922 Y25.840 F100
G01 Z0.000 F100
G01 X102.740 Y25.974 F100
G01 Z0.000 F100
G01 X103.558 Y25.840 F100
G01 Z0.000 F100
G01 X104.271 Y25.469 F100
G01 Z0.000 F100
G01 X104.836 Y24.905 F100
G01 Z0.000 F100
G01 X105.207 Y24.192 F100
G01 Z0.000 F100
G01 X105.340 Y23.374 F100
G01 Z0.000 F100
G01 X105.207 Y22.555 F100
G01 Z0.000 F100
G01 X104.836 Y21.842 F100
G01 Z0.000 F100
G01 X104.271 Y21.278 F100
G01 Z0.000 F100
G01 X103.558 Y20.907 F100
G01 Z0.000 F100
G01 X102.740 Y20.774 F100
G01 Z0.000 F100
G01 X101.922 Y20.907 F100
G01 Z0.000 F100
G01 X101.209 Y21.278 F100
G01 Z0.000 F100
G01 X100.644 Y21.842 F100
G01 Z0.000 F100
G01 X100.274 Y22.555 F100
G01 Z0.000 F100
G01 X100.140 Y23.374 F100
G01 Z0.000 F100
G01 X100.140 Y23.374 F100
G00 X0.000 Y0.000 Z10.000

; Shape ID=37, Type=Path
; Name: Path
; Operation: Profile
; Path bounds: (102.640, 30.774) to (107.840, 35.974)
; Cut depth: 0.000mm, Step down: 0.000mm
G00 X102.640 Y33.374 Z10.000
G01 Z0.000 F100
G01 X102.773 Y34.192 F100
G01 Z0.000 F100
G01 X103.144 Y34.905 F100
G01 Z0.000 F100
G01 X103.709 Y35.469 F100
G01 Z0.000 F100
G01 X104.422 Y35.840 F100
G01 Z0.000 F100
G01 X105.240 Y35.974 F100
G01 Z0.000 F100
G01 X106.058 Y35.840 F100
G01 Z0.000 F100
G01 X106.771 Y35.469 F100
G01 Z0.000 F100
G01 X107.336 Y34.905 F100
G01 Z0.000 F100
G01 X107.707 Y34.192 F100
G01 Z0.000 F100
G01 X107.840 Y33.374 F100
G01 Z0.000 F100
G01 X107.707 Y32.555 F100
G01 Z0.000 F100
G01 X107.336 Y31.842 F100
G01 Z0.000 F100
G01 X106.771 Y31.278 F100
G01 Z0.000 F100
G01 X106.058 Y30.907 F100
G01 Z0.000 F100
G01 X105.240 Y30.774 F100
G01 Z0.000 F100
G01 X104.422 Y30.907 F100
G01 Z0.000 F100
G01 X103.709 Y31.278 F100
G01 Z0.000 F100
G01 X103.144 Y31.842 F100
G01 Z0.000 F100
G01 X102.774 Y32.555 F100
G01 Z0.000 F100
G01 X102.640 Y33.374 F100
G01 Z0.000 F100
G01 X102.640 Y33.374 F100
G00 X0.000 Y0.000 Z10.000

; Shape ID=38, Type=Path
; Name: Path
; Operation: Profile
; Path bounds: (100.140, 40.774) to (105.340, 45.974)
; Cut depth: 0.000mm, Step down: 0.000mm
G00 X100.140 Y43.374 Z10.000
G01 Z0.000 F100
G01 X100.273 Y44.192 F100
G01 Z0.000 F100
G01 X100.644 Y44.905 F100
G01 Z0.000 F100
G01 X101.209 Y45.469 F100
G01 Z0.000 F100
G01 X101.922 Y45.840 F100
G01 Z0.000 F100
G01 X102.740 Y45.974 F100
G01 Z0.000 F100
G01 X103.558 Y45.840 F100
G01 Z0.000 F100
G01 X104.271 Y45.469 F100
G01 Z0.000 F100
G01 X104.836 Y44.905 F100
G01 Z0.000 F100
G01 X105.207 Y44.192 F100
G01 Z0.000 F100
G01 X105.340 Y43.374 F100
G01 Z0.000 F100
G01 X105.207 Y42.556 F100
G01 Z0.000 F100
G01 X104.836 Y41.842 F100
G01 Z0.000 F100
G01 X104.271 Y41.278 F100
G01 Z0.000 F100
G01 X103.558 Y40.907 F100
G01 Z0.000 F100
G01 X102.740 Y40.774 F100
G01 Z0.000 F100
G01 X101.922 Y40.907 F100
G01 Z0.000 F100
G01 X101.209 Y41.278 F100
G01 Z0.000 F100
G01 X100.644 Y41.842 F100
G01 Z0.000 F100
G01 X100.274 Y42.556 F100
G01 Z0.000 F100
G01 X100.140 Y43.374 F100
G01 Z0.000 F100
G01 X100.140 Y43.374 F100
G00 X0.000 Y0.000 Z10.000

; Shape ID=39, Type=Path
; Name: Path
; Operation: Profile
; Path bounds: (100.140, 120.774) to (105.340, 125.974)
; Cut depth: 0.000mm, Step down: 0.000mm
G00 X100.140 Y123.374 Z10.000
G01 Z0.000 F100
G01 X100.273 Y124.192 F100
G01 Z0.000 F100
G01 X100.644 Y124.905 F100
G01 Z0.000 F100
G01 X101.209 Y125.469 F100
G01 Z0.000 F100
G01 X101.922 Y125.840 F100
G01 Z0.000 F100
G01 X102.740 Y125.974 F100
G01 Z0.000 F100
G01 X103.558 Y125.840 F100
G01 Z0.000 F100
G01 X104.271 Y125.469 F100
G01 Z0.000 F100
G01 X104.836 Y124.905 F100
G01 Z0.000 F100
G01 X105.207 Y124.192 F100
G01 Z0.000 F100
G01 X105.340 Y123.374 F100
G01 Z0.000 F100
G01 X105.207 Y122.555 F100
G01 Z0.000 F100
G01 X104.836 Y121.842 F100
G01 Z0.000 F100
G01 X104.271 Y121.278 F100
G01 Z0.000 F100
G01 X103.558 Y120.907 F100
G01 Z0.000 F100
G01 X102.740 Y120.774 F100
G01 Z0.000 F100
G01 X101.922 Y120.907 F100
G01 Z0.000 F100
G01 X101.209 Y121.278 F100
G01 Z0.000 F100
G01 X100.644 Y121.842 F100
G01 Z0.000 F100
G01 X100.274 Y122.555 F100
G01 Z0.000 F100
G01 X100.140 Y123.374 F100
G01 Z0.000 F100
G01 X100.140 Y123.374 F100
G00 X0.000 Y0.000 Z10.000

; Shape ID=40, Type=Path
; Name: Path
; Operation: Profile
; Path bounds: (102.640, 110.774) to (107.840, 115.974)
; Cut depth: 0.000mm, Step down: 0.000mm
G00 X102.640 Y113.374 Z10.000
G01 Z0.000 F100
G01 X102.773 Y114.192 F100
G01 Z0.000 F100
G01 X103.144 Y114.905 F100
G01 Z0.000 F100
G01 X103.709 Y115.469 F100
G01 Z0.000 F100
G01 X104.422 Y115.840 F100
G01 Z0.000 F100
G01 X105.240 Y115.974 F100
G01 Z0.000 F100
G01 X106.058 Y115.840 F100
G01 Z0.000 F100
G01 X106.771 Y115.469 F100
G01 Z0.000 F100
G01 X107.336 Y114.905 F100
G01 Z0.000 F100
G01 X107.707 Y114.192 F100
G01 Z0.000 F100
G01 X107.840 Y113.374 F100
G01 Z0.000 F100
G01 X107.707 Y112.556 F100
G01 Z0.000 F100
G01 X107.336 Y111.842 F100
G01 Z0.000 F100
G01 X106.771 Y111.278 F100
G01 Z0.000 F100
G01 X106.058 Y110.907 F100
G01 Z0.000 F100
G01 X105.240 Y110.774 F100
G01 Z0.000 F100
G01 X104.422 Y110.907 F100
G01 Z0.000 F100
G01 X103.709 Y111.278 F100
G01 Z0.000 F100
G01 X103.144 Y111.842 F100
G01 Z0.000 F100
G01 X102.774 Y112.556 F100
G01 Z0.000 F100
G01 X102.640 Y113.374 F100
G01 Z0.000 F100
G01 X102.640 Y113.374 F100
G00 X0.000 Y0.000 Z10.000

; Shape ID=41, Type=Path
; Name: Path
; Operation: Profile
; Path bounds: (100.140, 100.774) to (105.340, 105.974)
; Cut depth: 0.000mm, Step down: 0.000mm
G00 X100.140 Y103.374 Z10.000
G01 Z0.000 F100
G01 X100.273 Y104.192 F100
G01 Z0.000 F100
G01 X100.644 Y104.905 F100
G01 Z0.000 F100
G01 X101.209 Y105.469 F100
G01 Z0.000 F100
G01 X101.922 Y105.840 F100
G01 Z0.000 F100
G01 X102.740 Y105.974 F100
G01 Z0.000 F100
G01 X103.558 Y105.840 F100
G01 Z0.000 F100
G01 X104.271 Y105.469 F100
G01 Z0.000 F100
G01 X104.836 Y104.905 F100
G01 Z0.000 F100
G01 X105.207 Y104.192 F100
G01 Z0.000 F100
G01 X105.340 Y103.374 F100
G01 Z0.000 F100
G01 X105.207 Y102.555 F100
G01 Z0.000 F100
G01 X104.836 Y101.842 F100
G01 Z0.000 F100
G01 X104.271 Y101.278 F100
G01 Z0.000 F100
G01 X103.558 Y100.907 F100
G01 Z0.000 F100
G01 X102.740 Y100.774 F100
G01 Z0.000 F100
G01 X101.922 Y100.907 F100
G01 Z0.000 F100
G01 X101.209 Y101.278 F100
G01 Z0.000 F100
G01 X100.644 Y101.842 F100
G01 Z0.000 F100
G01 X100.274 Y102.555 F100
G01 Z0.000 F100
G01 X100.140 Y103.374 F100
G01 Z0.000 F100
G01 X100.140 Y103.374 F100
G00 X0.000 Y0.000 Z10.000

; Shape ID=42, Type=Path
; Name: Path
; Operation: Profile
; Path bounds: (100.140, 80.774) to (105.340, 85.974)
; Cut depth: 0.000mm, Step down: 0.000mm
G00 X100.140 Y83.374 Z10.000
G01 Z0.000 F100
G01 X100.273 Y84.192 F100
G01 Z0.000 F100
G01 X100.644 Y84.905 F100
G01 Z0.000 F100
G01 X101.209 Y85.469 F100
G01 Z0.000 F100
G01 X101.922 Y85.840 F100
G01 Z0.000 F100
G01 X102.740 Y85.974 F100
G01 Z0.000 F100
G01 X103.558 Y85.840 F100
G01 Z0.000 F100
G01 X104.271 Y85.469 F100
G01 Z0.000 F100
G01 X104.836 Y84.905 F100
G01 Z0.000 F100
G01 X105.207 Y84.192 F100
G01 Z0.000 F100
G01 X105.340 Y83.374 F100
G01 Z0.000 F100
G01 X105.207 Y82.556 F100
G01 Z0.000 F100
G01 X104.836 Y81.842 F100
G01 Z0.000 F100
G01 X104.271 Y81.278 F100
G01 Z0.000 F100
G01 X103.558 Y80.907 F100
G01 Z0.000 F100
G01 X102.740 Y80.774 F100
G01 Z0.000 F100
G01 X101.922 Y80.907 F100
G01 Z0.000 F100
G01 X101.209 Y81.278 F100
G01 Z0.000 F100
G01 X100.644 Y81.842 F100
G01 Z0.000 F100
G01 X100.274 Y82.555 F100
G01 Z0.000 F100
G01 X100.140 Y83.374 F100
G01 Z0.000 F100
G01 X100.140 Y83.374 F100
G00 X0.000 Y0.000 Z10.000

; Shape ID=43, Type=Path
; Name: Path
; Operation: Profile
; Path bounds: (100.140, 60.774) to (105.340, 65.974)
; Cut depth: 0.000mm, Step down: 0.000mm
G00 X100.140 Y63.374 Z10.000
G01 Z0.000 F100
G01 X100.273 Y64.192 F100
G01 Z0.000 F100
G01 X100.644 Y64.905 F100
G01 Z0.000 F100
G01 X101.209 Y65.469 F100
G01 Z0.000 F100
G01 X101.922 Y65.840 F100
G01 Z0.000 F100
G01 X102.740 Y65.974 F100
G01 Z0.000 F100
G01 X103.558 Y65.840 F100
G01 Z0.000 F100
G01 X104.271 Y65.469 F100
G01 Z0.000 F100
G01 X104.836 Y64.905 F100
G01 Z0.000 F100
G01 X105.207 Y64.192 F100
G01 Z0.000 F100
G01 X105.340 Y63.374 F100
G01 Z0.000 F100
G01 X105.207 Y62.556 F100
G01 Z0.000 F100
G01 X104.836 Y61.842 F100
G01 Z0.000 F100
G01 X104.271 Y61.278 F100
G01 Z0.000 F100
G01 X103.558 Y60.907 F100
G01 Z0.000 F100
G01 X102.740 Y60.774 F100
G01 Z0.000 F100
G01 X101.922 Y60.907 F100
G01 Z0.000 F100
G01 X101.209 Y61.278 F100
G01 Z0.000 F100
G01 X100.644 Y61.842 F100
G01 Z0.000 F100
G01 X100.274 Y62.556 F100
G01 Z0.000 F100
G01 X100.140 Y63.374 F100
G01 Z0.000 F100
G01 X100.140 Y63.374 F100
G00 X0.000 Y0.000 Z10.000

; Shape ID=44, Type=Path
; Name: Path
; Operation: Profile
; Path bounds: (100.140, 70.774) to (105.340, 75.974)
; Cut depth: 0.000mm, Step down: 0.000mm
G00 X100.140 Y73.374 Z10.000
G01 Z0.000 F100
G01 X100.273 Y74.192 F100
G01 Z0.000 F100
G01 X100.644 Y74.905 F100
G01 Z0.000 F100
G01 X101.209 Y75.469 F100
G01 Z0.000 F100
G01 X101.922 Y75.840 F100
G01 Z0.000 F100
G01 X102.740 Y75.974 F100
G01 Z0.000 F100
G01 X103.558 Y75.840 F100
G01 Z0.000 F100
G01 X104.271 Y75.469 F100
G01 Z0.000 F100
G01 X104.836 Y74.905 F100
G01 Z0.000 F100
G01 X105.207 Y74.192 F100
G01 Z0.000 F100
G01 X105.340 Y73.374 F100
G01 Z0.000 F100
G01 X105.207 Y72.555 F100
G01 Z0.000 F100
G01 X104.836 Y71.842 F100
G01 Z0.000 F100
G01 X104.271 Y71.278 F100
G01 Z0.000 F100
G01 X103.558 Y70.907 F100
G01 Z0.000 F100
G01 X102.740 Y70.774 F100
G01 Z0.000 F100
G01 X101.922 Y70.907 F100
G01 Z0.000 F100
G01 X101.209 Y71.278 F100
G01 Z0.000 F100
G01 X100.644 Y71.842 F100
G01 Z0.000 F100
G01 X100.274 Y72.555 F100
G01 Z0.000 F100
G01 X100.140 Y73.374 F100
G01 Z0.000 F100
G01 X100.140 Y73.374 F100
G00 X0.000 Y0.000 Z10.000

; Shape ID=45, Type=Path
; Name: Path
; Operation: Profile
; Path bounds: (20.173, 101.307) to (24.307, 105.441)
; Cut depth: 0.000mm, Step down: 0.000mm
G00 X20.173 Y103.374 Z10.000
G01 Z0.000 F100
G01 X20.337 Y104.175 F100
G01 Z0.000 F100
G01 X20.781 Y104.832 F100
G01 Z0.000 F100
G01 X21.439 Y105.277 F100
G01 Z0.000 F100
G01 X22.240 Y105.441 F100
G01 Z0.000 F100
G01 X23.041 Y105.277 F100
G01 Z0.000 F100
G01 X23.699 Y104.832 F100
G01 Z0.000 F100
G01 X24.144 Y104.175 F100
G01 Z0.000 F100
G01 X24.307 Y103.374 F100
G01 Z0.000 F100
G01 X24.144 Y102.572 F100
G01 Z0.000 F100
G01 X23.699 Y101.915 F100
G01 Z0.000 F100
G01 X23.041 Y101.470 F100
G01 Z0.000 F100
G01 X22.240 Y101.307 F100
G01 Z0.000 F100
G01 X21.439 Y101.470 F100
G01 Z0.000 F100
G01 X20.781 Y101.915 F100
G01 Z0.000 F100
G01 X20.337 Y102.572 F100
G01 Z0.000 F100
G01 X20.173 Y103.374 F100
G01 Z0.000 F100
G01 X20.173 Y103.374 F100
G00 X0.000 Y0.000 Z10.000

; Shape ID=46, Type=Path
; Name: Path
; Operation: Profile
; Path bounds: (121.173, 41.307) to (125.307, 45.441)
; Cut depth: 0.000mm, Step down: 0.000mm
G00 X121.173 Y43.374 Z10.000
G01 Z0.000 F100
G01 X121.337 Y44.175 F100
G01 Z0.000 F100
G01 X121.781 Y44.832 F100
G01 Z0.000 F100
G01 X122.439 Y45.277 F100
G01 Z0.000 F100
G01 X123.240 Y45.441 F100
G01 Z0.000 F100
G01 X124.041 Y45.277 F100
G01 Z0.000 F100
G01 X124.699 Y44.832 F100
G01 Z0.000 F100
G01 X125.144 Y44.175 F100
G01 Z0.000 F100
G01 X125.307 Y43.374 F100
G01 Z0.000 F100
G01 X125.144 Y42.572 F100
G01 Z0.000 F100
G01 X124.699 Y41.915 F100
G01 Z0.000 F100
G01 X124.041 Y41.470 F100
G01 Z0.000 F100
G01 X123.240 Y41.307 F100
G01 Z0.000 F100
G01 X122.439 Y41.470 F100
G01 Z0.000 F100
G01 X121.781 Y41.915 F100
G01 Z0.000 F100
G01 X121.337 Y42.572 F100
G01 Z0.000 F100
G01 X121.173 Y43.374 F100
G01 Z0.000 F100
G01 X121.173 Y43.374 F100
G00 X0.000 Y0.000 Z10.000

; Shape ID=47, Type=Path
; Name: Path
; Operation: Profile
; Path bounds: (121.173, 101.307) to (125.307, 105.441)
; Cut depth: 0.000mm, Step down: 0.000mm
G00 X121.173 Y103.374 Z10.000
G01 Z0.000 F100
G01 X121.337 Y104.175 F100
G01 Z0.000 F100
G01 X121.781 Y104.832 F100
G01 Z0.000 F100
G01 X122.439 Y105.277 F100
G01 Z0.000 F100
G01 X123.240 Y105.441 F100
G01 Z0.000 F100
G01 X124.041 Y105.277 F100
G01 Z0.000 F100
G01 X124.699 Y104.832 F100
G01 Z0.000 F100
G01 X125.144 Y104.175 F100
G01 Z0.000 F100
G01 X125.307 Y103.374 F100
G01 Z0.000 F100
G01 X125.144 Y102.572 F100
G01 Z0.000 F100
G01 X124.699 Y101.915 F100
G01 Z0.000 F100
G01 X124.041 Y101.470 F100
G01 Z0.000 F100
G01 X123.240 Y101.307 F100
G01 Z0.000 F100
G01 X122.439 Y101.470 F100
G01 Z0.000 F100
G01 X121.781 Y101.915 F100
G01 Z0.000 F100
G01 X121.337 Y102.572 F100
G01 Z0.000 F100
G01 X121.173 Y103.374 F100
G01 Z0.000 F100
G01 X121.173 Y103.374 F100
G00 X0.000 Y0.000 Z10.000

; Shape ID=48, Type=Path
; Name: Path
; Operation: Profile
; Path bounds: (20.173, 41.307) to (24.307, 45.441)
; Cut depth: 0.000mm, Step down: 0.000mm
G00 X20.173 Y43.374 Z10.000
G01 Z0.000 F100
G01 X20.337 Y44.175 F100
G01 Z0.000 F100
G01 X20.781 Y44.832 F100
G01 Z0.000 F100
G01 X21.439 Y45.277 F100
G01 Z0.000 F100
G01 X22.240 Y45.441 F100
G01 Z0.000 F100
G01 X23.041 Y45.277 F100
G01 Z0.000 F100
G01 X23.699 Y44.832 F100
G01 Z0.000 F100
G01 X24.144 Y44.175 F100
G01 Z0.000 F100
G01 X24.307 Y43.374 F100
G01 Z0.000 F100
G01 X24.144 Y42.572 F100
G01 Z0.000 F100
G01 X23.699 Y41.915 F100
G01 Z0.000 F100
G01 X23.041 Y41.470 F100
G01 Z0.000 F100
G01 X22.240 Y41.307 F100
G01 Z0.000 F100
G01 X21.439 Y41.470 F100
G01 Z0.000 F100
G01 X20.781 Y41.915 F100
G01 Z0.000 F100
G01 X20.337 Y42.572 F100
G01 Z0.000 F100
G01 X20.173 Y43.374 F100
G01 Z0.000 F100
G01 X20.173 Y43.374 F100
G00 X0.000 Y0.000 Z10.000

; Shape ID=49, Type=Path
; Name: Path
; Operation: Profile
; Path bounds: (19.741, 100.912) to (24.740, 105.873)
; Cut depth: 0.000mm, Step down: 0.000mm
G00 X19.778 Y102.939 Z10.000
G01 Z0.000 F100
G01 X19.746 Y103.193 F100
G01 Z0.000 F100
G01 X19.741 Y103.445 F100
G01 Z0.000 F100
G01 X19.760 Y103.691 F100
G01 Z0.000 F100
G01 X19.802 Y103.932 F100
G01 Z0.000 F100
G01 X19.956 Y104.390 F100
G01 Z0.000 F100
G01 X20.192 Y104.808 F100
G01 Z0.000 F100
G01 X20.503 Y105.172 F100
G01 Z0.000 F100
G01 X20.882 Y105.473 F100
G01 Z0.000 F100
G01 X21.093 Y105.596 F100
G01 Z0.000 F100
G01 X21.318 Y105.698 F100
G01 Z0.000 F100
G01 X21.556 Y105.779 F100
G01 Z0.000 F100
G01 X21.806 Y105.836 F100
G01 Z0.000 F100
G01 X22.060 Y105.867 F100
G01 Z0.000 F100
G01 X22.311 Y105.873 F100
G01 Z0.000 F100
G01 X22.558 Y105.854 F100
G01 Z0.000 F100
G01 X22.798 Y105.811 F100
G01 Z0.000 F100
G01 X23.257 Y105.658 F100
G01 Z0.000 F100
G01 X23.674 Y105.422 F100
G01 Z0.000 F100
G01 X24.039 Y105.110 F100
G01 Z0.000 F100
G01 X24.340 Y104.732 F100
G01 Z0.000 F100
G01 X24.462 Y104.520 F100
G01 Z0.000 F100
G01 X24.565 Y104.295 F100
G01 Z0.000 F100
G01 X24.645 Y104.057 F100
G01 Z0.000 F100
G01 X24.702 Y103.808 F100
G01 Z0.000 F100
G01 X24.734 Y103.554 F100
G01 Z0.000 F100
G01 X24.740 Y103.303 F100
G01 Z0.000 F100
G01 X24.720 Y103.056 F100
G01 Z0.000 F100
G01 X24.678 Y102.815 F100
G01 Z0.000 F100
G01 X24.524 Y102.357 F100
G01 Z0.000 F100
G01 X24.288 Y101.940 F100
G01 Z0.000 F100
G01 X23.977 Y101.575 F100
G01 Z0.000 F100
G01 X23.598 Y101.274 F100
G01 Z0.000 F100
G01 X23.387 Y101.151 F100
G01 Z0.000 F100
G01 X23.162 Y101.049 F100
G01 Z0.000 F100
G01 X22.924 Y100.969 F100
G01 Z0.000 F100
G01 X22.674 Y100.912 F100
G00 X0.000 Y0.000 Z10.000

; Shape ID=50, Type=Path
; Name: Path
; Operation: Profile
; Path bounds: (120.741, 40.912) to (125.740, 45.873)
; Cut depth: 0.000mm, Step down: 0.000mm
G00 X120.778 Y42.940 Z10.000
G01 Z0.000 F100
G01 X120.746 Y43.193 F100
G01 Z0.000 F100
G01 X120.741 Y43.445 F100
G01 Z0.000 F100
G01 X120.760 Y43.691 F100
G01 Z0.000 F100
G01 X120.802 Y43.932 F100
G01 Z0.000 F100
G01 X120.956 Y44.390 F100
G01 Z0.000 F100
G01 X121.192 Y44.808 F100
G01 Z0.000 F100
G01 X121.504 Y45.172 F100
G01 Z0.000 F100
G01 X121.882 Y45.473 F100
G01 Z0.000 F100
G01 X122.093 Y45.596 F100
G01 Z0.000 F100
G01 X122.319 Y45.698 F100
G01 Z0.000 F100
G01 X122.557 Y45.779 F100
G01 Z0.000 F100
G01 X122.806 Y45.836 F100
G01 Z0.000 F100
G01 X123.060 Y45.867 F100
G01 Z0.000 F100
G01 X123.311 Y45.873 F100
G01 Z0.000 F100
G01 X123.558 Y45.854 F100
G01 Z0.000 F100
G01 X123.798 Y45.811 F100
G01 Z0.000 F100
G01 X124.257 Y45.658 F100
G01 Z0.000 F100
G01 X124.674 Y45.422 F100
G01 Z0.000 F100
G01 X125.039 Y45.110 F100
G01 Z0.000 F100
G01 X125.340 Y44.732 F100
G01 Z0.000 F100
G01 X125.462 Y44.520 F100
G01 Z0.000 F100
G01 X125.565 Y44.295 F100
G01 Z0.000 F100
G01 X125.645 Y44.057 F100
G01 Z0.000 F100
G01 X125.702 Y43.808 F100
G01 Z0.000 F100
G01 X125.734 Y43.554 F100
G01 Z0.000 F100
G01 X125.740 Y43.303 F100
G01 Z0.000 F100
G01 X125.721 Y43.056 F100
G01 Z0.000 F100
G01 X125.678 Y42.815 F100
G01 Z0.000 F100
G01 X125.524 Y42.357 F100
G01 Z0.000 F100
G01 X125.288 Y41.940 F100
G01 Z0.000 F100
G01 X124.977 Y41.575 F100
G01 Z0.000 F100
G01 X124.598 Y41.274 F100
G01 Z0.000 F100
G01 X124.387 Y41.151 F100
G01 Z0.000 F100
G01 X124.162 Y41.049 F100
G01 Z0.000 F100
G01 X123.924 Y40.969 F100
G01 Z0.000 F100
G01 X123.674 Y40.912 F100
G00 X0.000 Y0.000 Z10.000

; Shape ID=51, Type=Path
; Name: Path
; Operation: Profile
; Path bounds: (120.741, 100.912) to (125.740, 105.873)
; Cut depth: 0.000mm, Step down: 0.000mm
G00 X120.778 Y102.939 Z10.000
G01 Z0.000 F100
G01 X120.746 Y103.193 F100
G01 Z0.000 F100
G01 X120.741 Y103.445 F100
G01 Z0.000 F100
G01 X120.760 Y103.691 F100
G01 Z0.000 F100
G01 X120.802 Y103.932 F100
G01 Z0.000 F100
G01 X120.956 Y104.390 F100
G01 Z0.000 F100
G01 X121.192 Y104.808 F100
G01 Z0.000 F100
G01 X121.504 Y105.172 F100
G01 Z0.000 F100
G01 X121.882 Y105.473 F100
G01 Z0.000 F100
G01 X122.093 Y105.596 F100
G01 Z0.000 F100
G01 X122.319 Y105.698 F100
G01 Z0.000 F100
G01 X122.557 Y105.779 F100
G01 Z0.000 F100
G01 X122.806 Y105.836 F100
G01 Z0.000 F100
G01 X123.060 Y105.867 F100
G01 Z0.000 F100
G01 X123.311 Y105.873 F100
G01 Z0.000 F100
G01 X123.558 Y105.854 F100
G01 Z0.000 F100
G01 X123.798 Y105.811 F100
G01 Z0.000 F100
G01 X124.257 Y105.658 F100
G01 Z0.000 F100
G01 X124.674 Y105.422 F100
G01 Z0.000 F100
G01 X125.039 Y105.110 F100
G01 Z0.000 F100
G01 X125.340 Y104.732 F100
G01 Z0.000 F100
G01 X125.462 Y104.520 F100
G01 Z0.000 F100
G01 X125.565 Y104.295 F100
G01 Z0.000 F100
G01 X125.645 Y104.057 F100
G01 Z0.000 F100
G01 X125.702 Y103.808 F100
G01 Z0.000 F100
G01 X125.734 Y103.554 F100
G01 Z0.000 F100
G01 X125.740 Y103.303 F100
G01 Z0.000 F100
G01 X125.721 Y103.056 F100
G01 Z0.000 F100
G01 X125.678 Y102.815 F100
G01 Z0.000 F100
G01 X125.524 Y102.357 F100
G01 Z0.000 F100
G01 X125.288 Y101.940 F100
G01 Z0.000 F100
G01 X124.977 Y101.575 F100
G01 Z0.000 F100
G01 X124.598 Y101.274 F100
G01 Z0.000 F100
G01 X124.387 Y101.151 F100
G01 Z0.000 F100
G01 X124.162 Y101.049 F100
G01 Z0.000 F100
G01 X123.924 Y100.969 F100
G01 Z0.000 F100
G01 X123.674 Y100.912 F100
G00 X0.000 Y0.000 Z10.000

; Shape ID=52, Type=Path
; Name: Path
; Operation: Profile
; Path bounds: (19.741, 40.912) to (24.740, 45.873)
; Cut depth: 0.000mm, Step down: 0.000mm
G00 X19.778 Y42.940 Z10.000
G01 Z0.000 F100
G01 X19.746 Y43.193 F100
G01 Z0.000 F100
G01 X19.741 Y43.445 F100
G01 Z0.000 F100
G01 X19.760 Y43.691 F100
G01 Z0.000 F100
G01 X19.802 Y43.932 F100
G01 Z0.000 F100
G01 X19.956 Y44.390 F100
G01 Z0.000 F100
G01 X20.192 Y44.808 F100
G01 Z0.000 F100
G01 X20.503 Y45.172 F100
G01 Z0.000 F100
G01 X20.882 Y45.473 F100
G01 Z0.000 F100
G01 X21.093 Y45.596 F100
G01 Z0.000 F100
G01 X21.318 Y45.698 F100
G01 Z0.000 F100
G01 X21.556 Y45.779 F100
G01 Z0.000 F100
G01 X21.806 Y45.836 F100
G01 Z0.000 F100
G01 X22.060 Y45.867 F100
G01 Z0.000 F100
G01 X22.311 Y45.873 F100
G01 Z0.000 F100
G01 X22.558 Y45.854 F100
G01 Z0.000 F100
G01 X22.798 Y45.811 F100
G01 Z0.000 F100
G01 X23.257 Y45.658 F100
G01 Z0.000 F100
G01 X23.674 Y45.422 F100
G01 Z0.000 F100
G01 X24.039 Y45.110 F100
G01 Z0.000 F100
G01 X24.340 Y44.732 F100
G01 Z0.000 F100
G01 X24.462 Y44.520 F100
G01 Z0.000 F100
G01 X24.565 Y44.295 F100
G01 Z0.000 F100
G01 X24.645 Y44.057 F100
G01 Z0.000 F100
G01 X24.702 Y43.808 F100
G01 Z0.000 F100
G01 X24.734 Y43.554 F100
G01 Z0.000 F100
G01 X24.740 Y43.303 F100
G01 Z0.000 F100
G01 X24.720 Y43.056 F100
G01 Z0.000 F100
G01 X24.678 Y42.815 F100
G01 Z0.000 F100
G01 X24.524 Y42.357 F100
G01 Z0.000 F100
G01 X24.288 Y41.940 F100
G01 Z0.000 F100
G01 X23.977 Y41.575 F100
G01 Z0.000 F100
G01 X23.598 Y41.274 F100
G01 Z0.000 F100
G01 X23.387 Y41.151 F100
G01 Z0.000 F100
G01 X23.162 Y41.049 F100
G01 Z0.000 F100
G01 X22.924 Y40.969 F100
G01 Z0.000 F100
G01 X22.674 Y40.912 F100
G00 X0.000 Y0.000 Z10.000

; Shape ID=61, Type=Path
; Name: Path
; Operation: Profile
; Path bounds: (70.140, 70.774) to (75.340, 75.974)
; Cut depth: 0.000mm, Step down: 0.000mm
G00 X70.140 Y73.374 Z10.000
G01 Z0.000 F100
G01 X70.273 Y74.192 F100
G01 Z0.000 F100
G01 X70.644 Y74.905 F100
G01 Z0.000 F100
G01 X71.209 Y75.469 F100
G01 Z0.000 F100
G01 X71.922 Y75.840 F100
G01 Z0.000 F100
G01 X72.740 Y75.974 F100
G01 Z0.000 F100
G01 X73.558 Y75.840 F100
G01 Z0.000 F100
G01 X74.271 Y75.469 F100
G01 Z0.000 F100
G01 X74.836 Y74.905 F100
G01 Z0.000 F100
G01 X75.207 Y74.192 F100
G01 Z0.000 F100
G01 X75.340 Y73.374 F100
G01 Z0.000 F100
G01 X75.207 Y72.555 F100
G01 Z0.000 F100
G01 X74.836 Y71.842 F100
G01 Z0.000 F100
G01 X74.271 Y71.278 F100
G01 Z0.000 F100
G01 X73.558 Y70.907 F100
G01 Z0.000 F100
G01 X72.740 Y70.774 F100
G01 Z0.000 F100
G01 X71.922 Y70.907 F100
G01 Z0.000 F100
G01 X71.209 Y71.278 F100
G01 Z0.000 F100
G01 X70.644 Y71.842 F100
G01 Z0.000 F100
G01 X70.273 Y72.555 F100
G01 Z0.000 F100
G01 X70.140 Y73.374 F100
G01 Z0.000 F100
G01 X70.140 Y73.374 F100
G00 X0.000 Y0.000 Z10.000

; Shape ID=62, Type=Path
; Name: Path
; Operation: Profile
; Path bounds: (60.140, 80.774) to (65.340, 85.974)
; Cut depth: 0.000mm, Step down: 0.000mm
G00 X60.140 Y83.374 Z10.000
G01 Z0.000 F100
G01 X60.273 Y84.192 F100
G01 Z0.000 F100
G01 X60.644 Y84.905 F100
G01 Z0.000 F100
G01 X61.209 Y85.469 F100
G01 Z0.000 F100
G01 X61.922 Y85.840 F100
G01 Z0.000 F100
G01 X62.740 Y85.974 F100
G01 Z0.000 F100
G01 X63.558 Y85.840 F100
G01 Z0.000 F100
G01 X64.271 Y85.469 F100
G01 Z0.000 F100
G01 X64.836 Y84.905 F100
G01 Z0.000 F100
G01 X65.207 Y84.192 F100
G01 Z0.000 F100
G01 X65.340 Y83.374 F100
G01 Z0.000 F100
G01 X65.207 Y82.556 F100
G01 Z0.000 F100
G01 X64.836 Y81.842 F100
G01 Z0.000 F100
G01 X64.271 Y81.278 F100
G01 Z0.000 F100
G01 X63.558 Y80.907 F100
G01 Z0.000 F100
G01 X62.740 Y80.774 F100
G01 Z0.000 F100
G01 X61.922 Y80.907 F100
G01 Z0.000 F100
G01 X61.209 Y81.278 F100
G01 Z0.000 F100
G01 X60.644 Y81.842 F100
G01 Z0.000 F100
G01 X60.273 Y82.555 F100
G01 Z0.000 F100
G01 X60.140 Y83.374 F100
G01 Z0.000 F100
G01 X60.140 Y83.374 F100
G00 X0.000 Y0.000 Z10.000

; Shape ID=63, Type=Path
; Name: Path
; Operation: Profile
; Path bounds: (80.140, 60.774) to (85.340, 65.974)
; Cut depth: 0.000mm, Step down: 0.000mm
G00 X80.140 Y63.374 Z10.000
G01 Z0.000 F100
G01 X80.273 Y64.192 F100
G01 Z0.000 F100
G01 X80.644 Y64.905 F100
G01 Z0.000 F100
G01 X81.209 Y65.469 F100
G01 Z0.000 F100
G01 X81.922 Y65.840 F100
G01 Z0.000 F100
G01 X82.740 Y65.974 F100
G01 Z0.000 F100
G01 X83.558 Y65.840 F100
G01 Z0.000 F100
G01 X84.271 Y65.469 F100
G01 Z0.000 F100
G01 X84.836 Y64.905 F100
G01 Z0.000 F100
G01 X85.207 Y64.192 F100
G01 Z0.000 F100
G01 X85.340 Y63.374 F100
G01 Z0.000 F100
G01 X85.207 Y62.556 F100
G01 Z0.000 F100
G01 X84.836 Y61.842 F100
G01 Z0.000 F100
G01 X84.271 Y61.278 F100
G01 Z0.000 F100
G01 X83.558 Y60.907 F100
G01 Z0.000 F100
G01 X82.740 Y60.774 F100
G01 Z0.000 F100
G01 X81.922 Y60.907 F100
G01 Z0.000 F100
G01 X81.209 Y61.278 F100
G01 Z0.000 F100
G01 X80.644 Y61.842 F100
G01 Z0.000 F100
G01 X80.273 Y62.556 F100
G01 Z0.000 F100
G01 X80.140 Y63.374 F100
G01 Z0.000 F100
G01 X80.140 Y63.374 F100
G00 X0.000 Y0.000 Z10.000

; Shape ID=64, Type=Path
; Name: Path
; Operation: Profile
; Path bounds: (80.140, 80.774) to (85.340, 85.974)
; Cut depth: 0.000mm, Step down: 0.000mm
G00 X80.140 Y83.374 Z10.000
G01 Z0.000 F100
G01 X80.273 Y84.192 F100
G01 Z0.000 F100
G01 X80.644 Y84.905 F100
G01 Z0.000 F100
G01 X81.209 Y85.469 F100
G01 Z0.000 F100
G01 X81.922 Y85.840 F100
G01 Z0.000 F100
G01 X82.740 Y85.974 F100
G01 Z0.000 F100
G01 X83.558 Y85.840 F100
G01 Z0.000 F100
G01 X84.271 Y85.469 F100
G01 Z0.000 F100
G01 X84.836 Y84.905 F100
G01 Z0.000 F100
G01 X85.207 Y84.192 F100
G01 Z0.000 F100
G01 X85.340 Y83.374 F100
G01 Z0.000 F100
G01 X85.207 Y82.556 F100
G01 Z0.000 F100
G01 X84.836 Y81.842 F100
G01 Z0.000 F100
G01 X84.271 Y81.278 F100
G01 Z0.000 F100
G01 X83.558 Y80.907 F100
G01 Z0.000 F100
G01 X82.740 Y80.774 F100
G01 Z0.000 F100
G01 X81.922 Y80.907 F100
G01 Z0.000 F100
G01 X81.209 Y81.278 F100
G01 Z0.000 F100
G01 X80.644 Y81.842 F100
G01 Z0.000 F100
G01 X80.273 Y82.555 F100
G01 Z0.000 F100
G01 X80.140 Y83.374 F100
G01 Z0.000 F100
G01 X80.140 Y83.374 F100
G00 X0.000 Y0.000 Z10.000

; Shape ID=65, Type=Path
; Name: Path
; Operation: Profile
; Path bounds: (60.140, 60.774) to (65.340, 65.974)
; Cut depth: 0.000mm, Step down: 0.000mm
G00 X60.140 Y63.374 Z10.000
G01 Z0.000 F100
G01 X60.273 Y64.192 F100
G01 Z0.000 F100
G01 X60.644 Y64.905 F100
G01 Z0.000 F100
G01 X61.209 Y65.469 F100
G01 Z0.000 F100
G01 X61.922 Y65.840 F100
G01 Z0.000 F100
G01 X62.740 Y65.974 F100
G01 Z0.000 F100
G01 X63.558 Y65.840 F100
G01 Z0.000 F100
G01 X64.271 Y65.469 F100
G01 Z0.000 F100
G01 X64.836 Y64.905 F100
G01 Z0.000 F100
G01 X65.207 Y64.192 F100
G01 Z0.000 F100
G01 X65.340 Y63.374 F100
G01 Z0.000 F100
G01 X65.207 Y62.556 F100
G01 Z0.000 F100
G01 X64.836 Y61.842 F100
G01 Z0.000 F100
G01 X64.271 Y61.278 F100
G01 Z0.000 F100
G01 X63.558 Y60.907 F100
G01 Z0.000 F100
G01 X62.740 Y60.774 F100
G01 Z0.000 F100
G01 X61.922 Y60.907 F100
G01 Z0.000 F100
G01 X61.209 Y61.278 F100
G01 Z0.000 F100
G01 X60.644 Y61.842 F100
G01 Z0.000 F100
G01 X60.273 Y62.556 F100
G01 Z0.000 F100
G01 X60.140 Y63.374 F100
G01 Z0.000 F100
G01 X60.140 Y63.374 F100
G00 X0.000 Y0.000 Z10.000

; Shape ID=67, Type=Rectangle
; Name: Rectangle
; Operation: Pocket
; Position: (55.240, 55.874) to (91.151, 90.282)
; Corner radius: 5.000mm
; Pocket depth: 1.500mm, Step down: 0.200mm, Step in: 1.170mm
; Strategy: ContourParallel
G00 X87.738 Y88.301 Z10.000
G01 Z-0.200 F100
G01 X87.759 Y88.291 F100
G01 Z-0.200 F100
G01 X87.905 Y88.208 F100
G01 Z-0.200 F100
G01 X88.046 Y88.119 F100
G01 Z-0.200 F100
G01 X88.183 Y88.022 F100
G01 Z-0.200 F100
G01 X88.315 Y87.919 F100
G01 Z-0.200 F100
G01 X88.442 Y87.810 F100
G01 Z-0.200 F100
G01 X88.563 Y87.694 F100
G01 Z-0.200 F100
G01 X88.679 Y87.573 F100
G01 Z-0.200 F100
G01 X88.788 Y87.446 F100
G01 Z-0.200 F100
G01 X88.891 Y87.314 F100
G01 Z-0.200 F100
G01 X88.988 Y87.177 F100
G01 Z-0.200 F100
G01 X89.077 Y87.036 F100
G01 Z-0.200 F100
G01 X89.160 Y86.890 F100
G01 Z-0.200 F100
G01 X89.235 Y86.740 F100
G01 Z-0.200 F100
G01 X89.303 Y86.587 F100
G01 Z-0.200 F100
G01 X89.363 Y86.431 F100
G01 Z-0.200 F100
G01 X89.416 Y86.272 F100
G01 Z-0.200 F100
G01 X89.461 Y86.111 F100
G01 Z-0.200 F100
G01 X89.497 Y85.947 F100
G01 Z-0.200 F100
G01 X89.504 Y85.906 F100
G01 Z-0.200 F100
G01 X87.738 Y84.226 F100
G01 Z-0.200 F100
G01 X87.738 Y88.301 F100
G01 Z-0.200 F100
G01 X87.759 Y88.291 F100
G01 Z-0.200 F100
G01 X87.905 Y88.208 F100
G01 Z-0.200 F100
G01 X88.046 Y88.119 F100
G01 Z-0.200 F100
G01 X88.183 Y88.022 F100
G01 Z-0.200 F100
G01 X88.315 Y87.919 F100
G01 Z-0.200 F100
G01 X88.442 Y87.810 F100
G01 Z-0.200 F100
G01 X88.563 Y87.694 F100
G01 Z-0.200 F100
G01 X88.679 Y87.573 F100
G01 Z-0.200 F100
G01 X88.788 Y87.446 F100
G01 Z-0.200 F100
G01 X88.891 Y87.314 F100
G01 Z-0.200 F100
G01 X88.988 Y87.177 F100
G01 Z-0.200 F100
G01 X89.077 Y87.036 F100
G01 Z-0.200 F100
G01 X89.160 Y86.890 F100
G01 Z-0.200 F100
G01 X89.235 Y86.740 F100
G01 Z-0.200 F100
G01 X89.303 Y86.587 F100
G01 Z-0.200 F100
G01 X89.363 Y86.431 F100
G01 Z-0.200 F100
G01 X89.416 Y86.272 F100
G01 Z-0.200 F100
G01 X89.461 Y86.111 F100
G01 Z-0.200 F100
G01 X89.497 Y85.947 F100
G01 Z-0.200 F100
G01 X89.504 Y85.906 F100
G01 Z-0.200 F100
G01 X87.738 Y88.301 F100
G00 X87.738 Y88.301 Z10.000
G01 Z-0.400 F100
G01 X87.759 Y88.291 F100
G01 Z-0.400 F100
G01 X87.905 Y88.208 F100
G01 Z-0.400 F100
G01 X88.046 Y88.119 F100
G01 Z-0.400 F100
G01 X88.183 Y88.022 F100
G01 Z-0.400 F100
G01 X88.315 Y87.919 F100
G01 Z-0.400 F100
G01 X88.442 Y87.810 F100
G01 Z-0.400 F100
G01 X88.563 Y87.694 F100
G01 Z-0.400 F100
G01 X88.679 Y87.573 F100
G01 Z-0.400 F100
G01 X88.788 Y87.446 F100
G01 Z-0.400 F100
G01 X88.891 Y87.314 F100
G01 Z-0.400 F100
G01 X88.988 Y87.177 F100
G01 Z-0.400 F100
G01 X89.077 Y87.036 F100
G01 Z-0.400 F100
G01 X89.160 Y86.890 F100
G01 Z-0.400 F100
G01 X89.235 Y86.740 F100
G01 Z-0.400 F100
G01 X89.303 Y86.587 F100
G01 Z-0.400 F100
G01 X89.363 Y86.431 F100
G01 Z-0.400 F100
G01 X89.416 Y86.272 F100
G01 Z-0.400 F100
G01 X89.461 Y86.111 F100
G01 Z-0.400 F100
G01 X89.497 Y85.947 F100
G01 Z-0.400 F100
G01 X89.504 Y85.906 F100
G01 Z-0.400 F100
G01 X87.738 Y84.226 F100
G01 Z-0.400 F100
G01 X87.738 Y88.301 F100
G01 Z-0.400 F100
G01 X87.759 Y88.291 F100
G01 Z-0.400 F100
G01 X87.905 Y88.208 F100
G01 Z-0.400 F100
G01 X88.046 Y88.119 F100
G01 Z-0.400 F100
G01 X88.183 Y88.022 F100
G01 Z-0.400 F100
G01 X88.315 Y87.919 F100
G01 Z-0.400 F100
G01 X88.442 Y87.810 F100
G01 Z-0.400 F100
G01 X88.563 Y87.694 F100
G01 Z-0.400 F100
G01 X88.679 Y87.573 F100
G01 Z-0.400 F100
G01 X88.788 Y87.446 F100
G01 Z-0.400 F100
G01 X88.891 Y87.314 F100
G01 Z-0.400 F100
G01 X88.988 Y87.177 F100
G01 Z-0.400 F100
G01 X89.077 Y87.036 F100
G01 Z-0.400 F100
G01 X89.160 Y86.890 F100
G01 Z-0.400 F100
G01 X89.235 Y86.740 F100
G01 Z-0.400 F100
G01 X89.303 Y86.587 F100
G01 Z-0.400 F100
G01 X89.363 Y86.431 F100
G01 Z-0.400 F100
G01 X89.416 Y86.272 F100
G01 Z-0.400 F100
G01 X89.461 Y86.111 F100
G01 Z-0.400 F100
G01 X89.497 Y85.947 F100
G01 Z-0.400 F100
G01 X89.504 Y85.906 F100
G01 Z-0.400 F100
G01 X87.738 Y88.301 F100
G00 X87.738 Y88.301 Z10.000
G01 Z-0.600 F100
G01 X87.759 Y88.291 F100
G01 Z-0.600 F100
G01 X87.905 Y88.208 F100
G01 Z-0.600 F100
G01 X88.046 Y88.119 F100
G01 Z-0.600 F100
G01 X88.183 Y88.022 F100
G01 Z-0.600 F100
G01 X88.315 Y87.919 F100
G01 Z-0.600 F100
G01 X88.442 Y87.810 F100
G01 Z-0.600 F100
G01 X88.563 Y87.694 F100
G01 Z-0.600 F100
G01 X88.679 Y87.573 F100
G01 Z-0.600 F100
G01 X88.788 Y87.446 F100
G01 Z-0.600 F100
G01 X88.891 Y87.314 F100
G01 Z-0.600 F100
G01 X88.988 Y87.177 F100
G01 Z-0.600 F100
G01 X89.077 Y87.036 F100
G01 Z-0.600 F100
G01 X89.160 Y86.890 F100
G01 Z-0.600 F100
G01 X89.235 Y86.740 F100
G01 Z-0.600 F100
G01 X89.303 Y86.587 F100
G01 Z-0.600 F100
G01 X89.363 Y86.431 F100
G01 Z-0.600 F100
G01 X89.416 Y86.272 F100
G01 Z-0.600 F100
G01 X89.461 Y86.111 F100
G01 Z-0.600 F100
G01 X89.497 Y85.947 F100
G01 Z-0.600 F100
G01 X89.504 Y85.906 F100
G01 Z-0.600 F100
G01 X87.738 Y84.226 F100
G01 Z-0.600 F100
G01 X87.738 Y88.301 F100
G01 Z-0.600 F100
G01 X87.759 Y88.291 F100
G01 Z-0.600 F100
G01 X87.905 Y88.208 F100
G01 Z-0.600 F100
G01 X88.046 Y88.119 F100
G01 Z-0.600 F100
G01 X88.183 Y88.022 F100
G01 Z-0.600 F100
G01 X88.315 Y87.919 F100
G01 Z-0.600 F100
G01 X88.442 Y87.810 F100
G01 Z-0.600 F100
G01 X88.563 Y87.694 F100
G01 Z-0.600 F100
G01 X88.679 Y87.573 F100
G01 Z-0.600 F100
G01 X88.788 Y87.446 F100
G01 Z-0.600 F100
G01 X88.891 Y87.314 F100
G01 Z-0.600 F100
G01 X88.988 Y87.177 F100
G01 Z-0.600 F100
G01 X89.077 Y87.036 F100
G01 Z-0.600 F100
G01 X89.160 Y86.890 F100
G01 Z-0.600 F100
G01 X89.235 Y86.740 F100
G01 Z-0.600 F100
G01 X89.303 Y86.587 F100
G01 Z-0.600 F100
G01 X89.363 Y86.431 F100
G01 Z-0.600 F100
G01 X89.416 Y86.272 F100
G01 Z-0.600 F100
G01 X89.461 Y86.111 F100
G01 Z-0.600 F100
G01 X89.497 Y85.947 F100
G01 Z-0.600 F100
G01 X89.504 Y85.906 F100
G01 Z-0.600 F100
G01 X87.738 Y88.301 F100
G00 X87.738 Y88.301 Z10.000
G01 Z-0.800 F100
G01 X87.759 Y88.291 F100
G01 Z-0.800 F100
G01 X87.905 Y88.208 F100
G01 Z-0.800 F100
G01 X88.046 Y88.119 F100
G01 Z-0.800 F100
G01 X88.183 Y88.022 F100
G01 Z-0.800 F100
G01 X88.315 Y87.919 F100
G01 Z-0.800 F100
G01 X88.442 Y87.810 F100
G01 Z-0.800 F100
G01 X88.563 Y87.694 F100
G01 Z-0.800 F100
G01 X88.679 Y87.573 F100
G01 Z-0.800 F100
G01 X88.788 Y87.446 F100
G01 Z-0.800 F100
G01 X88.891 Y87.314 F100
G01 Z-0.800 F100
G01 X88.988 Y87.177 F100
G01 Z-0.800 F100
G01 X89.077 Y87.036 F100
G01 Z-0.800 F100
G01 X89.160 Y86.890 F100
G01 Z-0.800 F100
G01 X89.235 Y86.740 F100
G01 Z-0.800 F100
G01 X89.303 Y86.587 F100
G01 Z-0.800 F100
G01 X89.363 Y86.431 F100
G01 Z-0.800 F100
G01 X89.416 Y86.272 F100
G01 Z-0.800 F100
G01 X89.461 Y86.111 F100
G01 Z-0.800 F100
G01 X89.497 Y85.947 F100
G01 Z-0.800 F100
G01 X89.504 Y85.906 F100
G01 Z-0.800 F100
G01 X87.738 Y84.226 F100
G01 Z-0.800 F100
G01 X87.738 Y88.301 F100
G01 Z-0.800 F100
G01 X87.759 Y88.291 F100
G01 Z-0.800 F100
G01 X87.905 Y88.208 F100
G01 Z-0.800 F100
G01 X88.046 Y88.119 F100
G01 Z-0.800 F100
G01 X88.183 Y88.022 F100
G01 Z-0.800 F100
G01 X88.315 Y87.919 F100
G01 Z-0.800 F100
G01 X88.442 Y87.810 F100
G01 Z-0.800 F100
G01 X88.563 Y87.694 F100
G01 Z-0.800 F100
G01 X88.679 Y87.573 F100
G01 Z-0.800 F100
G01 X88.788 Y87.446 F100
G01 Z-0.800 F100
G01 X88.891 Y87.314 F100
G01 Z-0.800 F100
G01 X88.988 Y87.177 F100
G01 Z-0.800 F100
G01 X89.077 Y87.036 F100
G01 Z-0.800 F100
G01 X89.160 Y86.890 F100
G01 Z-0.800 F100
G01 X89.235 Y86.740 F100
G01 Z-0.800 F100
G01 X89.303 Y86.587 F100
G01 Z-0.800 F100
G01 X89.363 Y86.431 F100
G01 Z-0.800 F100
G01 X89.416 Y86.272 F100
G01 Z-0.800 F100
G01 X89.461 Y86.111 F100
G01 Z-0.800 F100
G01 X89.497 Y85.947 F100
G01 Z-0.800 F100
G01 X89.504 Y85.906 F100
G01 Z-0.800 F100
G01 X87.738 Y88.301 F100
G00 X87.738 Y88.301 Z10.000
G01 Z-1.000 F100
G01 X87.759 Y88.291 F100
G01 Z-1.000 F100
G01 X87.905 Y88.208 F100
G01 Z-1.000 F100
G01 X88.046 Y88.119 F100
G01 Z-1.000 F100
G01 X88.183 Y88.022 F100
G01 Z-1.000 F100
G01 X88.315 Y87.919 F100
G01 Z-1.000 F100
G01 X88.442 Y87.810 F100
G01 Z-1.000 F100
G01 X88.563 Y87.694 F100
G01 Z-1.000 F100
G01 X88.679 Y87.573 F100
G01 Z-1.000 F100
G01 X88.788 Y87.446 F100
G01 Z-1.000 F100
G01 X88.891 Y87.314 F100
G01 Z-1.000 F100
G01 X88.988 Y87.177 F100
G01 Z-1.000 F100
G01 X89.077 Y87.036 F100
G01 Z-1.000 F100
G01 X89.160 Y86.890 F100
G01 Z-1.000 F100
G01 X89.235 Y86.740 F100
G01 Z-1.000 F100
G01 X89.303 Y86.587 F100
G01 Z-1.000 F100
G01 X89.363 Y86.431 F100
G01 Z-1.000 F100
G01 X89.416 Y86.272 F100
G01 Z-1.000 F100
G01 X89.461 Y86.111 F100
G01 Z-1.000 F100
G01 X89.497 Y85.947 F100
G01 Z-1.000 F100
G01 X89.504 Y85.906 F100
G01 Z-1.000 F100
G01 X87.738 Y84.226 F100
G01 Z-1.000 F100
G01 X87.738 Y88.301 F100
G01 Z-1.000 F100
G01 X87.759 Y88.291 F100
G01 Z-1.000 F100
G01 X87.905 Y88.208 F100
G01 Z-1.000 F100
G01 X88.046 Y88.119 F100
G01 Z-1.000 F100
G01 X88.183 Y88.022 F100
G01 Z-1.000 F100
G01 X88.315 Y87.919 F100
G01 Z-1.000 F100
G01 X88.442 Y87.810 F100
G01 Z-1.000 F100
G01 X88.563 Y87.694 F100
G01 Z-1.000 F100
G01 X88.679 Y87.573 F100
G01 Z-1.000 F100
G01 X88.788 Y87.446 F100
G01 Z-1.000 F100
G01 X88.891 Y87.314 F100
G01 Z-1.000 F100
G01 X88.988 Y87.177 F100
G01 Z-1.000 F100
G01 X89.077 Y87.036 F100
G01 Z-1.000 F100
G01 X89.160 Y86.890 F100
G01 Z-1.000 F100
G01 X89.235 Y86.740 F100
G01 Z-1.000 F100
G01 X89.303 Y86.587 F100
G01 Z-1.000 F100
G01 X89.363 Y86.431 F100
G01 Z-1.000 F100
G01 X89.416 Y86.272 F100
G01 Z-1.000 F100
G01 X89.461 Y86.111 F100
G01 Z-1.000 F100
G01 X89.497 Y85.947 F100
G01 Z-1.000 F100
G01 X89.504 Y85.906 F100
G01 Z-1.000 F100
G01 X87.738 Y88.301 F100
G00 X87.738 Y88.301 Z10.000
G01 Z-1.200 F100
G01 X87.759 Y88.291 F100
G01 Z-1.200 F100
G01 X87.905 Y88.208 F100
G01 Z-1.200 F100
G01 X88.046 Y88.119 F100
G01 Z-1.200 F100
G01 X88.183 Y88.022 F100
G01 Z-1.200 F100
G01 X88.315 Y87.919 F100
G01 Z-1.200 F100
G01 X88.442 Y87.810 F100
G01 Z-1.200 F100
G01 X88.563 Y87.694 F100
G01 Z-1.200 F100
G01 X88.679 Y87.573 F100
G01 Z-1.200 F100
G01 X88.788 Y87.446 F100
G01 Z-1.200 F100
G01 X88.891 Y87.314 F100
G01 Z-1.200 F100
G01 X88.988 Y87.177 F100
G01 Z-1.200 F100
G01 X89.077 Y87.036 F100
G01 Z-1.200 F100
G01 X89.160 Y86.890 F100
G01 Z-1.200 F100
G01 X89.235 Y86.740 F100
G01 Z-1.200 F100
G01 X89.303 Y86.587 F100
G01 Z-1.200 F100
G01 X89.363 Y86.431 F100
G01 Z-1.200 F100
G01 X89.416 Y86.272 F100
G01 Z-1.200 F100
G01 X89.461 Y86.111 F100
G01 Z-1.200 F100
G01 X89.497 Y85.947 F100
G01 Z-1.200 F100
G01 X89.504 Y85.906 F100
G01 Z-1.200 F100
G01 X87.738 Y84.226 F100
G01 Z-1.200 F100
G01 X87.738 Y88.301 F100
G01 Z-1.200 F100
G01 X87.759 Y88.291 F100
G01 Z-1.200 F100
G01 X87.905 Y88.208 F100
G01 Z-1.200 F100
G01 X88.046 Y88.119 F100
G01 Z-1.200 F100
G01 X88.183 Y88.022 F100
G01 Z-1.200 F100
G01 X88.315 Y87.919 F100
G01 Z-1.200 F100
G01 X88.442 Y87.810 F100
G01 Z-1.200 F100
G01 X88.563 Y87.694 F100
G01 Z-1.200 F100
G01 X88.679 Y87.573 F100
G01 Z-1.200 F100
G01 X88.788 Y87.446 F100
G01 Z-1.200 F100
G01 X88.891 Y87.314 F100
G01 Z-1.200 F100
G01 X88.988 Y87.177 F100
G01 Z-1.200 F100
G01 X89.077 Y87.036 F100
G01 Z-1.200 F100
G01 X89.160 Y86.890 F100
G01 Z-1.200 F100
G01 X89.235 Y86.740 F100
G01 Z-1.200 F100
G01 X89.303 Y86.587 F100
G01 Z-1.200 F100
G01 X89.363 Y86.431 F100
G01 Z-1.200 F100
G01 X89.416 Y86.272 F100
G01 Z-1.200 F100
G01 X89.461 Y86.111 F100
G01 Z-1.200 F100
G01 X89.497 Y85.947 F100
G01 Z-1.200 F100
G01 X89.504 Y85.906 F100
G01 Z-1.200 F100
G01 X87.738 Y88.301 F100
G00 X87.738 Y88.301 Z10.000
G01 Z-1.400 F100
G01 X87.759 Y88.291 F100
G01 Z-1.400 F100
G01 X87.905 Y88.208 F100
G01 Z-1.400 F100
G01 X88.046 Y88.119 F100
G01 Z-1.400 F100
G01 X88.183 Y88.022 F100
G01 Z-1.400 F100
G01 X88.315 Y87.919 F100
G01 Z-1.400 F100
G01 X88.442 Y87.810 F100
G01 Z-1.400 F100
G01 X88.563 Y87.694 F100
G01 Z-1.400 F100
G01 X88.679 Y87.573 F100
G01 Z-1.400 F100
G01 X88.788 Y87.446 F100
G01 Z-1.400 F100
G01 X88.891 Y87.314 F100
G01 Z-1.400 F100
G01 X88.988 Y87.177 F100
G01 Z-1.400 F100
G01 X89.077 Y87.036 F100
G01 Z-1.400 F100
G01 X89.160 Y86.890 F100
G01 Z-1.400 F100
G01 X89.235 Y86.740 F100
G01 Z-1.400 F100
G01 X89.303 Y86.587 F100
G01 Z-1.400 F100
G01 X89.363 Y86.431 F100
G01 Z-1.400 F100
G01 X89.416 Y86.272 F100
G01 Z-1.400 F100
G01 X89.461 Y86.111 F100
G01 Z-1.400 F100
G01 X89.497 Y85.947 F100
G01 Z-1.400 F100
G01 X89.504 Y85.906 F100
G01 Z-1.400 F100
G01 X87.738 Y84.226 F100
G01 Z-1.400 F100
G01 X87.738 Y88.301 F100
G01 Z-1.400 F100
G01 X87.759 Y88.291 F100
G01 Z-1.400 F100
G01 X87.905 Y88.208 F100
G01 Z-1.400 F100
G01 X88.046 Y88.119 F100
G01 Z-1.400 F100
G01 X88.183 Y88.022 F100
G01 Z-1.400 F100
G01 X88.315 Y87.919 F100
G01 Z-1.400 F100
G01 X88.442 Y87.810 F100
G01 Z-1.400 F100
G01 X88.563 Y87.694 F100
G01 Z-1.400 F100
G01 X88.679 Y87.573 F100
G01 Z-1.400 F100
G01 X88.788 Y87.446 F100
G01 Z-1.400 F100
G01 X88.891 Y87.314 F100
G01 Z-1.400 F100
G01 X88.988 Y87.177 F100
G01 Z-1.400 F100
G01 X89.077 Y87.036 F100
G01 Z-1.400 F100
G01 X89.160 Y86.890 F100
G01 Z-1.400 F100
G01 X89.235 Y86.740 F100
G01 Z-1.400 F100
G01 X89.303 Y86.587 F100
G01 Z-1.400 F100
G01 X89.363 Y86.431 F100
G01 Z-1.400 F100
G01 X89.416 Y86.272 F100
G01 Z-1.400 F100
G01 X89.461 Y86.111 F100
G01 Z-1.400 F100
G01 X89.497 Y85.947 F100
G01 Z-1.400 F100
G01 X89.504 Y85.906 F100
G01 Z-1.400 F100
G01 X87.738 Y88.301 F100
G00 X87.738 Y88.301 Z10.000
G01 Z-1.500 F100
G01 X87.759 Y88.291 F100
G01 Z-1.500 F100
G01 X87.905 Y88.208 F100
G01 Z-1.500 F100
G01 X88.046 Y88.119 F100
G01 Z-1.500 F100
G01 X88.183 Y88.022 F100
G01 Z-1.500 F100
G01 X88.315 Y87.919 F100
G01 Z-1.500 F100
G01 X88.442 Y87.810 F100
G01 Z-1.500 F100
G01 X88.563 Y87.694 F100
G01 Z-1.500 F100
G01 X88.679 Y87.573 F100
G01 Z-1.500 F100
G01 X88.788 Y87.446 F100
G01 Z-1.500 F100
G01 X88.891 Y87.314 F100
G01 Z-1.500 F100
G01 X88.988 Y87.177 F100
G01 Z-1.500 F100
G01 X89.077 Y87.036 F100
G01 Z-1.500 F100
G01 X89.160 Y86.890 F100
G01 Z-1.500 F100
G01 X89.235 Y86.740 F100
G01 Z-1.500 F100
G01 X89.303 Y86.587 F100
G01 Z-1.500 F100
G01 X89.363 Y86.431 F100
G01 Z-1.500 F100
G01 X89.416 Y86.272 F100
G01 Z-1.500 F100
G01 X89.461 Y86.111 F100
G01 Z-1.500 F100
G01 X89.497 Y85.947 F100
G01 Z-1.500 F100
G01 X89.504 Y85.906 F100
G01 Z-1.500 F100
G01 X87.738 Y84.226 F100
G01 Z-1.500 F100
G01 X87.738 Y88.301 F100
G01 Z-1.500 F100
G01 X87.759 Y88.291 F100
G01 Z-1.500 F100
G01 X87.905 Y88.208 F100
G01 Z-1.500 F100
G01 X88.046 Y88.119 F100
G01 Z-1.500 F100
G01 X88.183 Y88.022 F100
G01 Z-1.500 F100
G01 X88.315 Y87.919 F100
G01 Z-1.500 F100
G01 X88.442 Y87.810 F100
G01 Z-1.500 F100
G01 X88.563 Y87.694 F100
G01 Z-1.500 F100
G01 X88.679 Y87.573 F100
G01 Z-1.500 F100
G01 X88.788 Y87.446 F100
G01 Z-1.500 F100
G01 X88.891 Y87.314 F100
G01 Z-1.500 F100
G01 X88.988 Y87.177 F100
G01 Z-1.500 F100
G01 X89.077 Y87.036 F100
G01 Z-1.500 F100
G01 X89.160 Y86.890 F100
G01 Z-1.500 F100
G01 X89.235 Y86.740 F100
G01 Z-1.500 F100
G01 X89.303 Y86.587 F100
G01 Z-1.500 F100
G01 X89.363 Y86.431 F100
G01 Z-1.500 F100
G01 X89.416 Y86.272 F100
G01 Z-1.500 F100
G01 X89.461 Y86.111 F100
G01 Z-1.500 F100
G01 X89.497 Y85.947 F100
G01 Z-1.500 F100
G01 X89.504 Y85.906 F100
G01 Z-1.500 F100
G01 X87.738 Y88.301 F100

M5          ; Spindle off
G00 Z10     ; Raise tool
G00 X0 Y0   ; Return to origin
M30         ; End program
