; Generated G-code from Designer tool
; Tool diameter: 3.175mm
; Cut depth: -0.200mm
; Feed rate: 100 mm/min
; Spindle speed: 3000 RPM
; Total path length: 20386.134mm

G90         ; Absolute positioning
G21         ; Millimeter units
G17         ; XY plane
M3 S3000      ; Spindle on at 3000 RPM


; Shape 1: ID=66, Type=Rectangle
; Name: Rectangle
; Operation: Profile
; Position: (10.240, 10.874) to (135.240, 135.874)
; Corner radius: 7.000mm
; Cut depth: 3.000mm, Step down: 0.200mm
G00 X17.240 Y10.874 Z10.000
G01 Z-0.200 F100
G01 X128.240 Y10.874 F100
G01 Z-0.200 F100
G03 X135.240 Y17.874 I0.000 J7.000 F100
G01 Z-0.200 F100
G01 X135.240 Y128.874 F100
G01 Z-0.200 F100
G03 X128.240 Y135.874 I-7.000 J0.000 F100
G01 Z-0.200 F100
G01 X17.240 Y135.874 F100
G01 Z-0.200 F100
G03 X10.240 Y128.874 I0.000 J-7.000 F100
G01 Z-0.200 F100
G01 X10.240 Y17.874 F100
G01 Z-0.200 F100
G03 X17.240 Y10.874 I7.000 J0.000 F100
G00 X0.000 Y0.000 Z10.000

; Shape 2: ID=1, Type=Path
; Name: Path
; Operation: Profile
; Path bounds: (69.090, 19.724) to (76.390, 27.024)
; Cut depth: 0.000mm, Step down: 0.000mm
G00 X17.240 Y10.874 Z10.000
G01 Z-0.400 F100
G01 X128.240 Y10.874 F100
G01 Z-0.400 F100
G03 X135.240 Y17.874 I0.000 J7.000 F100
G01 Z-0.400 F100
G01 X135.240 Y128.874 F100
G01 Z-0.400 F100
G03 X128.240 Y135.874 I-7.000 J0.000 F100
G01 Z-0.400 F100
G01 X17.240 Y135.874 F100
G01 Z-0.400 F100
G03 X10.240 Y128.874 I0.000 J-7.000 F100
G01 Z-0.400 F100
G01 X10.240 Y17.874 F100
G01 Z-0.400 F100
G03 X17.240 Y10.874 I7.000 J0.000 F100
G00 X0.000 Y0.000 Z10.000

; Shape 3: ID=2, Type=Path
; Name: Path
; Operation: Profile
; Path bounds: (66.590, 17.224) to (78.890, 29.524)
; Cut depth: 0.000mm, Step down: 0.000mm
G00 X17.240 Y10.874 Z10.000
G01 Z-0.600 F100
G01 X128.240 Y10.874 F100
G01 Z-0.600 F100
G03 X135.240 Y17.874 I0.000 J7.000 F100
G01 Z-0.600 F100
G01 X135.240 Y128.874 F100
G01 Z-0.600 F100
G03 X128.240 Y135.874 I-7.000 J0.000 F100
G01 Z-0.600 F100
G01 X17.240 Y135.874 F100
G01 Z-0.600 F100
G03 X10.240 Y128.874 I0.000 J-7.000 F100
G01 Z-0.600 F100
G01 X10.240 Y17.874 F100
G01 Z-0.600 F100
G03 X17.240 Y10.874 I7.000 J0.000 F100
G00 X0.000 Y0.000 Z10.000

; Shape 4: ID=3, Type=Path
; Name: Path
; Operation: Profile
; Path bounds: (119.590, 19.724) to (126.890, 27.024)
; Cut depth: 0.000mm, Step down: 0.000mm
G00 X17.240 Y10.874 Z10.000
G01 Z-0.800 F100
G01 X128.240 Y10.874 F100
G01 Z-0.800 F100
G03 X135.240 Y17.874 I0.000 J7.000 F100
G01 Z-0.800 F100
G01 X135.240 Y128.874 F100
G01 Z-0.800 F100
G03 X128.240 Y135.874 I-7.000 J0.000 F100
G01 Z-0.800 F100
G01 X17.240 Y135.874 F100
G01 Z-0.800 F100
G03 X10.240 Y128.874 I0.000 J-7.000 F100
G01 Z-0.800 F100
G01 X10.240 Y17.874 F100
G01 Z-0.800 F100
G03 X17.240 Y10.874 I7.000 J0.000 F100
G00 X0.000 Y0.000 Z10.000

; Shape 5: ID=4, Type=Path
; Name: Path
; Operation: Profile
; Path bounds: (117.090, 17.224) to (129.390, 29.524)
; Cut depth: 0.000mm, Step down: 0.000mm
G00 X17.240 Y10.874 Z10.000
G01 Z-1.000 F100
G01 X128.240 Y10.874 F100
G01 Z-1.000 F100
G03 X135.240 Y17.874 I0.000 J7.000 F100
G01 Z-1.000 F100
G01 X135.240 Y128.874 F100
G01 Z-1.000 F100
G03 X128.240 Y135.874 I-7.000 J0.000 F100
G01 Z-1.000 F100
G01 X17.240 Y135.874 F100
G01 Z-1.000 F100
G03 X10.240 Y128.874 I0.000 J-7.000 F100
G01 Z-1.000 F100
G01 X10.240 Y17.874 F100
G01 Z-1.000 F100
G03 X17.240 Y10.874 I7.000 J0.000 F100
G00 X0.000 Y0.000 Z10.000

; Shape 6: ID=5, Type=Path
; Name: Path
; Operation: Profile
; Path bounds: (18.590, 19.724) to (25.890, 27.024)
; Cut depth: 0.000mm, Step down: 0.000mm
G00 X17.240 Y10.874 Z10.000
G01 Z-1.200 F100
G01 X128.240 Y10.874 F100
G01 Z-1.200 F100
G03 X135.240 Y17.874 I0.000 J7.000 F100
G01 Z-1.200 F100
G01 X135.240 Y128.874 F100
G01 Z-1.200 F100
G03 X128.240 Y135.874 I-7.000 J0.000 F100
G01 Z-1.200 F100
G01 X17.240 Y135.874 F100
G01 Z-1.200 F100
G03 X10.240 Y128.874 I0.000 J-7.000 F100
G01 Z-1.200 F100
G01 X10.240 Y17.874 F100
G01 Z-1.200 F100
G03 X17.240 Y10.874 I7.000 J0.000 F100
G00 X0.000 Y0.000 Z10.000

; Shape 7: ID=6, Type=Path
; Name: Path
; Operation: Profile
; Path bounds: (16.090, 17.224) to (28.390, 29.524)
; Cut depth: 0.000mm, Step down: 0.000mm
G00 X17.240 Y10.874 Z10.000
G01 Z-1.400 F100
G01 X128.240 Y10.874 F100
G01 Z-1.400 F100
G03 X135.240 Y17.874 I0.000 J7.000 F100
G01 Z-1.400 F100
G01 X135.240 Y128.874 F100
G01 Z-1.400 F100
G03 X128.240 Y135.874 I-7.000 J0.000 F100
G01 Z-1.400 F100
G01 X17.240 Y135.874 F100
G01 Z-1.400 F100
G03 X10.240 Y128.874 I0.000 J-7.000 F100
G01 Z-1.400 F100
G01 X10.240 Y17.874 F100
G01 Z-1.400 F100
G03 X17.240 Y10.874 I7.000 J0.000 F100
G00 X0.000 Y0.000 Z10.000

; Shape 8: ID=7, Type=Path
; Name: Path
; Operation: Profile
; Path bounds: (19.640, 120.774) to (24.840, 125.974)
; Cut depth: 0.000mm, Step down: 0.000mm
G00 X17.240 Y10.874 Z10.000
G01 Z-1.600 F100
G01 X128.240 Y10.874 F100
G01 Z-1.600 F100
G03 X135.240 Y17.874 I0.000 J7.000 F100
G01 Z-1.600 F100
G01 X135.240 Y128.874 F100
G01 Z-1.600 F100
G03 X128.240 Y135.874 I-7.000 J0.000 F100
G01 Z-1.600 F100
G01 X17.240 Y135.874 F100
G01 Z-1.600 F100
G03 X10.240 Y128.874 I0.000 J-7.000 F100
G01 Z-1.600 F100
G01 X10.240 Y17.874 F100
G01 Z-1.600 F100
G03 X17.240 Y10.874 I7.000 J0.000 F100
G00 X0.000 Y0.000 Z10.000

; Shape 9: ID=8, Type=Path
; Name: Path
; Operation: Profile
; Path bounds: (17.640, 118.774) to (26.840, 127.974)
; Cut depth: 0.000mm, Step down: 0.000mm
G00 X17.240 Y10.874 Z10.000
G01 Z-1.800 F100
G01 X128.240 Y10.874 F100
G01 Z-1.800 F100
G03 X135.240 Y17.874 I0.000 J7.000 F100
G01 Z-1.800 F100
G01 X135.240 Y128.874 F100
G01 Z-1.800 F100
G03 X128.240 Y135.874 I-7.000 J0.000 F100
G01 Z-1.800 F100
G01 X17.240 Y135.874 F100
G01 Z-1.800 F100
G03 X10.240 Y128.874 I0.000 J-7.000 F100
G01 Z-1.800 F100
G01 X10.240 Y17.874 F100
G01 Z-1.800 F100
G03 X17.240 Y10.874 I7.000 J0.000 F100
G00 X0.000 Y0.000 Z10.000

; Shape 10: ID=9, Type=Path
; Name: Path
; Operation: Profile
; Path bounds: (70.140, 120.774) to (75.340, 125.974)
; Cut depth: 0.000mm, Step down: 0.000mm
G00 X17.240 Y10.874 Z10.000
G01 Z-2.000 F100
G01 X128.240 Y10.874 F100
G01 Z-2.000 F100
G03 X135.240 Y17.874 I0.000 J7.000 F100
G01 Z-2.000 F100
G01 X135.240 Y128.874 F100
G01 Z-2.000 F100
G03 X128.240 Y135.874 I-7.000 J0.000 F100
G01 Z-2.000 F100
G01 X17.240 Y135.874 F100
G01 Z-2.000 F100
G03 X10.240 Y128.874 I0.000 J-7.000 F100
G01 Z-2.000 F100
G01 X10.240 Y17.874 F100
G01 Z-2.000 F100
G03 X17.240 Y10.874 I7.000 J0.000 F100
G00 X0.000 Y0.000 Z10.000

; Shape 11: ID=10, Type=Path
; Name: Path
; Operation: Profile
; Path bounds: (68.140, 118.774) to (77.340, 127.974)
; Cut depth: 0.000mm, Step down: 0.000mm
G00 X17.240 Y10.874 Z10.000
G01 Z-2.200 F100
G01 X128.240 Y10.874 F100
G01 Z-2.200 F100
G03 X135.240 Y17.874 I0.000 J7.000 F100
G01 Z-2.200 F100
G01 X135.240 Y128.874 F100
G01 Z-2.200 F100
G03 X128.240 Y135.874 I-7.000 J0.000 F100
G01 Z-2.200 F100
G01 X17.240 Y135.874 F100
G01 Z-2.200 F100
G03 X10.240 Y128.874 I0.000 J-7.000 F100
G01 Z-2.200 F100
G01 X10.240 Y17.874 F100
G01 Z-2.200 F100
G03 X17.240 Y10.874 I7.000 J0.000 F100
G00 X0.000 Y0.000 Z10.000

; Shape 12: ID=11, Type=Path
; Name: Path
; Operation: Profile
; Path bounds: (120.640, 120.774) to (125.840, 125.974)
; Cut depth: 0.000mm, Step down: 0.000mm
G00 X17.240 Y10.874 Z10.000
G01 Z-2.400 F100
G01 X128.240 Y10.874 F100
G01 Z-2.400 F100
G03 X135.240 Y17.874 I0.000 J7.000 F100
G01 Z-2.400 F100
G01 X135.240 Y128.874 F100
G01 Z-2.400 F100
G03 X128.240 Y135.874 I-7.000 J0.000 F100
G01 Z-2.400 F100
G01 X17.240 Y135.874 F100
G01 Z-2.400 F100
G03 X10.240 Y128.874 I0.000 J-7.000 F100
G01 Z-2.400 F100
G01 X10.240 Y17.874 F100
G01 Z-2.400 F100
G03 X17.240 Y10.874 I7.000 J0.000 F100
G00 X0.000 Y0.000 Z10.000

; Shape 13: ID=12, Type=Path
; Name: Path
; Operation: Profile
; Path bounds: (118.640, 118.774) to (127.840, 127.974)
; Cut depth: 0.000mm, Step down: 0.000mm
G00 X17.240 Y10.874 Z10.000
G01 Z-2.600 F100
G01 X128.240 Y10.874 F100
G01 Z-2.600 F100
G03 X135.240 Y17.874 I0.000 J7.000 F100
G01 Z-2.600 F100
G01 X135.240 Y128.874 F100
G01 Z-2.600 F100
G03 X128.240 Y135.874 I-7.000 J0.000 F100
G01 Z-2.600 F100
G01 X17.240 Y135.874 F100
G01 Z-2.600 F100
G03 X10.240 Y128.874 I0.000 J-7.000 F100
G01 Z-2.600 F100
G01 X10.240 Y17.874 F100
G01 Z-2.600 F100
G03 X17.240 Y10.874 I7.000 J0.000 F100
G00 X0.000 Y0.000 Z10.000

; Shape 14: ID=21, Type=Path
; Name: Path
; Operation: Profile
; Path bounds: (80.140, 110.774) to (85.340, 115.974)
; Cut depth: 0.000mm, Step down: 0.000mm
G00 X17.240 Y10.874 Z10.000
G01 Z-2.800 F100
G01 X128.240 Y10.874 F100
G01 Z-2.800 F100
G03 X135.240 Y17.874 I0.000 J7.000 F100
G01 Z-2.800 F100
G01 X135.240 Y128.874 F100
G01 Z-2.800 F100
G03 X128.240 Y135.874 I-7.000 J0.000 F100
G01 Z-2.800 F100
G01 X17.240 Y135.874 F100
G01 Z-2.800 F100
G03 X10.240 Y128.874 I0.000 J-7.000 F100
G01 Z-2.800 F100
G01 X10.240 Y17.874 F100
G01 Z-2.800 F100
G03 X17.240 Y10.874 I7.000 J0.000 F100
G00 X0.000 Y0.000 Z10.000

; Shape 15: ID=22, Type=Path
; Name: Path
; Operation: Profile
; Path bounds: (70.140, 100.774) to (75.340, 105.974)
; Cut depth: 0.000mm, Step down: 0.000mm
G00 X17.240 Y10.874 Z10.000
G01 Z-3.000 F100
G01 X128.240 Y10.874 F100
G01 Z-3.000 F100
G03 X135.240 Y17.874 I0.000 J7.000 F100
G01 Z-3.000 F100
G01 X135.240 Y128.874 F100
G01 Z-3.000 F100
G03 X128.240 Y135.874 I-7.000 J0.000 F100
G01 Z-3.000 F100
G01 X17.240 Y135.874 F100
G01 Z-3.000 F100
G03 X10.240 Y128.874 I0.000 J-7.000 F100
G01 Z-3.000 F100
G01 X10.240 Y17.874 F100
G01 Z-3.000 F100
G03 X17.240 Y10.874 I7.000 J0.000 F100
G00 X0.000 Y0.000 Z10.000

; Shape 16: ID=23, Type=Path
; Name: Path
; Operation: Profile
; Path bounds: (60.140, 110.774) to (65.340, 115.974)
; Cut depth: 0.000mm, Step down: 0.000mm
G00 X69.090 Y23.374 Z10.000
G01 Z0.000 F100
G01 X69.221 Y24.339 F100
G01 Z0.000 F100
G01 X69.591 Y25.210 F100
G01 Z0.000 F100
G01 X70.164 Y25.949 F100
G01 Z0.000 F100
G01 X70.904 Y26.522 F100
G01 Z0.000 F100
G01 X71.774 Y26.892 F100
G01 Z0.000 F100
G01 X72.740 Y27.024 F100
G01 Z0.000 F100
G01 X73.706 Y26.892 F100
G01 Z0.000 F100
G01 X74.576 Y26.522 F100
G01 Z0.000 F100
G01 X75.316 Y25.949 F100
G01 Z0.000 F100
G01 X75.889 Y25.210 F100
G01 Z0.000 F100
G01 X76.259 Y24.339 F100
G01 Z0.000 F100
G01 X76.390 Y23.374 F100
G01 Z0.000 F100
G01 X76.259 Y22.408 F100
G01 Z0.000 F100
G01 X75.889 Y21.537 F100
G01 Z0.000 F100
G01 X75.316 Y20.798 F100
G01 Z0.000 F100
G01 X74.576 Y20.225 F100
G01 Z0.000 F100
G01 X73.706 Y19.855 F100
G01 Z0.000 F100
G01 X72.740 Y19.724 F100
G01 Z0.000 F100
G01 X71.774 Y19.855 F100
G01 Z0.000 F100
G01 X70.904 Y20.225 F100
G01 Z0.000 F100
G01 X70.164 Y20.798 F100
G01 Z0.000 F100
G01 X69.591 Y21.537 F100
G01 Z0.000 F100
G01 X69.221 Y22.408 F100
G01 Z0.000 F100
G01 X69.090 Y23.374 F100
G01 Z0.000 F100
G01 X69.090 Y23.374 F100
G00 X0.000 Y0.000 Z10.000

; Shape 17: ID=24, Type=Path
; Name: Path
; Operation: Profile
; Path bounds: (37.640, 110.774) to (42.840, 115.974)
; Cut depth: 0.000mm, Step down: 0.000mm
G00 X66.590 Y23.374 Z10.000
G01 Z0.000 F100
G01 X66.754 Y24.777 F100
G01 Z0.000 F100
G01 X67.219 Y26.068 F100
G01 Z0.000 F100
G01 X67.948 Y27.211 F100
G01 Z0.000 F100
G01 X68.903 Y28.165 F100
G01 Z0.000 F100
G01 X70.045 Y28.895 F100
G01 Z0.000 F100
G01 X71.337 Y29.360 F100
G01 Z0.000 F100
G01 X72.740 Y29.524 F100
G01 Z0.000 F100
G01 X74.143 Y29.360 F100
G01 Z0.000 F100
G01 X75.435 Y28.895 F100
G01 Z0.000 F100
G01 X76.577 Y28.165 F100
G01 Z0.000 F100
G01 X77.532 Y27.211 F100
G01 Z0.000 F100
G01 X78.261 Y26.068 F100
G01 Z0.000 F100
G01 X78.726 Y24.777 F100
G01 Z0.000 F100
G01 X78.890 Y23.374 F100
G01 Z0.000 F100
G01 X78.726 Y21.971 F100
G01 Z0.000 F100
G01 X78.261 Y20.679 F100
G01 Z0.000 F100
G01 X77.532 Y19.537 F100
G01 Z0.000 F100
G01 X76.577 Y18.582 F100
G01 Z0.000 F100
G01 X75.435 Y17.853 F100
G01 Z0.000 F100
G01 X74.143 Y17.387 F100
G01 Z0.000 F100
G01 X72.740 Y17.224 F100
G01 Z0.000 F100
G01 X71.337 Y17.387 F100
G01 Z0.000 F100
G01 X70.045 Y17.853 F100
G01 Z0.000 F100
G01 X68.903 Y18.582 F100
G01 Z0.000 F100
G01 X67.948 Y19.537 F100
G01 Z0.000 F100
G01 X67.219 Y20.679 F100
G01 Z0.000 F100
G01 X66.754 Y21.971 F100
G01 Z0.000 F100
G01 X66.590 Y23.374 F100
G01 Z0.000 F100
G01 X66.590 Y23.374 F100
G00 X0.000 Y0.000 Z10.000

; Shape 18: ID=25, Type=Path
; Name: Path
; Operation: Profile
; Path bounds: (40.140, 120.774) to (45.340, 125.974)
; Cut depth: 0.000mm, Step down: 0.000mm
G00 X119.590 Y23.374 Z10.000
G01 Z0.000 F100
G01 X119.721 Y24.339 F100
G01 Z0.000 F100
G01 X120.091 Y25.210 F100
G01 Z0.000 F100
G01 X120.664 Y25.949 F100
G01 Z0.000 F100
G01 X121.404 Y26.522 F100
G01 Z0.000 F100
G01 X122.274 Y26.892 F100
G01 Z0.000 F100
G01 X123.240 Y27.024 F100
G01 Z0.000 F100
G01 X124.206 Y26.892 F100
G01 Z0.000 F100
G01 X125.076 Y26.522 F100
G01 Z0.000 F100
G01 X125.816 Y25.949 F100
G01 Z0.000 F100
G01 X126.389 Y25.210 F100
G01 Z0.000 F100
G01 X126.759 Y24.339 F100
G01 Z0.000 F100
G01 X126.890 Y23.374 F100
G01 Z0.000 F100
G01 X126.759 Y22.408 F100
G01 Z0.000 F100
G01 X126.389 Y21.537 F100
G01 Z0.000 F100
G01 X125.816 Y20.798 F100
G01 Z0.000 F100
G01 X125.076 Y20.225 F100
G01 Z0.000 F100
G01 X124.206 Y19.855 F100
G01 Z0.000 F100
G01 X123.240 Y19.724 F100
G01 Z0.000 F100
G01 X122.274 Y19.855 F100
G01 Z0.000 F100
G01 X121.404 Y20.225 F100
G01 Z0.000 F100
G01 X120.664 Y20.798 F100
G01 Z0.000 F100
G01 X120.091 Y21.537 F100
G01 Z0.000 F100
G01 X119.721 Y22.408 F100
G01 Z0.000 F100
G01 X119.590 Y23.374 F100
G01 Z0.000 F100
G01 X119.590 Y23.374 F100
G00 X0.000 Y0.000 Z10.000

; Shape 19: ID=26, Type=Path
; Name: Path
; Operation: Profile
; Path bounds: (40.140, 100.774) to (45.340, 105.974)
; Cut depth: 0.000mm, Step down: 0.000mm
G00 X117.090 Y23.374 Z10.000
G01 Z0.000 F100
G01 X117.254 Y24.777 F100
G01 Z0.000 F100
G01 X117.719 Y26.068 F100
G01 Z0.000 F100
G01 X118.448 Y27.211 F100
G01 Z0.000 F100
G01 X119.403 Y28.165 F100
G01 Z0.000 F100
G01 X120.545 Y28.895 F100
G01 Z0.000 F100
G01 X121.837 Y29.360 F100
G01 Z0.000 F100
G01 X123.240 Y29.524 F100
G01 Z0.000 F100
G01 X124.643 Y29.360 F100
G01 Z0.000 F100
G01 X125.935 Y28.895 F100
G01 Z0.000 F100
G01 X127.077 Y28.165 F100
G01 Z0.000 F100
G01 X128.032 Y27.211 F100
G01 Z0.000 F100
G01 X128.761 Y26.068 F100
G01 Z0.000 F100
G01 X129.226 Y24.777 F100
G01 Z0.000 F100
G01 X129.390 Y23.374 F100
G01 Z0.000 F100
G01 X129.226 Y21.971 F100
G01 Z0.000 F100
G01 X128.761 Y20.679 F100
G01 Z0.000 F100
G01 X128.032 Y19.537 F100
G01 Z0.000 F100
G01 X127.077 Y18.582 F100
G01 Z0.000 F100
G01 X125.935 Y17.853 F100
G01 Z0.000 F100
G01 X124.643 Y17.387 F100
G01 Z0.000 F100
G01 X123.240 Y17.224 F100
G01 Z0.000 F100
G01 X121.837 Y17.387 F100
G01 Z0.000 F100
G01 X120.545 Y17.853 F100
G01 Z0.000 F100
G01 X119.403 Y18.582 F100
G01 Z0.000 F100
G01 X118.448 Y19.537 F100
G01 Z0.000 F100
G01 X117.719 Y20.679 F100
G01 Z0.000 F100
G01 X117.254 Y21.971 F100
G01 Z0.000 F100
G01 X117.090 Y23.374 F100
G01 Z0.000 F100
G01 X117.090 Y23.374 F100
G00 X0.000 Y0.000 Z10.000

; Shape 20: ID=27, Type=Path
; Name: Path
; Operation: Profile
; Path bounds: (40.140, 80.774) to (45.340, 85.974)
; Cut depth: 0.000mm, Step down: 0.000mm
G00 X18.590 Y23.374 Z10.000
G01 Z0.000 F100
G01 X18.721 Y24.339 F100
G01 Z0.000 F100
G01 X19.091 Y25.210 F100
G01 Z0.000 F100
G01 X19.664 Y25.949 F100
G01 Z0.000 F100
G01 X20.404 Y26.522 F100
G01 Z0.000 F100
G01 X21.274 Y26.892 F100
G01 Z0.000 F100
G01 X22.240 Y27.024 F100
G01 Z0.000 F100
G01 X23.206 Y26.892 F100
G01 Z0.000 F100
G01 X24.076 Y26.522 F100
G01 Z0.000 F100
G01 X24.816 Y25.949 F100
G01 Z0.000 F100
G01 X25.389 Y25.210 F100
G01 Z0.000 F100
G01 X25.759 Y24.339 F100
G01 Z0.000 F100
G01 X25.890 Y23.374 F100
G01 Z0.000 F100
G01 X25.759 Y22.408 F100
G01 Z0.000 F100
G01 X25.389 Y21.537 F100
G01 Z0.000 F100
G01 X24.816 Y20.798 F100
G01 Z0.000 F100
G01 X24.076 Y20.225 F100
G01 Z0.000 F100
G01 X23.206 Y19.855 F100
G01 Z0.000 F100
G01 X22.240 Y19.724 F100
G01 Z0.000 F100
G01 X21.274 Y19.855 F100
G01 Z0.000 F100
G01 X20.404 Y20.225 F100
G01 Z0.000 F100
G01 X19.664 Y20.798 F100
G01 Z0.000 F100
G01 X19.091 Y21.537 F100
G01 Z0.000 F100
G01 X18.721 Y22.408 F100
G01 Z0.000 F100
G01 X18.590 Y23.374 F100
G01 Z0.000 F100
G01 X18.590 Y23.374 F100
G00 X0.000 Y0.000 Z10.000

; Shape 21: ID=28, Type=Path
; Name: Path
; Operation: Profile
; Path bounds: (40.140, 70.774) to (45.340, 75.974)
; Cut depth: 0.000mm, Step down: 0.000mm
G00 X16.090 Y23.374 Z10.000
G01 Z0.000 F100
G01 X16.254 Y24.777 F100
G01 Z0.000 F100
G01 X16.719 Y26.068 F100
G01 Z0.000 F100
G01 X17.448 Y27.211 F100
G01 Z0.000 F100
G01 X18.403 Y28.165 F100
G01 Z0.000 F100
G01 X19.545 Y28.895 F100
G01 Z0.000 F100
G01 X20.837 Y29.360 F100
G01 Z0.000 F100
G01 X22.240 Y29.524 F100
G01 Z0.000 F100
G01 X23.643 Y29.360 F100
G01 Z0.000 F100
G01 X24.935 Y28.895 F100
G01 Z0.000 F100
G01 X26.077 Y28.165 F100
G01 Z0.000 F100
G01 X27.032 Y27.211 F100
G01 Z0.000 F100
G01 X27.761 Y26.068 F100
G01 Z0.000 F100
G01 X28.226 Y24.777 F100
G01 Z0.000 F100
G01 X28.390 Y23.374 F100
G01 Z0.000 F100
G01 X28.226 Y21.971 F100
G01 Z0.000 F100
G01 X27.761 Y20.679 F100
G01 Z0.000 F100
G01 X27.032 Y19.537 F100
G01 Z0.000 F100
G01 X26.077 Y18.582 F100
G01 Z0.000 F100
G01 X24.935 Y17.853 F100
G01 Z0.000 F100
G01 X23.643 Y17.387 F100
G01 Z0.000 F100
G01 X22.240 Y17.224 F100
G01 Z0.000 F100
G01 X20.837 Y17.387 F100
G01 Z0.000 F100
G01 X19.545 Y17.853 F100
G01 Z0.000 F100
G01 X18.403 Y18.582 F100
G01 Z0.000 F100
G01 X17.448 Y19.537 F100
G01 Z0.000 F100
G01 X16.719 Y20.679 F100
G01 Z0.000 F100
G01 X16.254 Y21.971 F100
G01 Z0.000 F100
G01 X16.090 Y23.374 F100
G01 Z0.000 F100
G01 X16.090 Y23.374 F100
G00 X0.000 Y0.000 Z10.000

; Shape 22: ID=29, Type=Path
; Name: Path
; Operation: Profile
; Path bounds: (40.140, 60.774) to (45.340, 65.974)
; Cut depth: 0.000mm, Step down: 0.000mm
G00 X19.640 Y123.374 Z10.000
G01 Z0.000 F100
G01 X19.774 Y124.192 F100
G01 Z0.000 F100
G01 X20.144 Y124.905 F100
G01 Z0.000 F100
G01 X20.709 Y125.469 F100
G01 Z0.000 F100
G01 X21.422 Y125.840 F100
G01 Z0.000 F100
G01 X22.240 Y125.974 F100
G01 Z0.000 F100
G01 X23.058 Y125.840 F100
G01 Z0.000 F100
G01 X23.771 Y125.469 F100
G01 Z0.000 F100
G01 X24.336 Y124.905 F100
G01 Z0.000 F100
G01 X24.707 Y124.192 F100
G01 Z0.000 F100
G01 X24.840 Y123.374 F100
G01 Z0.000 F100
G01 X24.707 Y122.555 F100
G01 Z0.000 F100
G01 X24.336 Y121.842 F100
G01 Z0.000 F100
G01 X23.771 Y121.278 F100
G01 Z0.000 F100
G01 X23.058 Y120.907 F100
G01 Z0.000 F100
G01 X22.240 Y120.774 F100
G01 Z0.000 F100
G01 X21.422 Y120.907 F100
G01 Z0.000 F100
G01 X20.709 Y121.278 F100
G01 Z0.000 F100
G01 X20.144 Y121.842 F100
G01 Z0.000 F100
G01 X19.774 Y122.555 F100
G01 Z0.000 F100
G01 X19.640 Y123.374 F100
G01 Z0.000 F100
G01 X19.640 Y123.374 F100
G00 X0.000 Y0.000 Z10.000

; Shape 23: ID=30, Type=Path
; Name: Path
; Operation: Profile
; Path bounds: (37.640, 30.774) to (42.840, 35.974)
; Cut depth: 0.000mm, Step down: 0.000mm
G00 X17.640 Y123.374 Z10.000
G01 Z0.000 F100
G01 X17.806 Y124.591 F100
G01 Z0.000 F100
G01 X18.272 Y125.688 F100
G01 Z0.000 F100
G01 X18.994 Y126.620 F100
G01 Z0.000 F100
G01 X19.926 Y127.342 F100
G01 Z0.000 F100
G01 X21.023 Y127.808 F100
G01 Z0.000 F100
G01 X22.240 Y127.974 F100
G01 Z0.000 F100
G01 X23.457 Y127.808 F100
G01 Z0.000 F100
G01 X24.554 Y127.342 F100
G01 Z0.000 F100
G01 X25.486 Y126.620 F100
G01 Z0.000 F100
G01 X26.208 Y125.688 F100
G01 Z0.000 F100
G01 X26.675 Y124.591 F100
G01 Z0.000 F100
G01 X26.840 Y123.374 F100
G01 Z0.000 F100
G01 X26.675 Y122.157 F100
G01 Z0.000 F100
G01 X26.208 Y121.059 F100
G01 Z0.000 F100
G01 X25.486 Y120.127 F100
G01 Z0.000 F100
G01 X24.554 Y119.405 F100
G01 Z0.000 F100
G01 X23.457 Y118.939 F100
G01 Z0.000 F100
G01 X22.240 Y118.774 F100
G01 Z0.000 F100
G01 X21.023 Y118.939 F100
G01 Z0.000 F100
G01 X19.926 Y119.405 F100
G01 Z0.000 F100
G01 X18.994 Y120.127 F100
G01 Z0.000 F100
G01 X18.272 Y121.059 F100
G01 Z0.000 F100
G01 X17.806 Y122.157 F100
G01 Z0.000 F100
G01 X17.640 Y123.374 F100
G01 Z0.000 F100
G01 X17.640 Y123.374 F100
G00 X0.000 Y0.000 Z10.000

; Shape 24: ID=31, Type=Path
; Name: Path
; Operation: Profile
; Path bounds: (40.140, 40.774) to (45.340, 45.974)
; Cut depth: 0.000mm, Step down: 0.000mm
G00 X70.140 Y123.374 Z10.000
G01 Z0.000 F100
G01 X70.273 Y124.192 F100
G01 Z0.000 F100
G01 X70.644 Y124.905 F100
G01 Z0.000 F100
G01 X71.209 Y125.469 F100
G01 Z0.000 F100
G01 X71.922 Y125.840 F100
G01 Z0.000 F100
G01 X72.740 Y125.974 F100
G01 Z0.000 F100
G01 X73.558 Y125.840 F100
G01 Z0.000 F100
G01 X74.271 Y125.469 F100
G01 Z0.000 F100
G01 X74.836 Y124.905 F100
G01 Z0.000 F100
G01 X75.207 Y124.192 F100
G01 Z0.000 F100
G01 X75.340 Y123.374 F100
G01 Z0.000 F100
G01 X75.207 Y122.555 F100
G01 Z0.000 F100
G01 X74.836 Y121.842 F100
G01 Z0.000 F100
G01 X74.271 Y121.278 F100
G01 Z0.000 F100
G01 X73.558 Y120.907 F100
G01 Z0.000 F100
G01 X72.740 Y120.774 F100
G01 Z0.000 F100
G01 X71.922 Y120.907 F100
G01 Z0.000 F100
G01 X71.209 Y121.278 F100
G01 Z0.000 F100
G01 X70.644 Y121.842 F100
G01 Z0.000 F100
G01 X70.273 Y122.555 F100
G01 Z0.000 F100
G01 X70.140 Y123.374 F100
G01 Z0.000 F100
G01 X70.140 Y123.374 F100
G00 X0.000 Y0.000 Z10.000

; Shape 25: ID=32, Type=Path
; Name: Path
; Operation: Profile
; Path bounds: (40.140, 20.774) to (45.340, 25.974)
; Cut depth: 0.000mm, Step down: 0.000mm
G00 X68.140 Y123.374 Z10.000
G01 Z0.000 F100
G01 X68.305 Y124.591 F100
G01 Z0.000 F100
G01 X68.772 Y125.688 F100
G01 Z0.000 F100
G01 X69.494 Y126.620 F100
G01 Z0.000 F100
G01 X70.426 Y127.342 F100
G01 Z0.000 F100
G01 X71.523 Y127.808 F100
G01 Z0.000 F100
G01 X72.740 Y127.974 F100
G01 Z0.000 F100
G01 X73.957 Y127.808 F100
G01 Z0.000 F100
G01 X75.054 Y127.342 F100
G01 Z0.000 F100
G01 X75.986 Y126.620 F100
G01 Z0.000 F100
G01 X76.708 Y125.688 F100
G01 Z0.000 F100
G01 X77.175 Y124.591 F100
G01 Z0.000 F100
G01 X77.340 Y123.374 F100
G01 Z0.000 F100
G01 X77.175 Y122.157 F100
G01 Z0.000 F100
G01 X76.708 Y121.059 F100
G01 Z0.000 F100
G01 X75.986 Y120.127 F100
G01 Z0.000 F100
G01 X75.054 Y119.405 F100
G01 Z0.000 F100
G01 X73.957 Y118.939 F100
G01 Z0.000 F100
G01 X72.740 Y118.774 F100
G01 Z0.000 F100
G01 X71.523 Y118.939 F100
G01 Z0.000 F100
G01 X70.426 Y119.405 F100
G01 Z0.000 F100
G01 X69.494 Y120.127 F100
G01 Z0.000 F100
G01 X68.772 Y121.059 F100
G01 Z0.000 F100
G01 X68.306 Y122.157 F100
G01 Z0.000 F100
G01 X68.140 Y123.374 F100
G01 Z0.000 F100
G01 X68.140 Y123.374 F100
G00 X0.000 Y0.000 Z10.000

; Shape 26: ID=33, Type=Path
; Name: Path
; Operation: Profile
; Path bounds: (60.140, 30.774) to (65.340, 35.974)
; Cut depth: 0.000mm, Step down: 0.000mm
G00 X120.640 Y123.374 Z10.000
G01 Z0.000 F100
G01 X120.774 Y124.192 F100
G01 Z0.000 F100
G01 X121.144 Y124.905 F100
G01 Z0.000 F100
G01 X121.709 Y125.469 F100
G01 Z0.000 F100
G01 X122.422 Y125.840 F100
G01 Z0.000 F100
G01 X123.240 Y125.974 F100
G01 Z0.000 F100
G01 X124.058 Y125.840 F100
G01 Z0.000 F100
G01 X124.771 Y125.469 F100
G01 Z0.000 F100
G01 X125.336 Y124.905 F100
G01 Z0.000 F100
G01 X125.707 Y124.192 F100
G01 Z0.000 F100
G01 X125.840 Y123.374 F100
G01 Z0.000 F100
G01 X125.707 Y122.555 F100
G01 Z0.000 F100
G01 X125.336 Y121.842 F100
G01 Z0.000 F100
G01 X124.771 Y121.278 F100
G01 Z0.000 F100
G01 X124.058 Y120.907 F100
G01 Z0.000 F100
G01 X123.240 Y120.774 F100
G01 Z0.000 F100
G01 X122.422 Y120.907 F100
G01 Z0.000 F100
G01 X121.709 Y121.278 F100
G01 Z0.000 F100
G01 X121.144 Y121.842 F100
G01 Z0.000 F100
G01 X120.774 Y122.555 F100
G01 Z0.000 F100
G01 X120.640 Y123.374 F100
G01 Z0.000 F100
G01 X120.640 Y123.374 F100
G00 X0.000 Y0.000 Z10.000

; Shape 27: ID=34, Type=Path
; Name: Path
; Operation: Profile
; Path bounds: (70.140, 40.774) to (75.340, 45.974)
; Cut depth: 0.000mm, Step down: 0.000mm
G00 X118.640 Y123.374 Z10.000
G01 Z0.000 F100
G01 X118.806 Y124.591 F100
G01 Z0.000 F100
G01 X119.272 Y125.688 F100
G01 Z0.000 F100
G01 X119.994 Y126.620 F100
G01 Z0.000 F100
G01 X120.926 Y127.342 F100
G01 Z0.000 F100
G01 X122.023 Y127.808 F100
G01 Z0.000 F100
G01 X123.240 Y127.974 F100
G01 Z0.000 F100
G01 X124.457 Y127.808 F100
G01 Z0.000 F100
G01 X125.554 Y127.342 F100
G01 Z0.000 F100
G01 X126.486 Y126.620 F100
G01 Z0.000 F100
G01 X127.208 Y125.688 F100
G01 Z0.000 F100
G01 X127.675 Y124.591 F100
G01 Z0.000 F100
G01 X127.840 Y123.374 F100
G01 Z0.000 F100
G01 X127.675 Y122.157 F100
G01 Z0.000 F100
G01 X127.208 Y121.059 F100
G01 Z0.000 F100
G01 X126.486 Y120.127 F100
G01 Z0.000 F100
G01 X125.554 Y119.405 F100
G01 Z0.000 F100
G01 X124.457 Y118.939 F100
G01 Z0.000 F100
G01 X123.240 Y118.774 F100
G01 Z0.000 F100
G01 X122.023 Y118.939 F100
G01 Z0.000 F100
G01 X120.926 Y119.405 F100
G01 Z0.000 F100
G01 X119.994 Y120.127 F100
G01 Z0.000 F100
G01 X119.272 Y121.059 F100
G01 Z0.000 F100
G01 X118.806 Y122.157 F100
G01 Z0.000 F100
G01 X118.640 Y123.374 F100
G01 Z0.000 F100
G01 X118.640 Y123.374 F100
G00 X0.000 Y0.000 Z10.000

; Shape 28: ID=35, Type=Path
; Name: Path
; Operation: Profile
; Path bounds: (80.140, 30.774) to (85.340, 35.974)
; Cut depth: 0.000mm, Step down: 0.000mm
G00 X80.140 Y113.374 Z10.000
G01 Z0.000 F100
G01 X80.273 Y114.192 F100
G01 Z0.000 F100
G01 X80.644 Y114.905 F100
G01 Z0.000 F100
G01 X81.209 Y115.469 F100
G01 Z0.000 F100
G01 X81.922 Y115.840 F100
G01 Z0.000 F100
G01 X82.740 Y115.974 F100
G01 Z0.000 F100
G01 X83.558 Y115.840 F100
G01 Z0.000 F100
G01 X84.271 Y115.469 F100
G01 Z0.000 F100
G01 X84.836 Y114.905 F100
G01 Z0.000 F100
G01 X85.207 Y114.192 F100
G01 Z0.000 F100
G01 X85.340 Y113.374 F100
G01 Z0.000 F100
G01 X85.207 Y112.556 F100
G01 Z0.000 F100
G01 X84.836 Y111.842 F100
G01 Z0.000 F100
G01 X84.271 Y111.278 F100
G01 Z0.000 F100
G01 X83.558 Y110.907 F100
G01 Z0.000 F100
G01 X82.740 Y110.774 F100
G01 Z0.000 F100
G01 X81.922 Y110.907 F100
G01 Z0.000 F100
G01 X81.209 Y111.278 F100
G01 Z0.000 F100
G01 X80.644 Y111.842 F100
G01 Z0.000 F100
G01 X80.273 Y112.556 F100
G01 Z0.000 F100
G01 X80.140 Y113.374 F100
G01 Z0.000 F100
G01 X80.140 Y113.374 F100
G00 X0.000 Y0.000 Z10.000

; Shape 29: ID=36, Type=Path
; Name: Path
; Operation: Profile
; Path bounds: (100.140, 20.774) to (105.340, 25.974)
; Cut depth: 0.000mm, Step down: 0.000mm
G00 X70.140 Y103.374 Z10.000
G01 Z0.000 F100
G01 X70.273 Y104.192 F100
G01 Z0.000 F100
G01 X70.644 Y104.905 F100
G01 Z0.000 F100
G01 X71.209 Y105.469 F100
G01 Z0.000 F100
G01 X71.922 Y105.840 F100
G01 Z0.000 F100
G01 X72.740 Y105.974 F100
G01 Z0.000 F100
G01 X73.558 Y105.840 F100
G01 Z0.000 F100
G01 X74.271 Y105.469 F100
G01 Z0.000 F100
G01 X74.836 Y104.905 F100
G01 Z0.000 F100
G01 X75.207 Y104.192 F100
G01 Z0.000 F100
G01 X75.340 Y103.374 F100
G01 Z0.000 F100
G01 X75.207 Y102.555 F100
G01 Z0.000 F100
G01 X74.836 Y101.842 F100
G01 Z0.000 F100
G01 X74.271 Y101.278 F100
G01 Z0.000 F100
G01 X73.558 Y100.907 F100
G01 Z0.000 F100
G01 X72.740 Y100.774 F100
G01 Z0.000 F100
G01 X71.922 Y100.907 F100
G01 Z0.000 F100
G01 X71.209 Y101.278 F100
G01 Z0.000 F100
G01 X70.644 Y101.842 F100
G01 Z0.000 F100
G01 X70.273 Y102.555 F100
G01 Z0.000 F100
G01 X70.140 Y103.374 F100
G01 Z0.000 F100
G01 X70.140 Y103.374 F100
G00 X0.000 Y0.000 Z10.000

; Shape 30: ID=37, Type=Path
; Name: Path
; Operation: Profile
; Path bounds: (102.640, 30.774) to (107.840, 35.974)
; Cut depth: 0.000mm, Step down: 0.000mm
G00 X60.140 Y113.374 Z10.000
G01 Z0.000 F100
G01 X60.273 Y114.192 F100
G01 Z0.000 F100
G01 X60.644 Y114.905 F100
G01 Z0.000 F100
G01 X61.209 Y115.469 F100
G01 Z0.000 F100
G01 X61.922 Y115.840 F100
G01 Z0.000 F100
G01 X62.740 Y115.974 F100
G01 Z0.000 F100
G01 X63.558 Y115.840 F100
G01 Z0.000 F100
G01 X64.271 Y115.469 F100
G01 Z0.000 F100
G01 X64.836 Y114.905 F100
G01 Z0.000 F100
G01 X65.207 Y114.192 F100
G01 Z0.000 F100
G01 X65.340 Y113.374 F100
G01 Z0.000 F100
G01 X65.207 Y112.556 F100
G01 Z0.000 F100
G01 X64.836 Y111.842 F100
G01 Z0.000 F100
G01 X64.271 Y111.278 F100
G01 Z0.000 F100
G01 X63.558 Y110.907 F100
G01 Z0.000 F100
G01 X62.740 Y110.774 F100
G01 Z0.000 F100
G01 X61.922 Y110.907 F100
G01 Z0.000 F100
G01 X61.209 Y111.278 F100
G01 Z0.000 F100
G01 X60.644 Y111.842 F100
G01 Z0.000 F100
G01 X60.273 Y112.556 F100
G01 Z0.000 F100
G01 X60.140 Y113.374 F100
G01 Z0.000 F100
G01 X60.140 Y113.374 F100
G00 X0.000 Y0.000 Z10.000

; Shape 31: ID=38, Type=Path
; Name: Path
; Operation: Profile
; Path bounds: (100.140, 40.774) to (105.340, 45.974)
; Cut depth: 0.000mm, Step down: 0.000mm
G00 X37.640 Y113.374 Z10.000
G01 Z0.000 F100
G01 X37.774 Y114.192 F100
G01 Z0.000 F100
G01 X38.145 Y114.905 F100
G01 Z0.000 F100
G01 X38.709 Y115.469 F100
G01 Z0.000 F100
G01 X39.422 Y115.840 F100
G01 Z0.000 F100
G01 X40.240 Y115.974 F100
G01 Z0.000 F100
G01 X41.058 Y115.840 F100
G01 Z0.000 F100
G01 X41.771 Y115.469 F100
G01 Z0.000 F100
G01 X42.336 Y114.905 F100
G01 Z0.000 F100
G01 X42.707 Y114.192 F100
G01 Z0.000 F100
G01 X42.840 Y113.374 F100
G01 Z0.000 F100
G01 X42.707 Y112.556 F100
G01 Z0.000 F100
G01 X42.336 Y111.842 F100
G01 Z0.000 F100
G01 X41.771 Y111.278 F100
G01 Z0.000 F100
G01 X41.058 Y110.907 F100
G01 Z0.000 F100
G01 X40.240 Y110.774 F100
G01 Z0.000 F100
G01 X39.422 Y110.907 F100
G01 Z0.000 F100
G01 X38.709 Y111.278 F100
G01 Z0.000 F100
G01 X38.145 Y111.842 F100
G01 Z0.000 F100
G01 X37.774 Y112.556 F100
G01 Z0.000 F100
G01 X37.640 Y113.374 F100
G01 Z0.000 F100
G01 X37.640 Y113.374 F100
G00 X0.000 Y0.000 Z10.000

; Shape 32: ID=39, Type=Path
; Name: Path
; Operation: Profile
; Path bounds: (100.140, 120.774) to (105.340, 125.974)
; Cut depth: 0.000mm, Step down: 0.000mm
G00 X40.140 Y123.374 Z10.000
G01 Z0.000 F100
G01 X40.274 Y124.192 F100
G01 Z0.000 F100
G01 X40.644 Y124.905 F100
G01 Z0.000 F100
G01 X41.209 Y125.469 F100
G01 Z0.000 F100
G01 X41.922 Y125.840 F100
G01 Z0.000 F100
G01 X42.740 Y125.974 F100
G01 Z0.000 F100
G01 X43.558 Y125.840 F100
G01 Z0.000 F100
G01 X44.271 Y125.469 F100
G01 Z0.000 F100
G01 X44.836 Y124.905 F100
G01 Z0.000 F100
G01 X45.207 Y124.192 F100
G01 Z0.000 F100
G01 X45.340 Y123.374 F100
G01 Z0.000 F100
G01 X45.207 Y122.555 F100
G01 Z0.000 F100
G01 X44.836 Y121.842 F100
G01 Z0.000 F100
G01 X44.271 Y121.278 F100
G01 Z0.000 F100
G01 X43.558 Y120.907 F100
G01 Z0.000 F100
G01 X42.740 Y120.774 F100
G01 Z0.000 F100
G01 X41.922 Y120.907 F100
G01 Z0.000 F100
G01 X41.209 Y121.278 F100
G01 Z0.000 F100
G01 X40.644 Y121.842 F100
G01 Z0.000 F100
G01 X40.274 Y122.555 F100
G01 Z0.000 F100
G01 X40.140 Y123.374 F100
G01 Z0.000 F100
G01 X40.140 Y123.374 F100
G00 X0.000 Y0.000 Z10.000

; Shape 33: ID=40, Type=Path
; Name: Path
; Operation: Profile
; Path bounds: (102.640, 110.774) to (107.840, 115.974)
; Cut depth: 0.000mm, Step down: 0.000mm
G00 X40.140 Y103.374 Z10.000
G01 Z0.000 F100
G01 X40.274 Y104.192 F100
G01 Z0.000 F100
G01 X40.644 Y104.905 F100
G01 Z0.000 F100
G01 X41.209 Y105.469 F100
G01 Z0.000 F100
G01 X41.922 Y105.840 F100
G01 Z0.000 F100
G01 X42.740 Y105.974 F100
G01 Z0.000 F100
G01 X43.558 Y105.840 F100
G01 Z0.000 F100
G01 X44.271 Y105.469 F100
G01 Z0.000 F100
G01 X44.836 Y104.905 F100
G01 Z0.000 F100
G01 X45.207 Y104.192 F100
G01 Z0.000 F100
G01 X45.340 Y103.374 F100
G01 Z0.000 F100
G01 X45.207 Y102.555 F100
G01 Z0.000 F100
G01 X44.836 Y101.842 F100
G01 Z0.000 F100
G01 X44.271 Y101.278 F100
G01 Z0.000 F100
G01 X43.558 Y100.907 F100
G01 Z0.000 F100
G01 X42.740 Y100.774 F100
G01 Z0.000 F100
G01 X41.922 Y100.907 F100
G01 Z0.000 F100
G01 X41.209 Y101.278 F100
G01 Z0.000 F100
G01 X40.644 Y101.842 F100
G01 Z0.000 F100
G01 X40.274 Y102.555 F100
G01 Z0.000 F100
G01 X40.140 Y103.374 F100
G01 Z0.000 F100
G01 X40.140 Y103.374 F100
G00 X0.000 Y0.000 Z10.000

; Shape 34: ID=41, Type=Path
; Name: Path
; Operation: Profile
; Path bounds: (100.140, 100.774) to (105.340, 105.974)
; Cut depth: 0.000mm, Step down: 0.000mm
G00 X40.140 Y83.374 Z10.000
G01 Z0.000 F100
G01 X40.274 Y84.192 F100
G01 Z0.000 F100
G01 X40.644 Y84.905 F100
G01 Z0.000 F100
G01 X41.209 Y85.469 F100
G01 Z0.000 F100
G01 X41.922 Y85.840 F100
G01 Z0.000 F100
G01 X42.740 Y85.974 F100
G01 Z0.000 F100
G01 X43.558 Y85.840 F100
G01 Z0.000 F100
G01 X44.271 Y85.469 F100
G01 Z0.000 F100
G01 X44.836 Y84.905 F100
G01 Z0.000 F100
G01 X45.207 Y84.192 F100
G01 Z0.000 F100
G01 X45.340 Y83.374 F100
G01 Z0.000 F100
G01 X45.207 Y82.556 F100
G01 Z0.000 F100
G01 X44.836 Y81.842 F100
G01 Z0.000 F100
G01 X44.271 Y81.278 F100
G01 Z0.000 F100
G01 X43.558 Y80.907 F100
G01 Z0.000 F100
G01 X42.740 Y80.774 F100
G01 Z0.000 F100
G01 X41.922 Y80.907 F100
G01 Z0.000 F100
G01 X41.209 Y81.278 F100
G01 Z0.000 F100
G01 X40.644 Y81.842 F100
G01 Z0.000 F100
G01 X40.274 Y82.555 F100
G01 Z0.000 F100
G01 X40.140 Y83.374 F100
G01 Z0.000 F100
G01 X40.140 Y83.374 F100
G00 X0.000 Y0.000 Z10.000

; Shape 35: ID=42, Type=Path
; Name: Path
; Operation: Profile
; Path bounds: (100.140, 80.774) to (105.340, 85.974)
; Cut depth: 0.000mm, Step down: 0.000mm
G00 X40.140 Y73.374 Z10.000
G01 Z0.000 F100
G01 X40.274 Y74.192 F100
G01 Z0.000 F100
G01 X40.644 Y74.905 F100
G01 Z0.000 F100
G01 X41.209 Y75.469 F100
G01 Z0.000 F100
G01 X41.922 Y75.840 F100
G01 Z0.000 F100
G01 X42.740 Y75.974 F100
G01 Z0.000 F100
G01 X43.558 Y75.840 F100
G01 Z0.000 F100
G01 X44.271 Y75.469 F100
G01 Z0.000 F100
G01 X44.836 Y74.905 F100
G01 Z0.000 F100
G01 X45.207 Y74.192 F100
G01 Z0.000 F100
G01 X45.340 Y73.374 F100
G01 Z0.000 F100
G01 X45.207 Y72.555 F100
G01 Z0.000 F100
G01 X44.836 Y71.842 F100
G01 Z0.000 F100
G01 X44.271 Y71.278 F100
G01 Z0.000 F100
G01 X43.558 Y70.907 F100
G01 Z0.000 F100
G01 X42.740 Y70.774 F100
G01 Z0.000 F100
G01 X41.922 Y70.907 F100
G01 Z0.000 F100
G01 X41.209 Y71.278 F100
G01 Z0.000 F100
G01 X40.644 Y71.842 F100
G01 Z0.000 F100
G01 X40.274 Y72.555 F100
G01 Z0.000 F100
G01 X40.140 Y73.374 F100
G01 Z0.000 F100
G01 X40.140 Y73.374 F100
G00 X0.000 Y0.000 Z10.000

; Shape 36: ID=43, Type=Path
; Name: Path
; Operation: Profile
; Path bounds: (100.140, 60.774) to (105.340, 65.974)
; Cut depth: 0.000mm, Step down: 0.000mm
G00 X40.140 Y63.374 Z10.000
G01 Z0.000 F100
G01 X40.274 Y64.192 F100
G01 Z0.000 F100
G01 X40.644 Y64.905 F100
G01 Z0.000 F100
G01 X41.209 Y65.469 F100
G01 Z0.000 F100
G01 X41.922 Y65.840 F100
G01 Z0.000 F100
G01 X42.740 Y65.974 F100
G01 Z0.000 F100
G01 X43.558 Y65.840 F100
G01 Z0.000 F100
G01 X44.271 Y65.469 F100
G01 Z0.000 F100
G01 X44.836 Y64.905 F100
G01 Z0.000 F100
G01 X45.207 Y64.192 F100
G01 Z0.000 F100
G01 X45.340 Y63.374 F100
G01 Z0.000 F100
G01 X45.207 Y62.556 F100
G01 Z0.000 F100
G01 X44.836 Y61.842 F100
G01 Z0.000 F100
G01 X44.271 Y61.278 F100
G01 Z0.000 F100
G01 X43.558 Y60.907 F100
G01 Z0.000 F100
G01 X42.740 Y60.774 F100
G01 Z0.000 F100
G01 X41.922 Y60.907 F100
G01 Z0.000 F100
G01 X41.209 Y61.278 F100
G01 Z0.000 F100
G01 X40.644 Y61.842 F100
G01 Z0.000 F100
G01 X40.274 Y62.556 F100
G01 Z0.000 F100
G01 X40.140 Y63.374 F100
G01 Z0.000 F100
G01 X40.140 Y63.374 F100
G00 X0.000 Y0.000 Z10.000

; Shape 37: ID=44, Type=Path
; Name: Path
; Operation: Profile
; Path bounds: (100.140, 70.774) to (105.340, 75.974)
; Cut depth: 0.000mm, Step down: 0.000mm
G00 X37.640 Y33.374 Z10.000
G01 Z0.000 F100
G01 X37.774 Y34.192 F100
G01 Z0.000 F100
G01 X38.145 Y34.905 F100
G01 Z0.000 F100
G01 X38.709 Y35.469 F100
G01 Z0.000 F100
G01 X39.422 Y35.840 F100
G01 Z0.000 F100
G01 X40.240 Y35.974 F100
G01 Z0.000 F100
G01 X41.058 Y35.840 F100
G01 Z0.000 F100
G01 X41.771 Y35.469 F100
G01 Z0.000 F100
G01 X42.336 Y34.905 F100
G01 Z0.000 F100
G01 X42.707 Y34.192 F100
G01 Z0.000 F100
G01 X42.840 Y33.374 F100
G01 Z0.000 F100
G01 X42.707 Y32.555 F100
G01 Z0.000 F100
G01 X42.336 Y31.842 F100
G01 Z0.000 F100
G01 X41.771 Y31.278 F100
G01 Z0.000 F100
G01 X41.058 Y30.907 F100
G01 Z0.000 F100
G01 X40.240 Y30.774 F100
G01 Z0.000 F100
G01 X39.422 Y30.907 F100
G01 Z0.000 F100
G01 X38.709 Y31.278 F100
G01 Z0.000 F100
G01 X38.145 Y31.842 F100
G01 Z0.000 F100
G01 X37.774 Y32.555 F100
G01 Z0.000 F100
G01 X37.640 Y33.374 F100
G01 Z0.000 F100
G01 X37.640 Y33.374 F100
G00 X0.000 Y0.000 Z10.000

; Shape 38: ID=45, Type=Path
; Name: Path
; Operation: Profile
; Path bounds: (20.173, 101.307) to (24.307, 105.441)
; Cut depth: 0.000mm, Step down: 0.000mm
G00 X40.140 Y43.374 Z10.000
G01 Z0.000 F100
G01 X40.274 Y44.192 F100
G01 Z0.000 F100
G01 X40.644 Y44.905 F100
G01 Z0.000 F100
G01 X41.209 Y45.469 F100
G01 Z0.000 F100
G01 X41.922 Y45.840 F100
G01 Z0.000 F100
G01 X42.740 Y45.974 F100
G01 Z0.000 F100
G01 X43.558 Y45.840 F100
G01 Z0.000 F100
G01 X44.271 Y45.469 F100
G01 Z0.000 F100
G01 X44.836 Y44.905 F100
G01 Z0.000 F100
G01 X45.207 Y44.192 F100
G01 Z0.000 F100
G01 X45.340 Y43.374 F100
G01 Z0.000 F100
G01 X45.207 Y42.556 F100
G01 Z0.000 F100
G01 X44.836 Y41.842 F100
G01 Z0.000 F100
G01 X44.271 Y41.278 F100
G01 Z0.000 F100
G01 X43.558 Y40.907 F100
G01 Z0.000 F100
G01 X42.740 Y40.774 F100
G01 Z0.000 F100
G01 X41.922 Y40.907 F100
G01 Z0.000 F100
G01 X41.209 Y41.278 F100
G01 Z0.000 F100
G01 X40.644 Y41.842 F100
G01 Z0.000 F100
G01 X40.274 Y42.556 F100
G01 Z0.000 F100
G01 X40.140 Y43.374 F100
G01 Z0.000 F100
G01 X40.140 Y43.374 F100
G00 X0.000 Y0.000 Z10.000

; Shape 39: ID=46, Type=Path
; Name: Path
; Operation: Profile
; Path bounds: (121.173, 41.307) to (125.307, 45.441)
; Cut depth: 0.000mm, Step down: 0.000mm
G00 X40.140 Y23.374 Z10.000
G01 Z0.000 F100
G01 X40.274 Y24.192 F100
G01 Z0.000 F100
G01 X40.644 Y24.905 F100
G01 Z0.000 F100
G01 X41.209 Y25.469 F100
G01 Z0.000 F100
G01 X41.922 Y25.840 F100
G01 Z0.000 F100
G01 X42.740 Y25.974 F100
G01 Z0.000 F100
G01 X43.558 Y25.840 F100
G01 Z0.000 F100
G01 X44.271 Y25.469 F100
G01 Z0.000 F100
G01 X44.836 Y24.905 F100
G01 Z0.000 F100
G01 X45.207 Y24.192 F100
G01 Z0.000 F100
G01 X45.340 Y23.374 F100
G01 Z0.000 F100
G01 X45.207 Y22.555 F100
G01 Z0.000 F100
G01 X44.836 Y21.842 F100
G01 Z0.000 F100
G01 X44.271 Y21.278 F100
G01 Z0.000 F100
G01 X43.558 Y20.907 F100
G01 Z0.000 F100
G01 X42.740 Y20.774 F100
G01 Z0.000 F100
G01 X41.922 Y20.907 F100
G01 Z0.000 F100
G01 X41.209 Y21.278 F100
G01 Z0.000 F100
G01 X40.644 Y21.842 F100
G01 Z0.000 F100
G01 X40.274 Y22.555 F100
G01 Z0.000 F100
G01 X40.140 Y23.374 F100
G01 Z0.000 F100
G01 X40.140 Y23.374 F100
G00 X0.000 Y0.000 Z10.000

; Shape 40: ID=47, Type=Path
; Name: Path
; Operation: Profile
; Path bounds: (121.173, 101.307) to (125.307, 105.441)
; Cut depth: 0.000mm, Step down: 0.000mm
G00 X60.140 Y33.374 Z10.000
G01 Z0.000 F100
G01 X60.273 Y34.192 F100
G01 Z0.000 F100
G01 X60.644 Y34.905 F100
G01 Z0.000 F100
G01 X61.209 Y35.469 F100
G01 Z0.000 F100
G01 X61.922 Y35.840 F100
G01 Z0.000 F100
G01 X62.740 Y35.974 F100
G01 Z0.000 F100
G01 X63.558 Y35.840 F100
G01 Z0.000 F100
G01 X64.271 Y35.469 F100
G01 Z0.000 F100
G01 X64.836 Y34.905 F100
G01 Z0.000 F100
G01 X65.207 Y34.192 F100
G01 Z0.000 F100
G01 X65.340 Y33.374 F100
G01 Z0.000 F100
G01 X65.207 Y32.555 F100
G01 Z0.000 F100
G01 X64.836 Y31.842 F100
G01 Z0.000 F100
G01 X64.271 Y31.278 F100
G01 Z0.000 F100
G01 X63.558 Y30.907 F100
G01 Z0.000 F100
G01 X62.740 Y30.774 F100
G01 Z0.000 F100
G01 X61.922 Y30.907 F100
G01 Z0.000 F100
G01 X61.209 Y31.278 F100
G01 Z0.000 F100
G01 X60.644 Y31.842 F100
G01 Z0.000 F100
G01 X60.273 Y32.555 F100
G01 Z0.000 F100
G01 X60.140 Y33.374 F100
G01 Z0.000 F100
G01 X60.140 Y33.374 F100
G00 X0.000 Y0.000 Z10.000

; Shape 41: ID=48, Type=Path
; Name: Path
; Operation: Profile
; Path bounds: (20.173, 41.307) to (24.307, 45.441)
; Cut depth: 0.000mm, Step down: 0.000mm
G00 X70.140 Y43.374 Z10.000
G01 Z0.000 F100
G01 X70.273 Y44.192 F100
G01 Z0.000 F100
G01 X70.644 Y44.905 F100
G01 Z0.000 F100
G01 X71.209 Y45.469 F100
G01 Z0.000 F100
G01 X71.922 Y45.840 F100
G01 Z0.000 F100
G01 X72.740 Y45.974 F100
G01 Z0.000 F100
G01 X73.558 Y45.840 F100
G01 Z0.000 F100
G01 X74.271 Y45.469 F100
G01 Z0.000 F100
G01 X74.836 Y44.905 F100
G01 Z0.000 F100
G01 X75.207 Y44.192 F100
G01 Z0.000 F100
G01 X75.340 Y43.374 F100
G01 Z0.000 F100
G01 X75.207 Y42.556 F100
G01 Z0.000 F100
G01 X74.836 Y41.842 F100
G01 Z0.000 F100
G01 X74.271 Y41.278 F100
G01 Z0.000 F100
G01 X73.558 Y40.907 F100
G01 Z0.000 F100
G01 X72.740 Y40.774 F100
G01 Z0.000 F100
G01 X71.922 Y40.907 F100
G01 Z0.000 F100
G01 X71.209 Y41.278 F100
G01 Z0.000 F100
G01 X70.644 Y41.842 F100
G01 Z0.000 F100
G01 X70.273 Y42.556 F100
G01 Z0.000 F100
G01 X70.140 Y43.374 F100
G01 Z0.000 F100
G01 X70.140 Y43.374 F100
G00 X0.000 Y0.000 Z10.000

; Shape 42: ID=49, Type=Path
; Name: Path
; Operation: Profile
; Path bounds: (19.741, 100.912) to (24.740, 105.873)
; Cut depth: 0.000mm, Step down: 0.000mm
G00 X80.140 Y33.374 Z10.000
G01 Z0.000 F100
G01 X80.273 Y34.192 F100
G01 Z0.000 F100
G01 X80.644 Y34.905 F100
G01 Z0.000 F100
G01 X81.209 Y35.469 F100
G01 Z0.000 F100
G01 X81.922 Y35.840 F100
G01 Z0.000 F100
G01 X82.740 Y35.974 F100
G01 Z0.000 F100
G01 X83.558 Y35.840 F100
G01 Z0.000 F100
G01 X84.271 Y35.469 F100
G01 Z0.000 F100
G01 X84.836 Y34.905 F100
G01 Z0.000 F100
G01 X85.207 Y34.192 F100
G01 Z0.000 F100
G01 X85.340 Y33.374 F100
G01 Z0.000 F100
G01 X85.207 Y32.555 F100
G01 Z0.000 F100
G01 X84.836 Y31.842 F100
G01 Z0.000 F100
G01 X84.271 Y31.278 F100
G01 Z0.000 F100
G01 X83.558 Y30.907 F100
G01 Z0.000 F100
G01 X82.740 Y30.774 F100
G01 Z0.000 F100
G01 X81.922 Y30.907 F100
G01 Z0.000 F100
G01 X81.209 Y31.278 F100
G01 Z0.000 F100
G01 X80.644 Y31.842 F100
G01 Z0.000 F100
G01 X80.273 Y32.555 F100
G01 Z0.000 F100
G01 X80.140 Y33.374 F100
G01 Z0.000 F100
G01 X80.140 Y33.374 F100
G00 X0.000 Y0.000 Z10.000

; Shape 43: ID=50, Type=Path
; Name: Path
; Operation: Profile
; Path bounds: (120.741, 40.912) to (125.740, 45.873)
; Cut depth: 0.000mm, Step down: 0.000mm
G00 X100.140 Y23.374 Z10.000
G01 Z0.000 F100
G01 X100.273 Y24.192 F100
G01 Z0.000 F100
G01 X100.644 Y24.905 F100
G01 Z0.000 F100
G01 X101.209 Y25.469 F100
G01 Z0.000 F100
G01 X101.922 Y25.840 F100
G01 Z0.000 F100
G01 X102.740 Y25.974 F100
G01 Z0.000 F100
G01 X103.558 Y25.840 F100
G01 Z0.000 F100
G01 X104.271 Y25.469 F100
G01 Z0.000 F100
G01 X104.836 Y24.905 F100
G01 Z0.000 F100
G01 X105.207 Y24.192 F100
G01 Z0.000 F100
G01 X105.340 Y23.374 F100
G01 Z0.000 F100
G01 X105.207 Y22.555 F100
G01 Z0.000 F100
G01 X104.836 Y21.842 F100
G01 Z0.000 F100
G01 X104.271 Y21.278 F100
G01 Z0.000 F100
G01 X103.558 Y20.907 F100
G01 Z0.000 F100
G01 X102.740 Y20.774 F100
G01 Z0.000 F100
G01 X101.922 Y20.907 F100
G01 Z0.000 F100
G01 X101.209 Y21.278 F100
G01 Z0.000 F100
G01 X100.644 Y21.842 F100
G01 Z0.000 F100
G01 X100.274 Y22.555 F100
G01 Z0.000 F100
G01 X100.140 Y23.374 F100
G01 Z0.000 F100
G01 X100.140 Y23.374 F100
G00 X0.000 Y0.000 Z10.000

; Shape 44: ID=51, Type=Path
; Name: Path
; Operation: Profile
; Path bounds: (120.741, 100.912) to (125.740, 105.873)
; Cut depth: 0.000mm, Step down: 0.000mm
G00 X102.640 Y33.374 Z10.000
G01 Z0.000 F100
G01 X102.773 Y34.192 F100
G01 Z0.000 F100
G01 X103.144 Y34.905 F100
G01 Z0.000 F100
G01 X103.709 Y35.469 F100
G01 Z0.000 F100
G01 X104.422 Y35.840 F100
G01 Z0.000 F100
G01 X105.240 Y35.974 F100
G01 Z0.000 F100
G01 X106.058 Y35.840 F100
G01 Z0.000 F100
G01 X106.771 Y35.469 F100
G01 Z0.000 F100
G01 X107.336 Y34.905 F100
G01 Z0.000 F100
G01 X107.707 Y34.192 F100
G01 Z0.000 F100
G01 X107.840 Y33.374 F100
G01 Z0.000 F100
G01 X107.707 Y32.555 F100
G01 Z0.000 F100
G01 X107.336 Y31.842 F100
G01 Z0.000 F100
G01 X106.771 Y31.278 F100
G01 Z0.000 F100
G01 X106.058 Y30.907 F100
G01 Z0.000 F100
G01 X105.240 Y30.774 F100
G01 Z0.000 F100
G01 X104.422 Y30.907 F100
G01 Z0.000 F100
G01 X103.709 Y31.278 F100
G01 Z0.000 F100
G01 X103.144 Y31.842 F100
G01 Z0.000 F100
G01 X102.774 Y32.555 F100
G01 Z0.000 F100
G01 X102.640 Y33.374 F100
G01 Z0.000 F100
G01 X102.640 Y33.374 F100
G00 X0.000 Y0.000 Z10.000

; Shape 45: ID=52, Type=Path
; Name: Path
; Operation: Profile
; Path bounds: (19.741, 40.912) to (24.740, 45.873)
; Cut depth: 0.000mm, Step down: 0.000mm
G00 X100.140 Y43.374 Z10.000
G01 Z0.000 F100
G01 X100.273 Y44.192 F100
G01 Z0.000 F100
G01 X100.644 Y44.905 F100
G01 Z0.000 F100
G01 X101.209 Y45.469 F100
G01 Z0.000 F100
G01 X101.922 Y45.840 F100
G01 Z0.000 F100
G01 X102.740 Y45.974 F100
G01 Z0.000 F100
G01 X103.558 Y45.840 F100
G01 Z0.000 F100
G01 X104.271 Y45.469 F100
G01 Z0.000 F100
G01 X104.836 Y44.905 F100
G01 Z0.000 F100
G01 X105.207 Y44.192 F100
G01 Z0.000 F100
G01 X105.340 Y43.374 F100
G01 Z0.000 F100
G01 X105.207 Y42.556 F100
G01 Z0.000 F100
G01 X104.836 Y41.842 F100
G01 Z0.000 F100
G01 X104.271 Y41.278 F100
G01 Z0.000 F100
G01 X103.558 Y40.907 F100
G01 Z0.000 F100
G01 X102.740 Y40.774 F100
G01 Z0.000 F100
G01 X101.922 Y40.907 F100
G01 Z0.000 F100
G01 X101.209 Y41.278 F100
G01 Z0.000 F100
G01 X100.644 Y41.842 F100
G01 Z0.000 F100
G01 X100.274 Y42.556 F100
G01 Z0.000 F100
G01 X100.140 Y43.374 F100
G01 Z0.000 F100
G01 X100.140 Y43.374 F100
G00 X0.000 Y0.000 Z10.000

; Shape 46: ID=61, Type=Path
; Name: Path
; Operation: Profile
; Path bounds: (70.140, 70.774) to (75.340, 75.974)
; Cut depth: 0.000mm, Step down: 0.000mm
G00 X100.140 Y123.374 Z10.000
G01 Z0.000 F100
G01 X100.273 Y124.192 F100
G01 Z0.000 F100
G01 X100.644 Y124.905 F100
G01 Z0.000 F100
G01 X101.209 Y125.469 F100
G01 Z0.000 F100
G01 X101.922 Y125.840 F100
G01 Z0.000 F100
G01 X102.740 Y125.974 F100
G01 Z0.000 F100
G01 X103.558 Y125.840 F100
G01 Z0.000 F100
G01 X104.271 Y125.469 F100
G01 Z0.000 F100
G01 X104.836 Y124.905 F100
G01 Z0.000 F100
G01 X105.207 Y124.192 F100
G01 Z0.000 F100
G01 X105.340 Y123.374 F100
G01 Z0.000 F100
G01 X105.207 Y122.555 F100
G01 Z0.000 F100
G01 X104.836 Y121.842 F100
G01 Z0.000 F100
G01 X104.271 Y121.278 F100
G01 Z0.000 F100
G01 X103.558 Y120.907 F100
G01 Z0.000 F100
G01 X102.740 Y120.774 F100
G01 Z0.000 F100
G01 X101.922 Y120.907 F100
G01 Z0.000 F100
G01 X101.209 Y121.278 F100
G01 Z0.000 F100
G01 X100.644 Y121.842 F100
G01 Z0.000 F100
G01 X100.274 Y122.555 F100
G01 Z0.000 F100
G01 X100.140 Y123.374 F100
G01 Z0.000 F100
G01 X100.140 Y123.374 F100
G00 X0.000 Y0.000 Z10.000

; Shape 47: ID=62, Type=Path
; Name: Path
; Operation: Profile
; Path bounds: (60.140, 80.774) to (65.340, 85.974)
; Cut depth: 0.000mm, Step down: 0.000mm
G00 X102.640 Y113.374 Z10.000
G01 Z0.000 F100
G01 X102.773 Y114.192 F100
G01 Z0.000 F100
G01 X103.144 Y114.905 F100
G01 Z0.000 F100
G01 X103.709 Y115.469 F100
G01 Z0.000 F100
G01 X104.422 Y115.840 F100
G01 Z0.000 F100
G01 X105.240 Y115.974 F100
G01 Z0.000 F100
G01 X106.058 Y115.840 F100
G01 Z0.000 F100
G01 X106.771 Y115.469 F100
G01 Z0.000 F100
G01 X107.336 Y114.905 F100
G01 Z0.000 F100
G01 X107.707 Y114.192 F100
G01 Z0.000 F100
G01 X107.840 Y113.374 F100
G01 Z0.000 F100
G01 X107.707 Y112.556 F100
G01 Z0.000 F100
G01 X107.336 Y111.842 F100
G01 Z0.000 F100
G01 X106.771 Y111.278 F100
G01 Z0.000 F100
G01 X106.058 Y110.907 F100
G01 Z0.000 F100
G01 X105.240 Y110.774 F100
G01 Z0.000 F100
G01 X104.422 Y110.907 F100
G01 Z0.000 F100
G01 X103.709 Y111.278 F100
G01 Z0.000 F100
G01 X103.144 Y111.842 F100
G01 Z0.000 F100
G01 X102.774 Y112.556 F100
G01 Z0.000 F100
G01 X102.640 Y113.374 F100
G01 Z0.000 F100
G01 X102.640 Y113.374 F100
G00 X0.000 Y0.000 Z10.000

; Shape 48: ID=63, Type=Path
; Name: Path
; Operation: Profile
; Path bounds: (80.140, 60.774) to (85.340, 65.974)
; Cut depth: 0.000mm, Step down: 0.000mm
G00 X100.140 Y103.374 Z10.000
G01 Z0.000 F100
G01 X100.273 Y104.192 F100
G01 Z0.000 F100
G01 X100.644 Y104.905 F100
G01 Z0.000 F100
G01 X101.209 Y105.469 F100
G01 Z0.000 F100
G01 X101.922 Y105.840 F100
G01 Z0.000 F100
G01 X102.740 Y105.974 F100
G01 Z0.000 F100
G01 X103.558 Y105.840 F100
G01 Z0.000 F100
G01 X104.271 Y105.469 F100
G01 Z0.000 F100
G01 X104.836 Y104.905 F100
G01 Z0.000 F100
G01 X105.207 Y104.192 F100
G01 Z0.000 F100
G01 X105.340 Y103.374 F100
G01 Z0.000 F100
G01 X105.207 Y102.555 F100
G01 Z0.000 F100
G01 X104.836 Y101.842 F100
G01 Z0.000 F100
G01 X104.271 Y101.278 F100
G01 Z0.000 F100
G01 X103.558 Y100.907 F100
G01 Z0.000 F100
G01 X102.740 Y100.774 F100
G01 Z0.000 F100
G01 X101.922 Y100.907 F100
G01 Z0.000 F100
G01 X101.209 Y101.278 F100
G01 Z0.000 F100
G01 X100.644 Y101.842 F100
G01 Z0.000 F100
G01 X100.274 Y102.555 F100
G01 Z0.000 F100
G01 X100.140 Y103.374 F100
G01 Z0.000 F100
G01 X100.140 Y103.374 F100
G00 X0.000 Y0.000 Z10.000

; Shape 49: ID=64, Type=Path
; Name: Path
; Operation: Profile
; Path bounds: (80.140, 80.774) to (85.340, 85.974)
; Cut depth: 0.000mm, Step down: 0.000mm
G00 X100.140 Y83.374 Z10.000
G01 Z0.000 F100
G01 X100.273 Y84.192 F100
G01 Z0.000 F100
G01 X100.644 Y84.905 F100
G01 Z0.000 F100
G01 X101.209 Y85.469 F100
G01 Z0.000 F100
G01 X101.922 Y85.840 F100
G01 Z0.000 F100
G01 X102.740 Y85.974 F100
G01 Z0.000 F100
G01 X103.558 Y85.840 F100
G01 Z0.000 F100
G01 X104.271 Y85.469 F100
G01 Z0.000 F100
G01 X104.836 Y84.905 F100
G01 Z0.000 F100
G01 X105.207 Y84.192 F100
G01 Z0.000 F100
G01 X105.340 Y83.374 F100
G01 Z0.000 F100
G01 X105.207 Y82.556 F100
G01 Z0.000 F100
G01 X104.836 Y81.842 F100
G01 Z0.000 F100
G01 X104.271 Y81.278 F100
G01 Z0.000 F100
G01 X103.558 Y80.907 F100
G01 Z0.000 F100
G01 X102.740 Y80.774 F100
G01 Z0.000 F100
G01 X101.922 Y80.907 F100
G01 Z0.000 F100
G01 X101.209 Y81.278 F100
G01 Z0.000 F100
G01 X100.644 Y81.842 F100
G01 Z0.000 F100
G01 X100.274 Y82.555 F100
G01 Z0.000 F100
G01 X100.140 Y83.374 F100
G01 Z0.000 F100
G01 X100.140 Y83.374 F100
G00 X0.000 Y0.000 Z10.000

; Shape 50: ID=65, Type=Path
; Name: Path
; Operation: Profile
; Path bounds: (60.140, 60.774) to (65.340, 65.974)
; Cut depth: 0.000mm, Step down: 0.000mm
G00 X100.140 Y63.374 Z10.000
G01 Z0.000 F100
G01 X100.273 Y64.192 F100
G01 Z0.000 F100
G01 X100.644 Y64.905 F100
G01 Z0.000 F100
G01 X101.209 Y65.469 F100
G01 Z0.000 F100
G01 X101.922 Y65.840 F100
G01 Z0.000 F100
G01 X102.740 Y65.974 F100
G01 Z0.000 F100
G01 X103.558 Y65.840 F100
G01 Z0.000 F100
G01 X104.271 Y65.469 F100
G01 Z0.000 F100
G01 X104.836 Y64.905 F100
G01 Z0.000 F100
G01 X105.207 Y64.192 F100
G01 Z0.000 F100
G01 X105.340 Y63.374 F100
G01 Z0.000 F100
G01 X105.207 Y62.556 F100
G01 Z0.000 F100
G01 X104.836 Y61.842 F100
G01 Z0.000 F100
G01 X104.271 Y61.278 F100
G01 Z0.000 F100
G01 X103.558 Y60.907 F100
G01 Z0.000 F100
G01 X102.740 Y60.774 F100
G01 Z0.000 F100
G01 X101.922 Y60.907 F100
G01 Z0.000 F100
G01 X101.209 Y61.278 F100
G01 Z0.000 F100
G01 X100.644 Y61.842 F100
G01 Z0.000 F100
G01 X100.274 Y62.556 F100
G01 Z0.000 F100
G01 X100.140 Y63.374 F100
G01 Z0.000 F100
G01 X100.140 Y63.374 F100
G00 X0.000 Y0.000 Z10.000

; Shape 51: ID=67, Type=Rectangle
; Name: Rectangle
; Operation: Pocket
; Position: (55.240, 55.874) to (91.151, 90.282)
; Corner radius: 5.000mm
; Pocket depth: 1.500mm, Step down: 0.200mm, Step in: 1.170mm
; Strategy: ContourParallel
G00 X100.140 Y73.374 Z10.000
G01 Z0.000 F100
G01 X100.273 Y74.192 F100
G01 Z0.000 F100
G01 X100.644 Y74.905 F100
G01 Z0.000 F100
G01 X101.209 Y75.469 F100
G01 Z0.000 F100
G01 X101.922 Y75.840 F100
G01 Z0.000 F100
G01 X102.740 Y75.974 F100
G01 Z0.000 F100
G01 X103.558 Y75.840 F100
G01 Z0.000 F100
G01 X104.271 Y75.469 F100
G01 Z0.000 F100
G01 X104.836 Y74.905 F100
G01 Z0.000 F100
G01 X105.207 Y74.192 F100
G01 Z0.000 F100
G01 X105.340 Y73.374 F100
G01 Z0.000 F100
G01 X105.207 Y72.555 F100
G01 Z0.000 F100
G01 X104.836 Y71.842 F100
G01 Z0.000 F100
G01 X104.271 Y71.278 F100
G01 Z0.000 F100
G01 X103.558 Y70.907 F100
G01 Z0.000 F100
G01 X102.740 Y70.774 F100
G01 Z0.000 F100
G01 X101.922 Y70.907 F100
G01 Z0.000 F100
G01 X101.209 Y71.278 F100
G01 Z0.000 F100
G01 X100.644 Y71.842 F100
G01 Z0.000 F100
G01 X100.274 Y72.555 F100
G01 Z0.000 F100
G01 X100.140 Y73.374 F100
G01 Z0.000 F100
G01 X100.140 Y73.374 F100
G00 X0.000 Y0.000 Z10.000

M5          ; Spindle off
G00 Z10     ; Raise tool
G00 X0 Y0   ; Return to origin
M30         ; End program
